; generated by Slic3r 1.2.0 on 2014-10-23 at 23:01:38

; external perimeters extrusion width = 0.40mm
; perimeters extrusion width = 0.67mm
; infill extrusion width = 0.67mm
; solid infill extrusion width = 0.67mm
; top infill extrusion width = 0.67mm

G21 ; set units to millimeters
M107
M104 S195 ; set temperature
G28 X0 Y0  
G29
M109 S195 ; wait for temperature to be reached
G90 ; use absolute coordinates
G92 E0
M82 ; use absolute distances for extrusion
G1 F1800.000 E-1.00000
G92 E0
G1 Z0.300 F4800.000
G1 X21.512 Y21.418 F4800.000
G1 E1.00000 F1800.000
G1 X22.477 Y20.472 E1.08123 F720.000
G1 X24.454 Y18.631 E1.24367
G1 X25.467 Y17.737 E1.32491
G1 X27.538 Y16.002 E1.48736
G1 X29.669 Y14.340 E1.64981
G1 X30.755 Y13.538 E1.73103
G1 X31.856 Y12.754 E1.81226
G1 X33.021 Y11.956 E1.89715
G1 X35.237 Y10.520 E2.05594
G1 X36.390 Y9.815 E2.13717
G1 X38.731 Y8.467 E2.29961
G1 X39.918 Y7.823 E2.38084
G1 X41.172 Y7.173 E2.46573
G1 X43.547 Y6.018 E2.62452
G1 X44.777 Y5.459 E2.70575
G1 X47.265 Y4.405 E2.86819
G1 X48.522 Y3.911 E2.94941
G1 X49.845 Y3.419 E3.03431
G1 X52.343 Y2.561 E3.19310
G1 X53.632 Y2.156 E3.27433
G1 X55.023 Y1.747 E3.36150
G1 X57.538 Y1.077 E3.51800
G1 X60.171 Y0.471 E3.68045
G1 X61.495 Y0.203 E3.76168
G1 X62.824 Y-0.042 E3.84291
G1 X65.493 Y-0.462 E4.00536
G1 X66.893 Y-0.645 E4.09025
G1 X69.520 Y-0.918 E4.24903
G1 X70.927 Y-1.026 E4.33392
G1 X73.565 Y-1.162 E4.49271
G1 X76.073 Y-1.206 E4.64352
G1 X77.617 Y-1.194 E4.73638
G1 X80.317 Y-1.097 E4.89884 F720.000
G1 X81.666 Y-1.013 E4.98006
G1 X84.357 Y-0.776 E5.14251
G1 X87.039 Y-0.444 E5.30497
G1 X88.435 Y-0.233 E5.38985
G1 X91.035 Y0.228 E5.54864
G1 X92.359 Y0.499 E5.62986
G1 X93.737 Y0.807 E5.71476
G1 X96.298 Y1.448 E5.87354
G1 X97.600 Y1.810 E5.95477
G1 X100.183 Y2.602 E6.11722
G1 X101.464 Y3.032 E6.19845
G1 X102.794 Y3.506 E6.28334
G1 X105.259 Y4.455 E6.44212
G1 X106.506 Y4.973 E6.52335
G1 X108.974 Y6.074 E6.68580
G1 X110.192 Y6.657 E6.76703
G1 X111.455 Y7.289 E6.85192
G1 X113.785 Y8.531 E7.01070
G1 X114.961 Y9.197 E7.09193
G1 X117.276 Y10.591 E7.25439
G1 X119.540 Y12.064 E7.41682
G1 X120.653 Y12.830 E7.49804
G1 X122.837 Y14.420 E7.66051
G1 X123.956 Y15.282 E7.74540
G1 X126.007 Y16.946 E7.90417
G1 X127.033 Y17.824 E7.98540
G1 X128.089 Y18.761 E8.07031
G1 X130.019 Y20.564 E8.22908
G1 X130.981 Y21.512 E8.31030
G1 X131.928 Y22.477 E8.39154
G1 X132.898 Y23.502 E8.47643
G1 X134.663 Y25.467 E8.63521
G1 X135.540 Y26.495 E8.71645
G1 X137.238 Y28.596 E8.87890
G1 X138.096 Y29.718 E8.96379
G1 X139.646 Y31.855 E9.12255
G1 X140.410 Y32.970 E9.20380
G1 X141.188 Y34.148 E9.28869
G1 X142.585 Y36.390 E9.44748
G1 X143.269 Y37.554 E9.52870
G1 X143.933 Y38.731 E9.60993
G1 X144.605 Y39.973 E9.69483
G1 X145.802 Y42.327 E9.85360
G1 X146.382 Y43.546 E9.93481
G1 X146.941 Y44.777 E10.01607
G1 X147.502 Y46.072 E10.10095
G1 X148.489 Y48.522 E10.25975
G1 X148.961 Y49.787 E10.34095
G1 X149.411 Y51.062 E10.42219
G1 X149.857 Y52.401 E10.50708
G1 X150.626 Y54.928 E10.66587
G1 X150.986 Y56.230 E10.74710
G1 X151.638 Y58.852 E10.90955
G1 X151.929 Y60.171 E10.99077
G1 X152.208 Y61.555 E11.07567
G1 X152.664 Y64.156 E11.23441
G1 X152.862 Y65.493 E11.31567
G1 X153.189 Y68.175 E11.47812
G1 X153.423 Y70.867 E11.64058
G1 X153.562 Y73.564 E11.80299
G1 X153.596 Y74.916 E11.88426
G1 X153.594 Y77.617 E12.04671
G1 X153.554 Y79.029 E12.13160
G1 X153.413 Y81.666 E12.29038
G1 X153.176 Y84.357 E12.45283
G1 X153.022 Y85.699 E12.53406
G1 X152.643 Y88.374 E12.69647
G1 X152.172 Y91.035 E12.85896
G1 X151.608 Y93.677 E13.02141
G1 X151.291 Y94.990 E13.10261
G1 X150.952 Y96.298 E13.18382
G1 X150.572 Y97.658 E13.26875
G1 X149.798 Y100.183 E13.42753
G1 X149.368 Y101.464 E13.50877
G1 X148.916 Y102.737 E13.58997
G1 X148.419 Y104.059 E13.67489
G1 X147.427 Y106.506 E13.83367
G1 X146.888 Y107.745 E13.91488
G1 X146.326 Y108.974 E13.99613
G1 X145.716 Y110.247 E14.08101
G1 X144.515 Y112.599 E14.23980
G1 X143.869 Y113.785 E14.32101
G1 X143.203 Y114.961 E14.40225
G1 X142.484 Y116.176 E14.48715
G1 X141.083 Y118.414 E14.64592
G1 X140.336 Y119.540 E14.72716
G1 X139.534 Y120.703 E14.81206
G1 X137.980 Y122.837 E14.97082
G1 X136.314 Y124.965 E15.13328
G1 X135.415 Y126.053 E15.21818
G1 X133.680 Y128.044 E15.37695
G1 X131.836 Y130.019 E15.53941
G1 X129.923 Y131.928 E15.70186
G1 X128.943 Y132.857 E15.78309
G1 X127.900 Y133.809 E15.86798
G1 X125.905 Y135.540 E16.02677
G1 X124.862 Y136.398 E16.10799
G1 X122.732 Y138.059 E16.27042
G1 X121.645 Y138.862 E16.35167
G1 X120.494 Y139.680 E16.43657
G1 X118.303 Y141.155 E16.59535
G1 X117.163 Y141.880 E16.67658
G1 X114.846 Y143.269 E16.83903
G1 X113.616 Y143.963 E16.92391
G1 X111.283 Y145.200 E17.08270
G1 X108.853 Y146.382 E17.24515
G1 X107.568 Y146.966 E17.33004
G1 X105.136 Y147.995 E17.48882
G1 X103.878 Y148.489 E17.57006
G1 X102.555 Y148.981 E17.65494
G1 X100.057 Y149.838 E17.81369
G1 X98.768 Y150.244 E17.89496
G1 X97.472 Y150.626 E17.97619
G1 X94.862 Y151.323 E18.13861
G1 X92.229 Y151.929 E18.30108
G1 X90.845 Y152.208 E18.38598
G1 X88.244 Y152.664 E18.54472
G1 X85.568 Y153.038 E18.70721
G1 X84.226 Y153.189 E18.78842
G1 X82.820 Y153.323 E18.87333
G1 X80.185 Y153.504 E19.03212
G1 X78.836 Y153.562 E19.11330
G1 X76.134 Y153.607 E19.27578
G1 X74.783 Y153.594 E19.35703
G1 X73.371 Y153.554 E19.44191
G1 X70.734 Y153.413 E19.60070
G1 X69.387 Y153.306 E19.68193
G1 X66.701 Y153.022 E19.84437
G1 X65.361 Y152.844 E19.92560
G1 X63.965 Y152.633 E20.01049
G1 X61.365 Y152.172 E20.16928
G1 X60.041 Y151.901 E20.25050
G1 X58.723 Y151.608 E20.33174
G1 X57.350 Y151.276 E20.41662
G1 X54.801 Y150.590 E20.57537
G1 X53.505 Y150.205 E20.65664
G1 X50.936 Y149.368 E20.81909
G1 X49.606 Y148.894 E20.90397
G1 X47.141 Y147.945 E21.06276
G1 X45.894 Y147.427 E21.14399
G1 X44.600 Y146.862 E21.22888
G1 X42.208 Y145.744 E21.38764
G1 X40.999 Y145.140 E21.46889
G1 X39.801 Y144.515 E21.55012
G1 X38.562 Y143.839 E21.63501
G1 X36.276 Y142.516 E21.79378
G1 X35.124 Y141.809 E21.87503
G1 X33.935 Y141.049 E21.95991
G1 X31.747 Y139.570 E22.11869
G1 X29.563 Y137.980 E22.28115
G1 X28.491 Y137.156 E22.36238
G1 X26.393 Y135.454 E22.52483
G1 X24.356 Y133.680 E22.68728
G1 X22.381 Y131.836 E22.84973
G1 X20.472 Y129.923 E23.01218
G1 X19.543 Y128.943 E23.09340
G1 X17.737 Y126.933 E23.25585
G1 X16.822 Y125.858 E23.34074
G1 X15.162 Y123.804 E23.49951
G1 X13.538 Y121.645 E23.66198
G1 X12.754 Y120.544 E23.74321
G1 X11.956 Y119.379 E23.82810
G1 X10.520 Y117.163 E23.98688
G1 X9.816 Y116.011 E24.06810
G1 X8.467 Y113.669 E24.23056
G1 X7.200 Y111.283 E24.39301
G1 X6.572 Y110.018 E24.47790
G1 X5.459 Y107.624 E24.63667
G1 X4.921 Y106.384 E24.71791
G1 X4.383 Y105.079 E24.80280
G1 X3.439 Y102.612 E24.96158
G1 X2.989 Y101.339 E25.04280
G1 X2.562 Y100.057 E25.12403
G1 X2.139 Y98.710 E25.20894
G1 X1.414 Y96.170 E25.36771
G1 X1.077 Y94.862 E25.44894
G1 X0.762 Y93.548 E25.53016
G1 X0.459 Y92.169 E25.61507
G1 X-0.042 Y89.576 E25.77385
G1 X-0.264 Y88.243 E25.85508
G1 X-0.462 Y86.907 E25.93631
G1 X-0.645 Y85.507 E26.02120
G1 X-0.918 Y82.880 E26.17998
G1 X-1.023 Y81.533 E26.26121
G1 X-1.104 Y80.185 E26.34244
G1 X-1.196 Y77.485 E26.50489
G1 X-1.194 Y74.783 E26.66734
G1 X-1.097 Y72.083 E26.82978
G1 X-1.013 Y70.734 E26.91101
G1 X-0.900 Y69.327 E26.99591
G1 X-0.622 Y66.701 E27.15469
G1 X-0.444 Y65.362 E27.23590
G1 X-0.019 Y62.693 E27.39836
G1 X0.228 Y61.365 E27.47960
G1 X0.512 Y59.982 E27.56449
G1 X1.109 Y57.409 E27.72327
G1 X1.448 Y56.102 E27.80450
G1 X1.847 Y54.678 E27.89341
G1 X2.602 Y52.217 E28.04817
G1 X3.484 Y49.663 E28.21063
G1 X3.959 Y48.398 E28.29185
G1 X4.478 Y47.085 E28.37674
G1 X5.513 Y44.655 E28.53552
G1 X6.074 Y43.426 E28.61676
G1 X6.657 Y42.208 E28.69798
G1 X7.289 Y40.945 E28.78288
G1 X8.531 Y38.614 E28.94166
G1 X9.197 Y37.439 E29.02289
G1 X9.884 Y36.276 E29.10412
G1 X10.623 Y35.073 E29.18900
G1 X12.064 Y32.860 E29.34779
G1 X12.830 Y31.747 E29.42902
G1 X13.616 Y30.648 E29.51025
G1 X14.457 Y29.514 E29.59514
G1 X16.086 Y27.435 E29.75393
G1 X16.946 Y26.393 E29.83515
G1 X17.824 Y25.367 E29.91638
G1 X18.761 Y24.311 E30.00127
G1 X19.676 Y23.316 E30.08250
G1 X21.470 Y21.461 E30.23767
G1 X21.852 Y21.837 F4800.000
G1 X22.845 Y20.861 E30.32142 F720.000
G1 X24.809 Y19.033 E30.48273
G1 X25.815 Y18.144 E30.56341
G1 X27.871 Y16.421 E30.72473
G1 X29.987 Y14.771 E30.88606
G1 X31.066 Y13.974 E30.96672
G1 X33.316 Y12.403 E31.13171
G1 X35.517 Y10.977 E31.28937
G1 X36.661 Y10.277 E31.37004
G1 X38.986 Y8.937 E31.53135
G1 X40.166 Y8.298 E31.61203
G1 X41.411 Y7.652 E31.69635
G1 X43.769 Y6.505 E31.85402
G1 X44.990 Y5.950 E31.93468
G1 X47.461 Y4.903 E32.09601
G1 X50.024 Y3.923 E32.26100
G1 X52.504 Y3.072 E32.41866
G1 X53.784 Y2.670 E32.49932
G1 X55.166 Y2.263 E32.58593
G1 X57.663 Y1.597 E32.74131
G1 X60.278 Y0.996 E32.90264
G1 X61.593 Y0.730 E32.98331
G1 X62.912 Y0.486 E33.06397
G1 X65.563 Y0.069 E33.22529
G1 X66.954 Y-0.112 E33.30962
G1 X69.562 Y-0.384 E33.46728
G1 X70.960 Y-0.492 E33.55161
G1 X73.579 Y-0.626 E33.70927
G1 X76.077 Y-0.670 E33.85952
G1 X77.603 Y-0.658 E33.95126
G1 X80.285 Y-0.562 E34.11259 F720.000
G1 X81.624 Y-0.479 E34.19325
G1 X84.297 Y-0.243 E34.35458
G1 X86.960 Y0.086 E34.51591
G1 X88.346 Y0.295 E34.60023
G1 X90.928 Y0.753 E34.75790
G1 X93.612 Y1.327 E34.92289
G1 X96.155 Y1.964 E35.08055
G1 X97.448 Y2.324 E35.16121
G1 X100.013 Y3.110 E35.32254
G1 X102.606 Y4.007 E35.48752
G1 X105.054 Y4.950 E35.64519
G1 X106.293 Y5.464 E35.72585
G1 X108.743 Y6.557 E35.88718
G1 X111.208 Y7.764 E36.05217
G1 X113.522 Y8.997 E36.20982
G1 X114.689 Y9.659 E36.29049
G1 X116.988 Y11.042 E36.45182
G1 X119.237 Y12.505 E36.61313
G1 X120.342 Y13.266 E36.69379
G1 X122.511 Y14.845 E36.85514
G1 X123.623 Y15.701 E36.93946
G1 X125.659 Y17.353 E37.09711
G1 X127.728 Y19.156 E37.26211
G1 X129.643 Y20.946 E37.41976
G1 X130.599 Y21.887 E37.50042
G1 X132.503 Y23.864 E37.66543
G1 X134.256 Y25.815 E37.82308
G1 X135.126 Y26.836 E37.90375
G1 X136.813 Y28.922 E38.06508
G1 X137.665 Y30.036 E38.14941
G1 X139.204 Y32.159 E38.30705
G1 X140.736 Y34.436 E38.47206
G1 X142.123 Y36.661 E38.62972
G1 X142.803 Y37.818 E38.71038
G1 X144.130 Y40.220 E38.87538
G1 X145.318 Y42.557 E39.03303
G1 X145.895 Y43.769 E39.11368
G1 X147.008 Y46.277 E39.27868
G1 X147.987 Y48.710 E39.43636
G1 X148.456 Y49.966 E39.51700
G1 X149.346 Y52.562 E39.68200
G1 X150.110 Y55.071 E39.83966
G1 X150.468 Y56.364 E39.92033
G1 X151.115 Y58.968 E40.08166
G1 X151.682 Y61.653 E40.24664
G1 X152.134 Y64.235 E40.40426
G1 X152.331 Y65.562 E40.48495
G1 X152.656 Y68.226 E40.64628
G1 X152.888 Y70.899 E40.80762
G1 X153.026 Y73.578 E40.96891
G1 X153.060 Y74.920 E41.04962
G1 X153.058 Y77.603 E41.21094
G1 X153.019 Y79.005 E41.29526
G1 X152.879 Y81.624 E41.45293
G1 X152.643 Y84.297 E41.61425
G1 X152.490 Y85.629 E41.69492
G1 X152.115 Y88.286 E41.85620
G1 X151.647 Y90.928 E42.01757
G1 X151.087 Y93.552 E42.17889
G1 X150.773 Y94.856 E42.25954
G1 X150.059 Y97.506 E42.42455
G1 X149.290 Y100.013 E42.58220
G1 X148.863 Y101.285 E42.66288
G1 X147.921 Y103.862 E42.82787
G1 X146.936 Y106.293 E42.98552
G1 X146.400 Y107.522 E43.06617
G1 X145.237 Y110.008 E43.23117
G1 X144.044 Y112.343 E43.38884
G1 X143.403 Y113.522 E43.46949
G1 X142.028 Y115.896 E43.63449
G1 X140.636 Y118.119 E43.79214
G1 X139.894 Y119.237 E43.87282
G1 X139.098 Y120.392 E43.95715
G1 X137.555 Y122.511 E44.11479
G1 X135.901 Y124.624 E44.27613
G1 X135.007 Y125.705 E44.36046
G1 X133.285 Y127.682 E44.51811
G1 X131.453 Y129.643 E44.67945
G1 X129.555 Y131.539 E44.84077
G1 X127.545 Y133.408 E45.00576
G1 X125.564 Y135.126 E45.16342
G1 X124.529 Y135.979 E45.24409
G1 X122.413 Y137.629 E45.40539
G1 X120.191 Y139.239 E45.57040
G1 X118.015 Y140.703 E45.72806
G1 X116.883 Y141.423 E45.80873
G1 X114.582 Y142.803 E45.97005
G1 X113.360 Y143.492 E46.05438
G1 X111.044 Y144.721 E46.21204
G1 X108.631 Y145.895 E46.37337
G1 X107.354 Y146.474 E46.45769
G1 X104.939 Y147.497 E46.61535
G1 X102.376 Y148.476 E46.78034
G1 X99.896 Y149.328 E46.93797
G1 X98.616 Y149.730 E47.01867
G1 X97.329 Y150.110 E47.09935
G1 X94.737 Y150.802 E47.26064
G1 X92.122 Y151.404 E47.42199
G1 X90.747 Y151.682 E47.50632
G1 X88.165 Y152.134 E47.66395
G1 X85.507 Y152.506 E47.82531
G1 X82.778 Y152.789 E47.99029
G1 X80.161 Y152.969 E48.14796
G1 X78.822 Y153.026 E48.22858
G1 X76.138 Y153.071 E48.38994
G1 X73.395 Y153.019 E48.55493
G1 X70.776 Y152.879 E48.71260
G1 X69.439 Y152.773 E48.79326
G1 X66.771 Y152.490 E48.95458
G1 X64.054 Y152.105 E49.11958
G1 X61.472 Y151.647 E49.27724
G1 X60.157 Y151.378 E49.35790
G1 X57.484 Y150.757 E49.52289
G1 X54.953 Y150.076 E49.68052
G1 X53.666 Y149.694 E49.76122
G1 X51.115 Y148.863 E49.92255
G1 X49.794 Y148.393 E50.00686
G1 X47.346 Y147.450 E50.16453
G1 X44.822 Y146.375 E50.32951
G1 X42.447 Y145.264 E50.48716
G1 X41.246 Y144.665 E50.56784
G1 X38.825 Y143.373 E50.73283
G1 X36.556 Y142.060 E50.89048
G1 X35.412 Y141.358 E50.97116
G1 X34.231 Y140.602 E51.05549
G1 X32.058 Y139.134 E51.21314
G1 X29.889 Y137.555 E51.37448
G1 X28.825 Y136.737 E51.45514
G1 X26.741 Y135.047 E51.61647
G1 X24.717 Y133.285 E51.77779
G1 X22.757 Y131.453 E51.93912
G1 X20.861 Y129.555 E52.10044
G1 X19.938 Y128.581 E52.18111
G1 X18.144 Y126.585 E52.34243
G1 X17.235 Y125.517 E52.42676
G1 X15.587 Y123.478 E52.58441
G1 X13.974 Y121.334 E52.74575
G1 X12.403 Y119.084 E52.91073
G1 X10.977 Y116.883 E53.06840
G1 X10.277 Y115.739 E53.14905
G1 X8.937 Y113.414 E53.31039
G1 X7.679 Y111.044 E53.47171
G1 X7.056 Y109.788 E53.55604
G1 X5.950 Y107.410 E53.71369
G1 X4.881 Y104.883 E53.87869
G1 X3.944 Y102.434 E54.03634
G1 X3.497 Y101.169 E54.11701
G1 X2.653 Y98.557 E54.28201
G1 X1.932 Y96.036 E54.43966
G1 X1.598 Y94.737 E54.52032
G1 X0.984 Y92.062 E54.68532
G1 X0.486 Y89.488 E54.84298
G1 X0.266 Y88.164 E54.92365
G1 X-0.112 Y85.446 E55.08863
G1 X-0.384 Y82.838 E55.24630
G1 X-0.488 Y81.501 E55.32696
G1 X-0.569 Y80.161 E55.40763
G1 X-0.660 Y77.480 E55.56895
G1 X-0.658 Y74.797 E55.73028
G1 X-0.562 Y72.115 E55.89160
G1 X-0.367 Y69.378 E56.05659
G1 X-0.090 Y66.771 E56.21425
G1 X0.086 Y65.441 E56.29490
G1 X0.508 Y62.791 E56.45624
G1 X1.035 Y60.098 E56.62123
G1 X1.627 Y57.543 E56.77889
G1 X1.964 Y56.245 E56.85956
G1 X2.360 Y54.830 E56.94790
G1 X3.110 Y52.387 E57.10155
G1 X3.986 Y49.851 E57.26287
G1 X4.973 Y47.290 E57.42786
G1 X6.000 Y44.878 E57.58551
G1 X6.557 Y43.657 E57.66619
G1 X7.764 Y41.192 E57.83118
G1 X8.997 Y38.878 E57.98884
G1 X9.659 Y37.711 E58.06950
G1 X11.075 Y35.361 E58.23449
G1 X12.506 Y33.163 E58.39215
G1 X13.266 Y32.058 E58.47282
G1 X14.882 Y29.840 E58.63780
G1 X16.499 Y27.776 E58.79547
G1 X17.353 Y26.741 E58.87613
G1 X19.156 Y24.673 E59.04112
G1 X20.064 Y23.685 E59.12178
G1 X21.810 Y21.880 E59.27277
G1 X22.191 Y22.255 F4800.000
G1 X23.214 Y21.249 E59.35902 F720.000
G1 X24.181 Y20.333 E59.43912
G1 X26.163 Y18.552 E59.59932
G1 X27.223 Y17.648 E59.68309
G1 X29.248 Y16.012 E59.83962
G1 X30.306 Y15.202 E59.91973
G1 X32.463 Y13.637 E60.07993
G1 X33.612 Y12.850 E60.16369
G1 X35.797 Y11.434 E60.32023
G1 X36.933 Y10.738 E60.40034
G1 X39.242 Y9.408 E60.56053
G1 X40.413 Y8.773 E60.64064
G1 X41.650 Y8.132 E60.72441
G1 X43.991 Y6.993 E60.88094
G1 X45.204 Y6.441 E60.96105
G1 X47.657 Y5.402 E61.12125
G1 X50.203 Y4.428 E61.28511
G1 X52.665 Y3.583 E61.44165
G1 X53.936 Y3.183 E61.52175
G1 X55.309 Y2.780 E61.60780
G1 X57.788 Y2.118 E61.76206
G1 X60.385 Y1.521 E61.92226
G1 X61.691 Y1.256 E62.00236
G1 X63.001 Y1.014 E62.08247
G1 X65.633 Y0.600 E62.24267
G1 X67.014 Y0.420 E62.32643
G1 X69.604 Y0.150 E62.48297
G1 X70.993 Y0.043 E62.56674
G1 X73.593 Y-0.091 E62.72328
G1 X76.082 Y-0.135 E62.87296
G1 X77.589 Y-0.123 E62.96358
G1 X80.252 Y-0.028 E63.12378 F720.000
G1 X81.643 Y0.059 E63.20755
G1 X84.236 Y0.289 E63.36409
G1 X86.880 Y0.615 E63.52429
G1 X88.258 Y0.823 E63.60805
G1 X90.822 Y1.278 E63.76459
G1 X93.487 Y1.848 E63.92846
G1 X96.012 Y2.480 E64.08499
G1 X97.296 Y2.837 E64.16509
G1 X99.843 Y3.618 E64.32530
G1 X102.419 Y4.509 E64.48916
G1 X104.849 Y5.444 E64.64570
G1 X106.079 Y5.955 E64.72580
G1 X108.512 Y7.041 E64.88600
G1 X110.960 Y8.239 E65.04987
G1 X113.258 Y9.463 E65.20640
G1 X114.417 Y10.120 E65.28651
G1 X116.700 Y11.494 E65.44671
G1 X118.933 Y12.947 E65.60690
G1 X120.031 Y13.702 E65.68700
G1 X122.185 Y15.270 E65.84722
G1 X123.289 Y16.120 E65.93098
