; generated by Slic3r 1.2.0 on 2014-10-26 at 13:26:48

; external perimeters extrusion width = 0.40mm
; perimeters extrusion width = 0.67mm
; infill extrusion width = 0.67mm
; solid infill extrusion width = 0.67mm
; top infill extrusion width = 0.67mm

G21 ; set units to millimeters
M107
M104 S195 ; set temperature
G28 X0 Y0  
G29
M109 S195 ; wait for temperature to be reached
G90 ; use absolute coordinates
G92 E0
M82 ; use absolute distances for extrusion
G1 F1800.000 E-1.00000
G92 E0
G1 Z0.300 F4800.000
G1 X20.664 Y20.570 F4800.000
G1 E1.00000 F1800.000
G1 X22.418 Y18.873 E1.13859 F720.000
G1 X23.651 Y17.739 E1.23371
G1 X25.583 Y16.060 E1.37905
G1 X26.783 Y15.069 E1.46742
G1 X28.799 Y13.493 E1.61275
G1 X30.050 Y12.567 E1.70112
G1 X31.167 Y11.771 E1.77903
G1 X33.289 Y10.340 E1.92436
G1 X34.601 Y9.503 E2.01273
G1 X35.772 Y8.787 E2.09064
G1 X38.149 Y7.417 E2.24644
G1 X39.355 Y6.763 E2.32435
G1 X41.801 Y5.520 E2.48015
G1 X43.040 Y4.930 E2.55805
G1 X45.269 Y3.936 E2.69665
G1 X46.815 Y3.292 E2.79176
G1 X49.377 Y2.311 E2.94756
G1 X50.671 Y1.854 E3.02547
G1 X51.972 Y1.420 E3.10337
G1 X54.420 Y0.671 E3.24871
G1 X55.919 Y0.255 E3.33708
G1 X57.248 Y-0.088 E3.41498
G1 X59.742 Y-0.664 E3.56032
G1 X61.266 Y-0.975 E3.64869
G1 X63.670 Y-1.400 E3.78729
G1 X65.326 Y-1.651 E3.88239
G1 X67.748 Y-1.950 E4.02100
G1 X69.415 Y-2.113 E4.11611
G1 X71.968 Y-2.292 E4.26144
G1 X73.523 Y-2.361 E4.34981
G1 X74.895 Y-2.396 E4.42772
G1 X77.335 Y-2.397 E4.56631
G1 X79.010 Y-2.356 E4.66142 F720.000
G1 X80.380 Y-2.295 E4.73933
G1 X83.117 Y-2.102 E4.89513
G1 X84.483 Y-1.969 E4.97303
G1 X86.906 Y-1.673 E5.11164
G1 X88.562 Y-1.428 E5.20674
G1 X89.915 Y-1.201 E5.28464
G1 X91.264 Y-0.950 E5.36255
G1 X93.768 Y-0.418 E5.50790
G1 X95.281 Y-0.056 E5.59626
G1 X96.609 Y0.289 E5.67416
G1 X97.931 Y0.657 E5.75207
G1 X100.265 Y1.369 E5.89066
G1 X101.855 Y1.898 E5.98577
G1 X103.147 Y2.357 E6.06367
G1 X104.432 Y2.838 E6.14158
G1 X106.696 Y3.751 E6.28018
G1 X108.233 Y4.416 E6.37529
G1 X109.481 Y4.986 E6.45319
G1 X111.946 Y6.191 E6.60900
G1 X114.367 Y7.481 E6.76480
G1 X115.561 Y8.158 E6.84270
G1 X116.742 Y8.855 E6.92061
G1 X118.913 Y10.211 E7.06595
G1 X120.211 Y11.069 E7.15431
G1 X121.341 Y11.847 E7.23222
G1 X122.457 Y12.645 E7.31012
G1 X124.408 Y14.113 E7.44873
G1 X125.720 Y15.153 E7.54383
G1 X126.778 Y16.027 E7.62173
G1 X127.821 Y16.918 E7.69964
G1 X129.723 Y18.631 E7.84499
G1 X130.852 Y19.701 E7.93334
G1 X131.830 Y20.664 E8.01125
G1 X133.734 Y22.639 E8.16705
G1 X134.660 Y23.651 E8.24495
G1 X136.263 Y25.492 E8.38356
G1 X137.331 Y26.783 E8.47866
G1 X138.184 Y27.857 E8.55657
G1 X139.833 Y30.050 E8.71236
G1 X140.629 Y31.167 E8.79027
G1 X142.061 Y33.289 E8.93562
G1 X142.897 Y34.601 E9.02398
G1 X143.613 Y35.772 E9.10189
G1 X144.309 Y36.954 E9.17979
G1 X145.637 Y39.355 E9.33560
G1 X146.880 Y41.801 E9.49139
G1 X147.470 Y43.040 E9.56930
G1 X148.464 Y45.269 E9.70789
G1 X149.108 Y46.815 E9.80300
G1 X149.609 Y48.092 E9.88090
G1 X150.546 Y50.671 E10.03672
G1 X151.337 Y53.106 E10.18208
G1 X151.780 Y54.597 E10.27042
G1 X152.145 Y55.919 E10.34832
G1 X152.765 Y58.403 E10.49369
G1 X153.103 Y59.922 E10.58203
G1 X153.375 Y61.266 E10.65993
G1 X153.624 Y62.615 E10.73783
G1 X154.007 Y65.026 E10.87643
G1 X154.229 Y66.686 E10.97155
G1 X154.383 Y68.049 E11.04945
G1 X154.513 Y69.415 E11.12735
G1 X154.689 Y71.915 E11.26968
G1 X154.761 Y73.523 E11.36106
G1 X154.796 Y74.894 E11.43897
G1 X154.807 Y76.266 E11.51687
G1 X154.765 Y78.707 E11.65547
G1 X154.695 Y80.380 E11.75058
G1 X154.610 Y81.749 E11.82848
G1 X154.369 Y84.483 E11.98428
G1 X154.213 Y85.846 E12.06219
G1 X153.828 Y88.562 E12.21799
G1 X153.601 Y89.915 E12.29590
G1 X153.136 Y92.312 E12.43453
G1 X152.777 Y93.947 E12.52961
G1 X152.456 Y95.281 E12.60751
G1 X151.825 Y97.639 E12.74611
G1 X151.352 Y99.246 E12.84122
G1 X150.502 Y101.854 E12.99701
G1 X150.043 Y103.148 E13.07493
G1 X149.126 Y105.538 E13.22029
G1 X148.532 Y106.975 E13.30863
G1 X147.984 Y108.233 E13.38654
G1 X146.822 Y110.719 E13.54234
G1 X146.209 Y111.946 E13.62024
G1 X145.008 Y114.206 E13.76559
G1 X144.242 Y115.561 E13.85395
G1 X143.545 Y116.742 E13.93185
G1 X142.089 Y119.068 E14.08765
G1 X141.331 Y120.211 E14.16556
G1 X139.863 Y122.308 E14.31091
G1 X138.938 Y123.560 E14.39927
G1 X138.102 Y124.647 E14.47717
G1 X136.567 Y126.545 E14.61577
G1 X135.482 Y127.821 E14.71088
G1 X133.644 Y129.858 E14.86668
G1 X132.699 Y130.852 E14.94458
G1 X130.974 Y132.579 E15.08318
G1 X129.761 Y133.734 E15.17829
G1 X128.749 Y134.660 E15.25619
G1 X127.721 Y135.569 E15.33410
G1 X125.760 Y137.214 E15.47944
G1 X124.543 Y138.184 E15.56781
G1 X123.454 Y139.018 E15.64571
G1 X122.350 Y139.833 E15.72361
G1 X120.351 Y141.234 E15.86224
G1 X118.957 Y142.161 E15.95732
G1 X117.799 Y142.897 E16.03522
G1 X115.446 Y144.308 E16.19103
G1 X114.251 Y144.983 E16.26894
G1 X111.828 Y146.269 E16.42473
G1 X110.599 Y146.880 E16.50264
G1 X108.279 Y147.963 E16.64801
G1 X106.853 Y148.584 E16.73635
G1 X105.585 Y149.108 E16.81425
G1 X104.308 Y149.609 E16.89215
G1 X101.903 Y150.485 E17.03752
G1 X100.428 Y150.980 E17.12586
G1 X99.119 Y151.391 E17.20377
G1 X96.658 Y152.097 E17.34915
G1 X95.152 Y152.488 E17.43747
G1 X92.478 Y153.103 E17.59328
G1 X91.134 Y153.375 E17.67118
G1 X88.730 Y153.800 E17.80980
G1 X87.074 Y154.051 E17.90489
G1 X85.714 Y154.229 E17.98280
G1 X82.985 Y154.513 E18.13859
G1 X81.617 Y154.620 E18.21650
G1 X79.180 Y154.749 E18.35511
G1 X77.506 Y154.796 E18.45021
G1 X76.134 Y154.807 E18.52811
G1 X73.390 Y154.756 E18.68391
G1 X72.020 Y154.695 E18.76182
G1 X69.585 Y154.527 E18.90043
G1 X67.917 Y154.369 E18.99552
G1 X66.554 Y154.213 E19.07343
G1 X65.194 Y154.032 E19.15134
G1 X62.782 Y153.652 E19.28999
G1 X61.136 Y153.350 E19.38504
G1 X59.792 Y153.075 E19.46293
G1 X58.453 Y152.777 E19.54085
G1 X56.084 Y152.188 E19.67947
G1 X54.469 Y151.743 E19.77456
G1 X53.154 Y151.352 E19.85247
G1 X50.720 Y150.562 E19.99781
G1 X49.253 Y150.043 E20.08617
G1 X46.692 Y149.058 E20.24197
G1 X44.167 Y147.984 E20.39778
G1 X41.681 Y146.822 E20.55358
G1 X40.454 Y146.209 E20.63148
G1 X38.033 Y144.919 E20.78729
G1 X35.816 Y143.639 E20.93264
G1 X34.489 Y142.827 E21.02099
G1 X33.332 Y142.089 E21.09890
G1 X31.210 Y140.658 E21.24425
G1 X29.943 Y139.755 E21.33260
G1 X28.840 Y138.938 E21.41051
G1 X26.916 Y137.436 E21.54911
G1 X25.622 Y136.373 E21.64421
G1 X23.553 Y134.572 E21.80002
G1 X22.542 Y133.644 E21.87792
G1 X20.700 Y131.866 E22.02327
G1 X19.609 Y130.757 E22.11163
G1 X18.666 Y129.761 E22.18953
G1 X17.740 Y128.749 E22.26744
G1 X16.060 Y126.817 E22.41279
G1 X15.069 Y125.617 E22.50114
G1 X14.216 Y124.543 E22.57905
G1 X12.567 Y122.350 E22.73485
G1 X11.771 Y121.233 E22.81276
G1 X10.405 Y119.210 E22.95136
G1 X9.503 Y117.799 E23.04646
G1 X8.787 Y116.628 E23.12437
G1 X7.417 Y114.251 E23.28017
G1 X6.215 Y111.991 E23.42551
G1 X5.520 Y110.599 E23.51388
G1 X4.362 Y108.112 E23.66968
G1 X3.816 Y106.853 E23.74758
G1 X2.857 Y104.480 E23.89292
G1 X2.311 Y103.023 E23.98129
G1 X1.854 Y101.729 E24.05920
G1 X1.420 Y100.428 E24.13710
G1 X0.671 Y97.980 E24.28244
G1 X0.255 Y96.481 E24.37081
G1 X-0.088 Y95.152 E24.44871
G1 X-0.407 Y93.818 E24.52662
G1 X-0.916 Y91.431 E24.66521
G1 X-1.224 Y89.785 E24.76032
G1 X-1.449 Y88.431 E24.83823
G1 X-1.651 Y87.074 E24.91613
G1 X-1.950 Y84.652 E25.05473
G1 X-2.113 Y82.985 E25.14984
G1 X-2.220 Y81.617 E25.22774
G1 X-2.302 Y80.248 E25.30565
G1 X-2.389 Y77.808 E25.44426
G1 X-2.407 Y76.134 E25.53935
G1 X-2.393 Y74.762 E25.61726
G1 X-2.356 Y73.390 E25.69516
G1 X-2.230 Y70.953 E25.83376
G1 X-2.102 Y69.283 E25.92887
G1 X-1.969 Y67.917 E26.00677
G1 X-1.813 Y66.554 E26.08468
G1 X-1.474 Y64.137 E26.22327
G1 X-1.201 Y62.485 E26.31839
G1 X-0.950 Y61.136 E26.39629
G1 X-0.675 Y59.792 E26.47419
G1 X-0.127 Y57.413 E26.61280
G1 X0.289 Y55.791 E26.70790
G1 X0.657 Y54.469 E26.78580
G1 X1.048 Y53.154 E26.86371
G1 X1.800 Y50.832 E27.00231
G1 X2.357 Y49.253 E27.09742
G1 X2.838 Y47.968 E27.17532
G1 X3.868 Y45.425 E27.33112
G1 X4.416 Y44.167 E27.40903
G1 X5.446 Y41.954 E27.54763
G1 X6.191 Y40.454 E27.64273
G1 X6.826 Y39.238 E27.72064
G1 X8.158 Y36.839 E27.87644
G1 X8.855 Y35.658 E27.95435
G1 X10.147 Y33.587 E28.09294
G1 X11.069 Y32.189 E28.18805
G1 X11.847 Y31.059 E28.26596
G1 X12.645 Y29.943 E28.34386
G1 X14.113 Y27.992 E28.48245
G1 X15.153 Y26.680 E28.57757
G1 X16.027 Y25.622 E28.65547
G1 X16.918 Y24.579 E28.73338
G1 X18.550 Y22.765 E28.87197
G1 X19.701 Y21.548 E28.96708
G1 X20.621 Y20.612 E29.04158
G1 X21.001 Y20.990 F4800.000
G1 X22.787 Y19.262 E29.18271 F720.000
G1 X24.006 Y18.141 E29.27676
G1 X25.930 Y16.467 E29.42157
G1 X27.116 Y15.489 E29.50887
G1 X29.125 Y13.918 E29.65368
G1 X30.361 Y13.003 E29.74099
G1 X31.471 Y12.213 E29.81836
G1 X33.585 Y10.786 E29.96317
G1 X34.881 Y9.959 E30.05048
G1 X36.043 Y9.248 E30.12785
G1 X38.404 Y7.888 E30.28259
G1 X39.602 Y7.238 E30.35997
G1 X42.031 Y6.003 E30.51471
G1 X43.262 Y5.418 E30.59208
G1 X45.482 Y4.427 E30.73015
G1 X47.011 Y3.791 E30.82419
G1 X49.556 Y2.816 E30.97893
G1 X50.841 Y2.362 E31.05631
G1 X52.133 Y1.931 E31.13368
G1 X54.572 Y1.185 E31.27849
G1 X56.053 Y0.773 E31.36579
G1 X57.373 Y0.433 E31.44317
G1 X59.857 Y-0.141 E31.58798
G1 X61.364 Y-0.448 E31.67529
G1 X63.758 Y-0.872 E31.81336
G1 X65.396 Y-1.120 E31.90740
G1 X67.809 Y-1.418 E32.04547
G1 X69.457 Y-1.579 E32.13952
G1 X72.001 Y-1.758 E32.28432
G1 X73.537 Y-1.826 E32.37163
G1 X74.899 Y-1.860 E32.44900
G1 X77.331 Y-1.862 E32.58707
G1 X78.986 Y-1.821 E32.68112 F720.000
G1 X80.348 Y-1.761 E32.75849
G1 X83.066 Y-1.569 E32.91323
G1 X84.422 Y-1.437 E32.99060
G1 X86.836 Y-1.142 E33.12868
G1 X88.474 Y-0.900 E33.22272
G1 X89.818 Y-0.674 E33.30009
G1 X91.157 Y-0.425 E33.37747
G1 X93.652 Y0.105 E33.52228
G1 X95.147 Y0.463 E33.60958
G1 X96.466 Y0.805 E33.68695
G1 X97.779 Y1.170 E33.76433
G1 X100.104 Y1.880 E33.90239
G1 X101.676 Y2.403 E33.99644
G1 X102.960 Y2.858 E34.07381
G1 X104.236 Y3.337 E34.15119
G1 X106.491 Y4.246 E34.28926
G1 X108.011 Y4.904 E34.38330
G1 X109.250 Y5.470 E34.46068
G1 X111.698 Y6.666 E34.61542
G1 X114.104 Y7.948 E34.77016
G1 X115.289 Y8.619 E34.84753
G1 X116.462 Y9.312 E34.92491
G1 X118.625 Y10.663 E35.06972
G1 X119.908 Y11.511 E35.15702
G1 X121.030 Y12.283 E35.23439
G1 X122.139 Y13.076 E35.31177
G1 X124.082 Y14.538 E35.44984
G1 X125.380 Y15.566 E35.54388
G1 X126.430 Y16.434 E35.62126
G1 X127.466 Y17.320 E35.69863
G1 X129.361 Y19.026 E35.84345
G1 X130.477 Y20.083 E35.93074
G1 X131.448 Y21.039 E36.00812
G1 X133.340 Y23.001 E36.16286
G1 X134.259 Y24.006 E36.24023
G1 X135.856 Y25.840 E36.37831
G1 X136.911 Y27.116 E36.47235
G1 X137.759 Y28.183 E36.54972
G1 X139.397 Y30.361 E36.70446
G1 X140.187 Y31.471 E36.78183
G1 X141.614 Y33.585 E36.92665
G1 X142.441 Y34.881 E37.01395
G1 X143.152 Y36.043 E37.09133
G1 X143.842 Y37.218 E37.16870
G1 X145.162 Y39.602 E37.32344
G1 X146.397 Y42.031 E37.47818
G1 X146.982 Y43.262 E37.55555
G1 X147.973 Y45.482 E37.69362
G1 X148.609 Y47.011 E37.78766
G1 X149.108 Y48.279 E37.86503
G1 X150.038 Y50.841 E38.01979
G1 X150.826 Y53.267 E38.16462
G1 X151.264 Y54.740 E38.25190
G1 X151.627 Y56.053 E38.32927
G1 X152.244 Y58.528 E38.47410
G1 X152.578 Y60.028 E38.56138
G1 X152.848 Y61.364 E38.63876
G1 X153.096 Y62.704 E38.71613
G1 X153.477 Y65.105 E38.85419
G1 X153.697 Y66.747 E38.94825
G1 X153.850 Y68.101 E39.02562
G1 X153.979 Y69.457 E39.10299
G1 X154.154 Y71.948 E39.24479
G1 X154.226 Y73.537 E39.33510
G1 X154.260 Y74.899 E39.41248
G1 X154.271 Y76.262 E39.48986
G1 X154.230 Y78.693 E39.62792
G1 X154.161 Y80.348 E39.72197
G1 X154.076 Y81.707 E39.79934
G1 X153.837 Y84.422 E39.95408
G1 X153.682 Y85.776 E40.03146
G1 X153.300 Y88.474 E40.18620
G1 X153.074 Y89.818 E40.26357
G1 X152.612 Y92.205 E40.40167
G1 X152.256 Y93.822 E40.49569
G1 X151.937 Y95.147 E40.57306
G1 X151.309 Y97.496 E40.71113
G1 X150.842 Y99.085 E40.80518
G1 X149.998 Y101.676 E40.95991
G1 X149.542 Y102.960 E41.03730
G1 X148.628 Y105.341 E41.18212
G1 X148.041 Y106.762 E41.26940
G1 X147.496 Y108.011 E41.34678
G1 X146.343 Y110.480 E41.50152
G1 X145.734 Y111.698 E41.57889
G1 X144.537 Y113.951 E41.72371
G1 X143.781 Y115.289 E41.81101
G1 X143.088 Y116.462 E41.88838
G1 X141.642 Y118.772 E42.04312
G1 X140.889 Y119.908 E42.12050
G1 X139.427 Y121.997 E42.26532
G1 X138.513 Y123.234 E42.35261
G1 X137.683 Y124.314 E42.42999
G1 X136.154 Y126.204 E42.56805
G1 X135.080 Y127.466 E42.66210
G1 X133.255 Y129.489 E42.81684
G1 X132.317 Y130.477 E42.89421
G1 X130.599 Y132.197 E43.03227
G1 X129.399 Y133.340 E43.12633
G1 X128.394 Y134.259 E43.20370
G1 X127.373 Y135.161 E43.28107
G1 X125.419 Y136.801 E43.42589
G1 X124.217 Y137.759 E43.51319
G1 X123.135 Y138.587 E43.59056
G1 X122.039 Y139.397 E43.66793
G1 X120.048 Y140.793 E43.80603
G1 X118.669 Y141.709 E43.90005
G1 X117.519 Y142.441 E43.97742
G1 X115.182 Y143.842 E44.13216
G1 X113.996 Y144.512 E44.20954
G1 X111.589 Y145.790 E44.36428
G1 X110.369 Y146.397 E44.44165
G1 X108.057 Y147.475 E44.58649
G1 X106.648 Y148.089 E44.67377
G1 X105.389 Y148.609 E44.75114
G1 X104.121 Y149.108 E44.82851
G1 X101.724 Y149.980 E44.97334
G1 X100.267 Y150.469 E45.06062
G1 X98.967 Y150.878 E45.13800
G1 X96.515 Y151.581 E45.28285
G1 X95.027 Y151.967 E45.37012
G1 X92.372 Y152.578 E45.52486
G1 X91.036 Y152.848 E45.60223
G1 X88.642 Y153.272 E45.74031
G1 X87.004 Y153.520 E45.83435
G1 X85.653 Y153.697 E45.91172
G1 X82.943 Y153.979 E46.06646
G1 X81.584 Y154.085 E46.14384
G1 X79.156 Y154.214 E46.28191
G1 X77.501 Y154.260 E46.37595
G1 X76.138 Y154.271 E46.45332
G1 X73.414 Y154.221 E46.60806
G1 X72.052 Y154.161 E46.68544
G1 X69.627 Y153.993 E46.82351
G1 X67.978 Y153.837 E46.91755
G1 X66.624 Y153.682 E46.99493
G1 X65.273 Y153.503 E47.07230
G1 X62.871 Y153.124 E47.21041
G1 X61.243 Y152.825 E47.30441
G1 X59.908 Y152.552 E47.38178
G1 X58.578 Y152.256 E47.45916
G1 X56.218 Y151.669 E47.59724
G1 X54.621 Y151.230 E47.69127
G1 X53.315 Y150.842 E47.76865
G1 X50.890 Y150.054 E47.91346
G1 X49.440 Y149.542 E48.00077
G1 X46.897 Y148.563 E48.15550
G1 X44.389 Y147.496 E48.31025
G1 X41.920 Y146.343 E48.46499
G1 X40.702 Y145.734 E48.54236
G1 X38.296 Y144.452 E48.69710
G1 X36.088 Y143.178 E48.84192
G1 X34.776 Y142.375 E48.92921
G1 X33.628 Y141.642 E49.00659
G1 X31.513 Y140.216 E49.15141
G1 X30.261 Y139.325 E49.23870
G1 X29.166 Y138.513 E49.31608
G1 X27.249 Y137.017 E49.45415
G1 X25.970 Y135.966 E49.54819
G1 X23.914 Y134.177 E49.70293
G1 X22.911 Y133.255 E49.78031
G1 X21.076 Y131.484 E49.92513
G1 X19.998 Y130.388 E50.01242
G1 X19.060 Y129.399 E50.08980
G1 X18.141 Y128.394 E50.16717
G1 X16.467 Y126.469 E50.31199
G1 X15.489 Y125.284 E50.39928
G1 X14.641 Y124.217 E50.47666
G1 X13.003 Y122.039 E50.63140
G1 X12.213 Y120.929 E50.70877
G1 X10.852 Y118.914 E50.84685
G1 X9.959 Y117.519 E50.94088
G1 X9.248 Y116.357 E51.01826
G1 X7.888 Y113.996 E51.17300
G1 X6.690 Y111.744 E51.31781
G1 X6.003 Y110.369 E51.40512
G1 X4.854 Y107.898 E51.55986
G1 X4.311 Y106.648 E51.63723
G1 X3.355 Y104.284 E51.78204
G1 X2.816 Y102.844 E51.86935
G1 X2.362 Y101.559 E51.94672
G1 X1.931 Y100.267 E52.02409
G1 X1.185 Y97.828 E52.16890
G1 X0.773 Y96.347 E52.25621
G1 X0.433 Y95.027 E52.33358
G1 X0.116 Y93.702 E52.41095
G1 X-0.391 Y91.324 E52.54902
G1 X-0.696 Y89.696 E52.64307
G1 X-0.919 Y88.352 E52.72044
G1 X-1.120 Y87.004 E52.79781
G1 X-1.418 Y84.591 E52.93589
G1 X-1.579 Y82.943 E53.02993
G1 X-1.685 Y81.584 E53.10730
G1 X-1.767 Y80.224 E53.18468
G1 X-1.854 Y77.794 E53.32276
G1 X-1.871 Y76.138 E53.41679
G1 X-1.858 Y74.776 E53.49417
G1 X-1.821 Y73.414 E53.57154
G1 X-1.696 Y70.986 E53.70961
G1 X-1.569 Y69.334 E53.80365
G1 X-1.437 Y67.978 E53.88103
G1 X-1.282 Y66.624 E53.95840
G1 X-0.945 Y64.216 E54.09646
G1 X-0.674 Y62.582 E54.19052
G1 X-0.425 Y61.243 E54.26789
G1 X-0.152 Y59.908 E54.34526
G1 X0.393 Y57.538 E54.48333
G1 X0.805 Y55.934 E54.57738
G1 X1.170 Y54.621 E54.65475
G1 X1.558 Y53.315 E54.73212
G1 X2.308 Y51.002 E54.87019
G1 X2.858 Y49.440 E54.96424
G1 X3.337 Y48.164 E55.04161
G1 X4.359 Y45.638 E55.19635
G1 X4.904 Y44.389 E55.27372
G1 X5.930 Y42.185 E55.41179
G1 X6.666 Y40.702 E55.50584
G1 X7.296 Y39.493 E55.58321
G1 X8.619 Y37.111 E55.73796
G1 X9.312 Y35.938 E55.81533
G1 X10.599 Y33.875 E55.95339
G1 X11.511 Y32.492 E56.04744
G1 X12.283 Y31.370 E56.12482
G1 X13.076 Y30.261 E56.20219
G1 X14.538 Y28.319 E56.34025
