; generated by Slic3r 1.2.0 on 2014-10-25 at 16:39:28

; external perimeters extrusion width = 0.40mm
; perimeters extrusion width = 0.67mm
; infill extrusion width = 0.67mm
; solid infill extrusion width = 0.67mm
; top infill extrusion width = 0.67mm
; support material extrusion width = 0.40mm

G21 ; set units to millimeters
M107
M104 S195 ; set temperature
G28 X0 Y0  
G29
M109 S195 ; wait for temperature to be reached
G90 ; use absolute coordinates
G92 E0
M82 ; use absolute distances for extrusion
G1 F1800.000 E-1.00000
G92 E0
G1 Z0.300 F4800.000
G1 X28.808 Y65.815 F4800.000
G1 E1.00000 F1800.000
G1 X28.978 Y65.740 E1.01054 F720.000
G1 X47.950 Y61.351 E2.11630
G1 X49.517 Y61.145 E2.20606
G1 X50.988 Y61.099 E2.28963
G1 X117.511 Y63.626 E6.06981
G1 X118.804 Y63.787 E6.14379 F720.000
G1 X119.826 Y64.004 E6.20315
G1 X121.339 Y64.496 E6.29345
G1 X122.294 Y64.921 E6.35281
G1 X123.671 Y65.716 E6.44310
G1 X124.516 Y66.330 E6.50246
G1 X125.698 Y67.394 E6.59276
G1 X126.398 Y68.171 E6.65212
G1 X127.332 Y69.458 E6.74242
G1 X127.855 Y70.363 E6.80178
G1 X128.502 Y71.816 E6.89208
G1 X128.825 Y72.810 E6.95144
G1 X129.155 Y74.365 E7.04174
G1 X129.265 Y75.405 E7.10110
G1 X129.265 Y76.995 E7.19140
G1 X129.155 Y78.035 E7.25075
G1 X128.825 Y79.590 E7.34106
G1 X128.502 Y80.584 E7.40042
G1 X127.855 Y82.037 E7.49072
G1 X127.332 Y82.942 E7.55007
G1 X126.398 Y84.229 E7.64038
G1 X125.698 Y85.006 E7.69973
G1 X124.516 Y86.070 E7.79003
G1 X123.671 Y86.684 E7.84939
G1 X122.294 Y87.479 E7.93969
G1 X121.339 Y87.905 E7.99905
G1 X119.826 Y88.396 E8.08935
G1 X118.804 Y88.613 E8.14870
G1 X117.511 Y88.774 E8.22268
G1 X50.301 Y91.296 E12.04184
G1 X48.726 Y91.172 E12.13160
G1 X47.418 Y90.945 E12.20695
G1 X28.978 Y86.660 E13.28195
G1 X26.705 Y85.724 E13.42157
G1 X24.849 Y84.111 E13.56119
G1 X23.604 Y81.990 E13.70081
G1 X23.094 Y79.250 E13.85907
G1 X23.094 Y73.149 E14.20552
G1 X23.491 Y70.723 E14.34514
G1 X24.642 Y68.550 E14.48476
G1 X26.425 Y66.858 E14.62438
G1 X28.753 Y65.839 E14.76870
G1 X28.955 Y66.322 F4800.000
G1 X29.100 Y66.262 E14.77761 F720.000
G1 X48.034 Y61.880 E15.88121
G1 X49.545 Y61.680 E15.96779
G1 X50.968 Y61.634 E16.04861
G1 X117.491 Y64.161 E19.82879
G1 X118.692 Y64.311 E19.89756 F720.000
G1 X119.715 Y64.528 E19.95692
G1 X121.121 Y64.985 E20.04086
G1 X122.076 Y65.410 E20.10022
G1 X123.356 Y66.149 E20.18416
G1 X124.202 Y66.764 E20.24351
G1 X125.300 Y67.753 E20.32746
G1 X126.000 Y68.530 E20.38681
G1 X126.869 Y69.726 E20.47076
G1 X127.391 Y70.631 E20.53012
G1 X127.992 Y71.981 E20.61406
G1 X128.315 Y72.975 E20.67341
G1 X128.623 Y74.421 E20.75736
G1 X128.732 Y75.461 E20.81672
G1 X128.732 Y76.939 E20.90066
G1 X128.623 Y77.979 E20.96001
G1 X128.315 Y79.425 E21.04396
G1 X127.992 Y80.419 E21.10332
G1 X127.391 Y81.769 E21.18726
G1 X126.869 Y82.675 E21.24662
G1 X126.000 Y83.871 E21.33056
G1 X125.300 Y84.647 E21.38992
G1 X124.202 Y85.637 E21.47386
G1 X123.356 Y86.251 E21.53322
G1 X122.076 Y86.990 E21.61716
G1 X121.121 Y87.415 E21.67652
G1 X119.715 Y87.872 E21.76046
G1 X118.692 Y88.089 E21.81982
G1 X117.491 Y88.239 E21.88858
G1 X50.329 Y90.762 E25.70500
G1 X48.809 Y90.643 E25.79158
G1 X47.539 Y90.424 E25.86476
G1 X29.100 Y86.138 E26.93976
G1 X26.914 Y85.222 E27.07434
G1 X25.153 Y83.636 E27.20892
G1 X24.016 Y81.556 E27.34350
G1 X23.629 Y79.250 E27.47627
G1 X23.629 Y73.149 E27.82271
G1 X24.026 Y70.813 E27.95729
G1 X25.173 Y68.739 E28.09187
G1 X26.941 Y67.160 E28.22646
G1 X28.899 Y66.345 E28.34691
G1 X29.091 Y66.834 F4800.000
G1 X29.221 Y66.784 E28.35481 F720.000
G1 X48.118 Y62.409 E29.45624
G1 X49.573 Y62.214 E29.53963
G1 X50.948 Y62.169 E29.61771
G1 X118.581 Y64.835 E33.46122
G1 X119.604 Y65.052 E33.52058 F720.000
G1 X120.903 Y65.474 E33.59816
G1 X121.858 Y65.899 E33.65753
G1 X123.041 Y66.582 E33.73510
G1 X123.887 Y67.197 E33.79446
G1 X124.902 Y68.111 E33.87205
G1 X125.602 Y68.888 E33.93140
G1 X126.405 Y69.993 E34.00899
G1 X126.927 Y70.899 E34.06835
G1 X127.483 Y72.147 E34.14593
G1 X127.806 Y73.141 E34.20528
G1 X128.090 Y74.477 E34.28287
G1 X128.199 Y75.517 E34.34223
G1 X128.199 Y76.883 E34.41981
G1 X128.090 Y77.923 E34.47917
G1 X127.806 Y79.259 E34.55676
G1 X127.483 Y80.253 E34.61611
G1 X126.927 Y81.502 E34.69370
G1 X126.405 Y82.407 E34.75305
G1 X125.602 Y83.512 E34.83064
G1 X124.902 Y84.289 E34.89000
G1 X123.887 Y85.203 E34.96758
G1 X123.041 Y85.818 E35.02694
G1 X121.858 Y86.501 E35.10452
G1 X120.903 Y86.926 E35.16388
G1 X119.603 Y87.348 E35.24146
G1 X117.470 Y87.704 E35.36426
G1 X50.357 Y90.227 E39.17793
G1 X48.893 Y90.114 E39.26133
G1 X47.661 Y89.902 E39.33234
G1 X29.221 Y85.616 E40.40734
G1 X27.126 Y84.722 E40.53669
G1 X25.465 Y83.163 E40.66604
G1 X24.441 Y81.129 E40.79538
G1 X24.165 Y79.250 E40.90318
G1 X24.165 Y73.149 E41.24962
G1 X24.562 Y70.906 E41.37897
G1 X25.704 Y68.936 E41.50831
G1 X27.454 Y67.477 E41.63766
G1 X29.036 Y66.856 E41.73415
G1 F1800.000 E40.73415
G92 E0
G1 X48.529 Y75.234 F4800.000
G1 E1.00000 F1800.000
G1 X48.721 Y74.890 E1.02235 F900.000
G1 X48.934 Y74.610 E1.04231
G1 X49.223 Y74.343 E1.06466
G1 X49.512 Y74.142 E1.08463
G1 X49.733 Y74.030 E1.09874
G1 X49.965 Y73.940 E1.11287
G1 X50.206 Y73.876 E1.12699
G1 X50.451 Y73.837 E1.14111
G1 X50.845 Y73.832 E1.16345
G1 X51.194 Y73.876 E1.18342 F900.000
G1 X51.434 Y73.940 E1.19754
G1 X51.666 Y74.030 E1.21166
G1 X51.887 Y74.142 E1.22579
G1 X52.096 Y74.278 E1.23991
G1 X52.289 Y74.434 E1.25403
G1 X52.557 Y74.723 E1.27637
G1 X52.757 Y75.012 E1.29634
G1 X52.870 Y75.234 E1.31046
G1 X52.959 Y75.466 E1.32458
G1 X53.023 Y75.706 E1.33870
G1 X53.062 Y75.952 E1.35282
G1 X53.075 Y76.200 E1.36695
G1 X53.062 Y76.448 E1.38107
G1 X53.023 Y76.694 E1.39519
G1 X52.959 Y76.934 E1.40931
G1 X52.870 Y77.166 E1.42343
G1 X52.757 Y77.388 E1.43755
G1 X52.622 Y77.596 E1.45167
G1 X52.465 Y77.790 E1.46579
G1 X52.289 Y77.966 E1.47992
G1 X52.096 Y78.122 E1.49404
G1 X51.888 Y78.257 E1.50815
G1 X51.666 Y78.370 E1.52228
G1 X51.434 Y78.460 E1.53640
G1 X51.194 Y78.524 E1.55052
G1 X50.845 Y78.568 E1.57049
G1 X50.451 Y78.563 E1.59284
G1 X50.206 Y78.524 E1.60696
G1 X49.965 Y78.460 E1.62108
G1 X49.733 Y78.370 E1.63520
G1 X49.512 Y78.257 E1.64932
G1 X49.303 Y78.122 E1.66344
G1 X49.110 Y77.966 E1.67756
G1 X48.934 Y77.790 E1.69168
G1 X48.777 Y77.596 E1.70580
G1 X48.642 Y77.388 E1.71993
G1 X48.492 Y77.070 E1.73989
G1 X48.376 Y76.694 E1.76224
G1 X48.331 Y76.345 E1.78221
G1 X48.337 Y75.952 E1.80455
G1 X48.376 Y75.706 E1.81867
G1 X48.508 Y75.290 E1.84347
G1 X49.008 Y75.482 F4800.000
G1 X49.211 Y75.119 E1.86710 F900.000
G1 X49.415 Y74.886 E1.88467
G1 X49.618 Y74.712 E1.89986
G1 X49.884 Y74.554 E1.91743
G1 X50.131 Y74.451 E1.93262
G1 X50.317 Y74.401 E1.94356
G1 X50.624 Y74.364 E1.96113
G1 X50.892 Y74.371 E1.97632 F900.000
G1 X51.268 Y74.451 E1.99815
G1 X51.552 Y74.573 E2.01572
G1 X51.781 Y74.712 E2.03091
G1 X51.930 Y74.833 E2.04185
G1 X52.188 Y75.119 E2.06368
G1 X52.380 Y75.452 E2.08552
G1 X52.449 Y75.632 E2.09645
G1 X52.529 Y76.008 E2.11829
G1 X52.539 Y76.200 E2.12922
G1 X52.529 Y76.392 E2.14016
G1 X52.449 Y76.768 E2.16199
G1 X52.293 Y77.120 E2.18383
G1 X52.188 Y77.281 E2.19476
G1 X52.013 Y77.484 E2.20995
G1 X51.781 Y77.688 E2.22752
G1 X51.580 Y77.813 E2.24098
G1 X51.268 Y77.949 E2.26029
G1 X51.008 Y78.011 E2.27548
G1 X50.700 Y78.039 E2.29305
G1 X50.317 Y77.999 E2.31488
G1 X50.131 Y77.949 E2.32582
G1 X49.780 Y77.793 E2.34765
G1 X49.618 Y77.688 E2.35859
G1 X49.469 Y77.567 E2.36952
G1 X49.211 Y77.281 E2.39136
G1 X49.072 Y77.053 E2.40655
G1 X48.950 Y76.768 E2.42412
G1 X48.870 Y76.392 E2.44595
G1 X48.860 Y76.200 E2.45689
G1 X48.900 Y75.818 E2.47872
G1 X48.986 Y75.538 E2.49535
G1 X49.486 Y75.730 F4800.000
G1 X49.571 Y75.548 E2.50671 F810.000
G1 X49.731 Y75.328 E2.52218
G1 X49.897 Y75.175 E2.53497
G1 X50.048 Y75.071 E2.54538
G1 X50.253 Y74.978 E2.55818
G1 X50.429 Y74.925 E2.56859
G1 X50.789 Y74.902 E2.58908
G1 X51.102 Y74.961 E2.60720 F810.000
G1 X51.309 Y75.050 E2.61999
G1 X51.465 Y75.146 E2.63041
G1 X51.572 Y75.232 E2.63816
G1 X51.754 Y75.434 E2.65362
G1 X51.890 Y75.670 E2.66909
G1 X51.939 Y75.797 E2.67684
G1 X51.996 Y76.064 E2.69231
G1 X52.003 Y76.200 E2.70005
G1 X51.996 Y76.336 E2.70780
G1 X51.939 Y76.603 E2.72327
G1 X51.828 Y76.852 E2.73874
G1 X51.754 Y76.966 E2.74648
G1 X51.635 Y77.105 E2.75690
G1 X51.465 Y77.254 E2.76969
G1 X51.336 Y77.336 E2.77837
G1 X51.102 Y77.439 E2.79290
G1 X50.970 Y77.475 E2.80065
G1 X50.700 Y77.503 E2.81612
G1 X50.429 Y77.475 E2.83159
G1 X50.297 Y77.439 E2.83933
G1 X50.048 Y77.329 E2.85480
G1 X49.934 Y77.254 E2.86255
G1 X49.828 Y77.168 E2.87029
G1 X49.645 Y76.966 E2.88576
G1 X49.550 Y76.809 E2.89618
G1 X49.460 Y76.603 E2.90897
G1 X49.404 Y76.336 E2.92444
G1 X49.396 Y76.200 E2.93219
G1 X49.425 Y75.929 E2.94765
G1 X49.465 Y75.786 E2.95611
G1 X50.922 Y74.612 F4800.000
G1 F1800.000 E1.95611
G92 E0
G1 X112.290 Y76.200 F4800.000
G1 E1.00000 F1800.000
G1 X112.386 Y75.283 E1.05235 F810.000
G1 X112.671 Y74.406 E1.10470
G1 X113.132 Y73.608 E1.15704
G1 X113.749 Y72.923 E1.20939
G1 X114.495 Y72.381 E1.26174
G1 X115.337 Y72.006 E1.31409
G1 X116.239 Y71.815 E1.36643
G1 X117.160 Y71.815 E1.41878
G1 X118.062 Y72.006 E1.47113 F810.000
G1 X118.904 Y72.381 E1.52348
G1 X118.999 Y72.450 E1.53014
G1 X119.650 Y72.923 E1.57582
G1 X120.267 Y73.608 E1.62817
G1 X120.728 Y74.406 E1.68052
G1 X121.013 Y75.283 E1.73287
G1 X121.109 Y76.200 E1.78521
G1 X121.013 Y77.117 E1.83756
G1 X120.728 Y77.994 E1.88991
G1 X120.267 Y78.792 E1.94226
G1 X119.650 Y79.477 E1.99460
G1 X118.904 Y80.019 E2.04695
G1 X118.062 Y80.394 E2.09930
G1 X117.160 Y80.586 E2.15165
G1 X116.239 Y80.586 E2.20399
G1 X115.337 Y80.394 E2.25634
G1 X114.495 Y80.019 E2.30869
G1 X113.749 Y79.477 E2.36104
G1 X112.685 Y78.295 E2.45134
G1 X112.845 Y78.295 E2.46046
G1 X112.671 Y77.994 E2.48023
G1 X112.386 Y77.117 E2.53258
G1 X112.296 Y76.260 E2.58152
G1 F1800.000 E1.58152
G92 E0
G1 X117.310 Y71.444 F4800.000
G1 X44.688 Y74.521 F4800.000
G1 E1.00000 F1800.000
G1 X45.394 Y73.137 E1.08821 F900.000
G1 X45.743 Y72.599 E1.12463
G1 X46.146 Y72.100 E1.16105
G1 X46.600 Y71.647 E1.19746
G1 X47.098 Y71.243 E1.23388
G1 X47.642 Y70.891 E1.27067
G1 X48.208 Y70.603 E1.30671
G1 X48.806 Y70.373 E1.34313
G1 X49.426 Y70.207 E1.37954
G1 X50.059 Y70.107 E1.41596
G1 X50.700 Y70.073 E1.45238
G1 X51.340 Y70.107 E1.48880
G1 X51.973 Y70.207 E1.52521
G1 X52.593 Y70.373 E1.56163
G1 X53.192 Y70.603 E1.59805
G1 X53.763 Y70.894 E1.63446
G1 X54.301 Y71.243 E1.67088
G1 X54.799 Y71.647 E1.70730
G1 X55.253 Y72.100 E1.74371
G1 X55.656 Y72.599 E1.78013
G1 X56.006 Y73.137 E1.81655
G1 X56.297 Y73.708 E1.85296
G1 X56.527 Y74.307 E1.88938
G1 X56.691 Y74.922 E1.92556
G1 X56.886 Y76.200 E1.99896
G1 X56.691 Y77.478 E2.07236
G1 X56.527 Y78.093 E2.10854
G1 X56.297 Y78.692 E2.14495
G1 X56.006 Y79.263 E2.18137
G1 X55.656 Y79.801 E2.21779
G1 X55.253 Y80.300 E2.25420
G1 X54.799 Y80.753 E2.29062
G1 X54.301 Y81.157 E2.32704
G1 X53.763 Y81.506 E2.36345
G1 X53.192 Y81.797 E2.39987
G1 X52.593 Y82.027 E2.43629
G1 X51.973 Y82.193 E2.47270
G1 X51.404 Y82.283 E2.50543
G1 X50.700 Y82.327 E2.54552
G1 X50.059 Y82.293 E2.58194
G1 X49.426 Y82.193 E2.61835
G1 X48.806 Y82.027 E2.65477
G1 X48.208 Y81.797 E2.69119
G1 X47.636 Y81.506 E2.72760
G1 X47.098 Y81.157 E2.76402
G1 X46.600 Y80.753 E2.80044
G1 X46.146 Y80.300 E2.83685
G1 X45.743 Y79.801 E2.87327
G1 X45.394 Y79.263 E2.90969
G1 X44.688 Y77.879 E2.99790
G1 X32.072 Y77.879 E3.71433
G1 X32.072 Y74.521 E3.90504
G1 X44.628 Y74.521 E4.61806
G1 X44.360 Y73.985 F4800.000
G1 X44.929 Y72.868 E4.68923 F900.000
G1 X45.309 Y72.283 E4.72883
G1 X45.748 Y71.741 E4.76844
G1 X46.241 Y71.248 E4.80804
G1 X46.783 Y70.809 E4.84765
G1 X47.368 Y70.429 E4.88725
G1 X47.989 Y70.113 E4.92686
G1 X48.640 Y69.863 E4.96646
G1 X49.314 Y69.682 E5.00606
G1 X50.003 Y69.573 E5.04567
G1 X50.700 Y69.537 E5.08528
G1 X51.396 Y69.573 E5.12488
G1 X52.085 Y69.682 E5.16448
G1 X52.759 Y69.863 E5.20409
G1 X53.410 Y70.113 E5.24369
G1 X54.031 Y70.429 E5.28330
G1 X54.616 Y70.809 E5.32290
G1 X55.158 Y71.248 E5.36251
G1 X55.651 Y71.741 E5.40211
G1 X56.090 Y72.283 E5.44172
G1 X56.470 Y72.868 E5.48132
G1 X56.787 Y73.490 E5.52093
G1 X57.037 Y74.141 E5.56053
G1 X57.217 Y74.812 E5.59999
G1 X57.372 Y75.836 E5.65882
G1 X111.794 Y75.796 E8.74912
G1 X111.751 Y76.200 E8.77221
G1 X111.794 Y76.604 E8.79530
G1 X57.372 Y76.564 E11.88560
G1 X57.217 Y77.588 E11.94443
G1 X57.037 Y78.259 E11.98389
G1 X56.787 Y78.910 E12.02349
G1 X56.470 Y79.532 E12.06310
G1 X56.090 Y80.117 E12.10270
G1 X55.651 Y80.659 E12.14231
G1 X55.158 Y81.152 E12.18191
G1 X54.616 Y81.591 E12.22152
G1 X54.031 Y81.971 E12.26112
G1 X53.410 Y82.287 E12.30073
G1 X52.759 Y82.537 E12.34033
G1 X52.085 Y82.718 E12.37994
G1 X51.396 Y82.827 E12.41954
G1 X50.700 Y82.863 E12.45914
G1 X50.003 Y82.827 E12.49875
G1 X49.314 Y82.718 E12.53836
G1 X48.640 Y82.537 E12.57796
G1 X47.989 Y82.287 E12.61756
G1 X47.399 Y81.986 E12.65520
G1 X46.783 Y81.591 E12.69676
G1 X46.241 Y81.152 E12.73637
G1 X45.748 Y80.659 E12.77597
G1 X45.309 Y80.117 E12.81558
G1 X44.929 Y79.532 E12.85518
G1 X44.360 Y78.415 E12.92635
G1 X31.536 Y78.415 E13.65455
G1 X31.536 Y73.985 E13.90610
G1 X44.300 Y73.985 E14.63089
G1 X44.032 Y73.449 F4800.000
G1 X44.465 Y72.600 E14.68502 F810.000
G1 X44.875 Y71.968 E14.72781
G1 X45.349 Y71.383 E14.77060
G1 X45.882 Y70.850 E14.81340
G1 X46.468 Y70.375 E14.85619
G1 X47.100 Y69.965 E14.89898
G1 X47.771 Y69.623 E14.94177
G1 X48.475 Y69.353 E14.98457
G1 X49.203 Y69.158 E15.02736
G1 X49.947 Y69.040 E15.07015
G1 X50.700 Y69.000 E15.11295
G1 X51.452 Y69.040 E15.15574
G1 X52.196 Y69.158 E15.19853
G1 X52.983 Y69.375 E15.24487
G1 X53.628 Y69.623 E15.28410
G1 X54.299 Y69.965 E15.32689
G1 X54.931 Y70.375 E15.36968
G1 X55.517 Y70.850 E15.41248
G1 X56.050 Y71.383 E15.45527
G1 X56.524 Y71.968 E15.49806
G1 X56.935 Y72.600 E15.54085
G1 X57.277 Y73.272 E15.58365
G1 X57.547 Y73.975 E15.62644
G1 X57.742 Y74.702 E15.66918
G1 X57.833 Y75.300 E15.70354
G1 X112.040 Y75.260 E18.78168
G1 X112.404 Y74.295 E18.84023
G1 X112.899 Y73.438 E18.89641
G1 X113.556 Y72.708 E18.95218
G1 X114.350 Y72.131 E19.00796
G1 X115.248 Y71.732 E19.06373
G1 X116.208 Y71.527 E19.11951
G1 X117.191 Y71.527 E19.17528
G1 X118.151 Y71.732 E19.23106
G1 X118.982 Y72.101 E19.28269
G1 X119.049 Y72.131 E19.28683
G1 X119.843 Y72.708 E19.34261
G1 X120.501 Y73.438 E19.39838
G1 X120.992 Y74.289 E19.45416
G1 X121.295 Y75.223 E19.50993
G1 X121.398 Y76.200 E19.56571
G1 X121.295 Y77.177 E19.62148
G1 X120.992 Y78.111 E19.67726
G1 X120.501 Y78.962 E19.73303
G1 X119.843 Y79.692 E19.78881
G1 X119.049 Y80.269 E19.84458
G1 X118.982 Y80.299 E19.84873
G1 X118.151 Y80.668 E19.90036
G1 X117.191 Y80.873 E19.95613
G1 X116.208 Y80.873 E20.01191
G1 X115.248 Y80.668 E20.06768
G1 X114.350 Y80.269 E20.12346
G1 X113.556 Y79.692 E20.17923
G1 X112.899 Y78.962 E20.23501
G1 X112.404 Y78.105 E20.29118
G1 X112.040 Y77.140 E20.34973
G1 X57.833 Y77.100 E23.42788
G1 X57.742 Y77.698 E23.46223
G1 X57.547 Y78.425 E23.50497
G1 X57.277 Y79.128 E23.54777
G1 X56.935 Y79.800 E23.59056
G1 X56.524 Y80.432 E23.63335
G1 X56.050 Y81.017 E23.67614
G1 X55.517 Y81.550 E23.71894
G1 X54.931 Y82.025 E23.76173
G1 X54.299 Y82.435 E23.80452
G1 X53.628 Y82.777 E23.84731
G1 X52.924 Y83.047 E23.89011
G1 X52.196 Y83.242 E23.93290
G1 X51.452 Y83.360 E23.97569
G1 X50.700 Y83.400 E24.01848
G1 X49.947 Y83.360 E24.06128
G1 X49.203 Y83.242 E24.10407
G1 X48.475 Y83.047 E24.14686
G1 X47.771 Y82.777 E24.18966
G1 X47.156 Y82.464 E24.22888
G1 X46.468 Y82.025 E24.27522
G1 X45.882 Y81.550 E24.31802
G1 X45.394 Y81.062 E24.35724
G1 X44.875 Y80.432 E24.40358
G1 X44.465 Y79.800 E24.44638
G1 X44.032 Y78.950 E24.50050
G1 X31.000 Y78.950 E25.24048
G1 X31.000 Y73.449 E25.55285
G1 X43.972 Y73.449 E26.28943
G1 X44.412 Y73.573 F4800.000
G1 F1800.000 E25.28943
G92 E0
G1 X43.994 Y77.511 F4800.000
G1 E1.00000 F1800.000
G1 X41.372 Y74.889 E1.21055 F1080.000
G1 X40.605 Y74.889 E1.25414
G1 X43.227 Y77.511 E1.46470
G1 X42.459 Y77.511 E1.50829
G1 X39.837 Y74.889 E1.71884
G1 X39.069 Y74.889 E1.76243
G1 X41.691 Y77.511 E1.97299
G1 X40.924 Y77.511 E2.01657
G1 X38.302 Y74.889 E2.22713
G1 X37.534 Y74.889 E2.27072
G1 X40.156 Y77.511 E2.48127
G1 X39.389 Y77.511 E2.52486
G1 X36.767 Y74.889 E2.73542
G1 X35.999 Y74.889 E2.77901
