; generated by Slic3r 1.2.0 on 2014-10-24 at 21:25:41

; external perimeters extrusion width = 0.40mm
; perimeters extrusion width = 0.67mm
; infill extrusion width = 0.67mm
; solid infill extrusion width = 0.67mm
; top infill extrusion width = 0.67mm

G21 ; set units to millimeters
M107
M104 S195 ; set temperature
G28 X0 Y0  
G29
M109 S195 ; wait for temperature to be reached
G90 ; use absolute coordinates
G92 E0
M82 ; use absolute distances for extrusion
G1 F1800.000 E-1.00000
G92 E0
G1 Z0.300 F4800.000
G1 X63.827 Y63.503 F4800.000
G1 E1.00000 F1800.000
G1 X66.804 Y61.126 E1.21635 F720.000
G1 X68.356 Y60.301 E1.31614
G1 X71.908 Y58.963 E1.53166
G1 X73.653 Y58.655 E1.63229
G1 X77.459 Y58.482 E1.84863
G1 X79.199 Y58.727 E1.94843 F720.000
G1 X82.859 Y59.733 E2.16395
G1 X84.452 Y60.509 E2.26458
G1 X87.622 Y62.596 E2.48010
G1 X88.897 Y63.827 E2.58073
G1 X91.267 Y66.792 E2.79625
G1 X92.099 Y68.356 E2.89687
G1 X93.437 Y71.908 E3.11240
G1 X93.745 Y73.653 E3.21302
G1 X93.918 Y77.459 E3.42936
G1 X93.673 Y79.199 E3.52916
G1 X92.667 Y82.859 E3.74469
G1 X91.891 Y84.452 E3.84531
G1 X89.804 Y87.622 E4.06084
G1 X88.573 Y88.897 E4.16145
G1 X85.608 Y91.267 E4.37698
G1 X84.044 Y92.099 E4.47760
G1 X80.492 Y93.437 E4.69313
G1 X78.747 Y93.745 E4.79375
G1 X74.956 Y93.919 E5.00925
G1 X73.201 Y93.673 E5.10990
G1 X69.541 Y92.668 E5.32540
G1 X67.948 Y91.891 E5.42605
G1 X64.778 Y89.804 E5.64156
G1 X63.503 Y88.573 E5.74219
G1 X61.133 Y85.608 E5.95772
G1 X60.301 Y84.044 E6.05834
G1 X58.964 Y80.492 E6.27384
G1 X58.655 Y78.747 E6.37449
G1 X58.482 Y74.941 E6.59083
G1 X58.727 Y73.201 E6.69063
G1 X59.738 Y69.527 E6.90697
G1 X60.509 Y67.948 E7.00677
G1 X62.596 Y64.779 E7.22226
G1 X63.785 Y63.546 E7.31951
G1 X64.169 Y63.916 F4800.000
G1 X67.080 Y61.585 E7.53131 F720.000
G1 X68.557 Y60.797 E7.62633
G1 X72.029 Y59.485 E7.83708
G1 X73.691 Y59.189 E7.93295
G1 X77.413 Y59.016 E8.14452
G1 X79.070 Y59.247 E8.23955 F720.000
G1 X82.650 Y60.226 E8.45031
G1 X84.169 Y60.963 E8.54616
G1 X87.271 Y63.001 E8.75692
G1 X88.487 Y64.172 E8.85277
G1 X90.808 Y67.068 E9.06353
G1 X91.603 Y68.557 E9.15938
G1 X92.915 Y72.029 E9.37014
G1 X93.211 Y73.691 E9.46599
G1 X93.384 Y77.413 E9.67757
G1 X93.153 Y79.070 E9.77260
G1 X92.174 Y82.650 E9.98335
G1 X91.437 Y84.169 E10.07921
G1 X89.399 Y87.271 E10.28997
G1 X88.229 Y88.487 E10.38582
G1 X85.332 Y90.808 E10.59658
G1 X83.843 Y91.603 E10.69243
G1 X80.371 Y92.915 E10.90319
G1 X78.709 Y93.211 E10.99904
G1 X75.002 Y93.386 E11.20978
G1 X73.330 Y93.153 E11.30565
G1 X69.750 Y92.174 E11.51639
G1 X68.231 Y91.437 E11.61226
G1 X65.129 Y89.399 E11.82301
G1 X63.913 Y88.228 E11.91887
G1 X61.592 Y85.332 E12.12963
G1 X60.797 Y83.843 E12.22548
G1 X59.485 Y80.371 E12.43622
G1 X59.189 Y78.709 E12.53209
G1 X59.016 Y74.987 E12.74367
G1 X59.247 Y73.330 E12.83870
G1 X60.231 Y69.736 E13.05028
G1 X60.963 Y68.231 E13.14530
G1 X63.000 Y65.130 E13.35603
G1 X64.127 Y63.959 E13.44829
G1 X64.511 Y64.328 F4800.000
G1 X67.357 Y62.044 E13.65550 F720.000
G1 X68.758 Y61.294 E13.74575
G1 X72.150 Y60.007 E13.95173
G1 X73.729 Y59.724 E14.04282
G1 X77.367 Y59.549 E14.24964
G1 X78.941 Y59.766 E14.33989 F720.000
G1 X82.441 Y60.719 E14.54589
G1 X83.885 Y61.418 E14.63697
G1 X86.920 Y63.405 E14.84296
G1 X88.077 Y64.516 E14.93404
G1 X90.349 Y67.344 E15.14004
G1 X91.106 Y68.758 E15.23112
G1 X92.393 Y72.150 E15.43711
G1 X92.676 Y73.729 E15.52819
G1 X92.851 Y77.366 E15.73500
G1 X92.634 Y78.941 E15.82526
G1 X91.681 Y82.441 E16.03125
G1 X90.982 Y83.885 E16.12233
G1 X88.995 Y86.920 E16.32833
G1 X87.884 Y88.077 E16.41941
G1 X85.056 Y90.349 E16.62540
G1 X83.642 Y91.106 E16.71648
G1 X80.250 Y92.393 E16.92248
G1 X78.671 Y92.676 E17.01356
G1 X75.048 Y92.852 E17.21953
G1 X73.459 Y92.634 E17.31063
G1 X69.959 Y91.681 E17.51661
G1 X68.515 Y90.982 E17.60771
G1 X65.480 Y88.995 E17.81369
G1 X64.323 Y87.884 E17.90478
G1 X62.051 Y85.056 E18.11078
G1 X61.294 Y83.642 E18.20186
G1 X60.007 Y80.250 E18.40783
G1 X59.724 Y78.671 E18.49893
G1 X59.549 Y75.033 E18.70574
G1 X59.766 Y73.459 E18.79600
G1 X60.725 Y69.945 E19.00281
G1 X61.418 Y68.515 E19.09307
G1 X63.405 Y65.481 E19.29903
G1 X64.470 Y64.371 E19.38634
G1 F1800.000 E18.38634
G92 E0
G1 X71.449 Y74.259 F4800.000
G1 E1.00000 F1800.000
G1 X71.859 Y74.594 E1.03007 F810.000
G1 X72.417 Y74.870 E1.06543
G1 X73.365 Y75.270 E1.12382
G1 X73.248 Y76.628 E1.20124
G1 X72.245 Y76.860 E1.25968
G1 X71.648 Y77.035 E1.29504
G1 X71.186 Y77.295 E1.32511
G1 X71.321 Y77.876 E1.35895
G1 X69.937 Y78.536 E1.44601
G1 X69.627 Y77.198 E1.52400
G1 X69.552 Y76.137 E1.58436
G1 X69.664 Y74.846 E1.65797
G1 X69.708 Y74.846 E1.66046
G1 X69.897 Y74.086 E1.70492
G1 X70.433 Y72.821 E1.78291
G1 X71.682 Y73.710 E1.86996
G1 X71.473 Y74.204 E1.90038
G1 X71.848 Y74.286 F4800.000
G1 F1800.000 E0.90038
G92 E0
G1 X79.613 Y72.367 F4800.000
G1 E1.00000 F1800.000
G1 X79.163 Y71.977 E1.03384 F810.000
G1 X79.894 Y70.629 E1.12090
G1 X80.931 Y71.530 E1.19889
G1 X81.615 Y72.343 E1.25925
G1 X82.143 Y73.220 E1.31737
G1 X82.542 Y74.205 E1.37773
G1 X82.852 Y75.543 E1.45572
G1 X81.319 Y75.558 E1.54277
G1 X81.184 Y74.978 E1.57660
G1 X80.656 Y74.948 E1.60667
G1 X80.042 Y75.053 E1.64203
G1 X79.041 Y75.286 E1.70042
G1 X78.337 Y74.118 E1.77784
G1 X79.012 Y73.342 E1.83628
G1 X79.392 Y72.849 E1.87164
G1 X79.588 Y72.422 E1.89830
G1 X79.214 Y72.329 F4800.000
G1 F1800.000 E0.89830
G92 E0
G1 X76.578 Y71.082 F4800.000
G1 E1.00000 F1800.000
G1 X76.386 Y71.575 E1.03007 F810.000
G1 X76.296 Y72.192 E1.06543
G1 X76.209 Y73.216 E1.12382
G1 X74.880 Y73.525 E1.20124
G1 X74.351 Y72.642 E1.25968
G1 X73.999 Y72.128 E1.29504
G1 X73.609 Y71.770 E1.32511
G1 X73.099 Y72.077 E1.35895
G1 X72.043 Y70.965 E1.44601
G1 X73.220 Y70.257 E1.52400
G1 X74.205 Y69.858 E1.58436
G1 X75.202 Y69.627 E1.64248
G1 X76.263 Y69.552 E1.70284
G1 X77.631 Y69.671 E1.78084
G1 X77.172 Y71.133 E1.86788
G1 X76.638 Y71.087 E1.89830
G1 X76.676 Y71.470 F4800.000
G1 F1800.000 E0.89830
G92 E0
G1 X76.430 Y74.315 F4800.000
G1 E1.00000 F1800.000
G1 X76.668 Y74.335 E1.01356 F810.000
G1 X77.213 Y74.566 E1.04716 F810.000
G1 X77.675 Y74.967 E1.08187
G1 X77.980 Y75.474 E1.11547
G1 X78.118 Y76.069 E1.15018
G1 X78.067 Y76.659 E1.18381
G1 X77.829 Y77.221 E1.21849
G1 X77.441 Y77.668 E1.25209
G1 X76.917 Y77.984 E1.28680
G1 X76.341 Y78.117 E1.32040
G1 X75.732 Y78.065 E1.35510
G1 X75.187 Y77.834 E1.38871
G1 X74.725 Y77.433 E1.42341
G1 X74.420 Y76.926 E1.45702
G1 X74.282 Y76.331 E1.49172
G1 X74.333 Y75.742 E1.52533
G1 X74.571 Y75.179 E1.56003
G1 X74.959 Y74.732 E1.59363
G1 X75.483 Y74.416 E1.62834
G1 X76.059 Y74.283 E1.66194
G1 X76.370 Y74.310 E1.67968
G1 X76.960 Y74.062 F4800.000
G1 F1800.000 E0.67968
G92 E0
G1 X80.900 Y78.261 F4800.000
G1 E1.00000 F1800.000
G1 X81.132 Y77.713 E1.03383 F810.000
G1 X82.640 Y77.991 E1.12088
G1 X82.104 Y79.256 E1.19890
G1 X81.542 Y80.158 E1.25926
G1 X80.870 Y80.931 E1.31738
G1 X80.057 Y81.615 E1.37773
G1 X78.880 Y82.323 E1.45573
G1 X78.392 Y80.870 E1.54278
G1 X78.902 Y80.563 E1.57661
G1 X78.768 Y80.051 E1.60668
G1 X78.478 Y79.499 E1.64203
G1 X77.947 Y78.619 E1.70042
G1 X78.840 Y77.589 E1.77785
G1 X79.787 Y77.991 E1.83629
G1 X80.374 Y78.200 E1.87165
G1 X80.840 Y78.254 E1.89831
G1 X80.813 Y77.871 F4800.000
G1 F1800.000 E0.89831
G92 E0
G1 X75.692 Y81.307 F4800.000
G1 E1.00000 F1800.000
G1 X76.286 Y81.358 E1.03384 F810.000
G1 X76.486 Y82.878 E1.12090
G1 X75.118 Y82.759 E1.19889
G1 X74.086 Y82.503 E1.25925
G1 X73.144 Y82.104 E1.31737
G1 X72.242 Y81.542 E1.37773
G1 X71.205 Y80.641 E1.45572
G1 X72.436 Y79.728 E1.54277
G1 X72.886 Y80.118 E1.57660
G1 X73.332 Y79.832 E1.60667
G1 X73.766 Y79.386 E1.64203
G1 X74.439 Y78.609 E1.70042
G1 X75.695 Y79.140 E1.77784
G1 X75.605 Y80.165 E1.83628
G1 X75.587 Y80.788 E1.87164
G1 X75.680 Y81.248 E1.89830
G1 X76.037 Y81.104 F4800.000
G1 F1800.000 E0.89830
G92 E0
G1 X75.752 Y83.352 F4800.000
G1 E1.00000 F1800.000
G1 X75.581 Y83.364 E1.00976 F900.000
G1 X75.413 Y83.323 E1.01959 F900.000
G1 X75.692 Y83.347 E1.03553
G1 F1800.000 E0.03553
G92 E0
G1 X73.564 Y82.864 F4800.000
G1 E1.00000 F1800.000
G1 X73.397 Y82.822 E1.00976 F900.000
G1 X73.250 Y82.731 E1.01959 F900.000
G1 X73.509 Y82.840 E1.03552
G1 F1800.000 E0.03552
G92 E0
G1 X71.634 Y81.723 F4800.000
G1 E1.00000 F1800.000
G1 X71.488 Y81.632 E1.00977 F900.000
G1 X71.376 Y81.500 E1.01959 F900.000
G1 X71.588 Y81.684 E1.03554
G1 F1800.000 E0.03554
G92 E0
G1 X69.260 Y77.984 F4800.000
G1 E1.00000 F1800.000
G1 X69.195 Y77.825 E1.00976 F900.000
G1 X69.183 Y77.652 E1.01959 F900.000
G1 X69.246 Y77.926 E1.03553
G1 F1800.000 E0.03553
G92 E0
G1 X69.048 Y75.752 F4800.000
G1 E1.00000 F1800.000
G1 X69.036 Y75.581 E1.00976 F900.000
G1 X69.077 Y75.413 E1.01959 F900.000
G1 X69.053 Y75.692 E1.03553
G1 F1800.000 E0.03553
G92 E0
G1 X69.536 Y73.564 F4800.000
G1 E1.00000 F1800.000
G1 X69.578 Y73.397 E1.00976 F900.000
G1 X69.669 Y73.250 E1.01959 F900.000
G1 X69.560 Y73.509 E1.03553
G1 F1800.000 E0.03553
G92 E0
G1 X72.783 Y73.856 F4800.000
G1 E1.00000 F1800.000
G1 X72.976 Y73.402 E1.02801 F900.000
G1 X73.398 Y73.147 E1.05601
G1 X74.022 Y74.177 E1.12437
G1 X73.890 Y74.329 E1.13581
G1 X72.837 Y73.883 E1.20077
G1 X72.428 Y72.926 F4800.000
G1 X71.094 Y71.977 E1.29371 F900.000
G1 X71.178 Y71.843 E1.30268
G1 X71.301 Y71.739 E1.31183
G1 X72.386 Y72.883 E1.40135
G1 X73.006 Y72.758 F4800.000
G1 X73.542 Y72.436 E1.43684 F900.000
G1 X73.591 Y72.481 E1.44067
G1 X73.900 Y72.932 E1.47165
G1 X74.622 Y74.135 E1.55133
G1 X75.095 Y74.025 E1.57888
G1 X74.610 Y74.317 E1.61101
G1 X74.111 Y74.892 E1.65424
G1 X73.890 Y75.414 E1.68647
G1 X73.932 Y74.928 E1.71420
G1 X72.640 Y74.383 E1.79381
G1 X72.151 Y74.141 E1.82478
G1 X72.099 Y74.098 E1.82861
G1 X72.343 Y73.523 E1.86408
G1 X70.373 Y72.122 E2.00136
G1 X70.768 Y71.488 E2.04376
G1 X71.342 Y71.005 E2.08637
G1 X72.965 Y72.715 E2.22022
G1 F1800.000 E1.22022
G92 E0
G1 X72.358 Y70.151 F4800.000
G1 E1.00000 F1800.000
G1 X72.490 Y70.040 E1.00977 F900.000
G1 X72.650 Y69.975 E1.01959 F900.000
G1 X72.410 Y70.120 E1.03553
G1 F1800.000 E0.03553
G92 E0
G1 X74.416 Y69.260 F4800.000
G1 E1.00000 F1800.000
G1 X74.575 Y69.195 E1.00976 F900.000
G1 X74.748 Y69.183 E1.01959 F900.000
G1 X74.474 Y69.246 E1.03553
G1 F1800.000 E0.03553
G92 E0
G1 X76.648 Y69.048 F4800.000
G1 E1.00000 F1800.000
G1 X76.819 Y69.036 E1.00976 F900.000
G1 X76.929 Y69.063 E1.01618
G1 F1800.000 E0.01618
G92 E0
G1 X77.373 Y72.226 F4800.000
G1 E1.00000 F1800.000
G1 X77.865 Y72.269 E1.02801 F900.000
G1 X78.237 Y72.592 E1.05601
G1 X77.451 Y73.504 E1.12437
G1 X77.266 Y73.425 E1.13581
G1 X77.365 Y72.286 E1.20077
G1 X78.148 Y71.601 F4800.000
G1 X78.638 Y70.039 E1.29371 F900.000
G1 X78.792 Y70.077 E1.30268
G1 X78.928 Y70.162 E1.31183
G1 X78.176 Y71.548 E1.40135
G1 X78.487 Y72.099 F4800.000
G1 X78.959 Y72.509 E1.43684 F900.000
G1 X78.931 Y72.570 E1.44067
G1 X78.597 Y73.002 E1.47165
G1 X77.677 Y74.061 E1.55133
G1 X77.927 Y74.477 E1.57888
G1 X77.500 Y74.106 E1.61101
G1 X76.799 Y73.809 E1.65424
G1 X76.233 Y73.760 E1.68647
G1 X76.709 Y73.650 E1.71420
G1 X76.828 Y72.253 E1.79380
G1 X76.907 Y71.713 E1.82478
G1 X76.931 Y71.650 E1.82861
G1 X77.554 Y71.704 E1.86408
G1 X78.278 Y69.398 E2.00136
G1 X79.003 Y69.578 E2.04376
G1 X79.640 Y69.975 E2.08637
G1 X78.515 Y72.046 E2.22022
G1 F1800.000 E1.22022
G92 E0
G1 X80.766 Y70.677 F4800.000
G1 E1.00000 F1800.000
G1 X80.912 Y70.768 E1.00976 F900.000
G1 X81.024 Y70.900 E1.01959
G1 X80.812 Y70.716 E1.03553 F900.000
G1 F1800.000 E0.03553
G92 E0
G1 X82.249 Y72.358 F4800.000
G1 E1.00000 F1800.000
G1 X82.360 Y72.490 E1.00977 F900.000
G1 X82.425 Y72.650 E1.01959
G1 X82.280 Y72.410 E1.03553 F900.000
G1 F1800.000 E0.03553
G92 E0
G1 X83.140 Y74.416 F4800.000
G1 E1.00000 F1800.000
G1 X83.205 Y74.575 E1.00976 F900.000
G1 X83.217 Y74.748 E1.01959
G1 X83.154 Y74.474 E1.03553 F900.000
G1 F1800.000 E0.03553
G92 E0
G1 X82.863 Y78.837 F4800.000
G1 E1.00000 F1800.000
G1 X82.822 Y79.004 E1.00978 F900.000
G1 X82.730 Y79.150 E1.01958
G1 X82.840 Y78.892 E1.03550 F900.000
G1 F1800.000 E0.03550
G92 E0
G1 X81.723 Y80.766 F4800.000
G1 E1.00000 F1800.000
G1 X81.632 Y80.912 E1.00976 F900.000
G1 X81.500 Y81.023 E1.01959
G1 X81.684 Y80.812 E1.03553 F900.000
G1 F1800.000 E0.03553
G92 E0
G1 X80.042 Y82.249 F4800.000
G1 E1.00000 F1800.000
G1 X79.910 Y82.360 E1.00977 F900.000
G1 X79.750 Y82.425 E1.01959
G1 X79.990 Y82.280 E1.03553 F900.000
G1 F1800.000 E0.03553
G92 E0
G1 X77.849 Y82.617 F4800.000
G1 E1.00000 F1800.000
G1 X77.702 Y82.677 E1.00898 F900.000
G1 X77.542 Y82.688 E1.01813
G1 X77.328 Y81.066 E1.11105
G1 X77.830 Y82.561 E1.20059
G1 F1800.000 E0.20059
G92 E0
G1 X76.672 Y80.316 F4800.000
G1 E1.00000 F1800.000
G1 X76.772 Y79.117 E1.06835 F900.000
G1 X76.969 Y79.071 E1.07980
G1 X77.586 Y80.105 E1.14816
G1 X77.164 Y80.359 E1.17616
G1 X76.732 Y80.322 E1.20076
G1 X76.761 Y80.862 F4800.000
G1 X76.138 Y80.808 E1.23625 F900.000
G1 X76.125 Y80.742 E1.24008
G1 X76.140 Y80.196 E1.27106
G1 X76.263 Y78.798 E1.35074
G1 X75.816 Y78.609 E1.37830
G1 X76.379 Y78.658 E1.41042
G1 X77.121 Y78.486 E1.45366
G1 X77.607 Y78.193 E1.48588
G1 X77.287 Y78.563 E1.51361
G1 X78.012 Y79.763 E1.59322
G1 X78.265 Y80.246 E1.62419
G1 X78.283 Y80.311 E1.62802
G1 X77.747 Y80.633 E1.66350
G1 X78.517 Y82.925 E1.80077
G1 X77.825 Y83.205 E1.84318
G1 X77.076 Y83.258 E1.88578
G1 X76.768 Y80.921 E2.01963
G1 F1800.000 E1.01963
G92 E0
G1 X79.151 Y76.557 F4800.000
G1 E1.00000 F1800.000
G1 X79.168 Y76.356 E1.01144 F900.000
G1 X80.342 Y76.088 E1.07980
G1 X80.453 Y76.569 E1.10781
G1 X80.261 Y77.023 E1.13581
G1 X79.206 Y76.580 E1.20076
G1 X81.175 Y76.631 F4800.000
G1 X82.813 Y76.615 E1.29375 F900.000
G1 X82.824 Y76.773 E1.30274
G1 X82.785 Y76.929 E1.31184
G1 X81.234 Y76.642 E1.40141
G1 X80.807 Y77.108 F4800.000
G1 X80.563 Y77.683 E1.43688 F900.000
G1 X80.496 Y77.675 E1.44071
G1 X79.982 Y77.492 E1.47169
G1 X78.691 Y76.943 E1.55137
G1 X78.373 Y77.310 E1.57892
G1 X78.593 Y76.790 E1.61100
G1 X78.659 Y76.031 E1.65428
G1 X78.531 Y75.478 E1.68650
G1 X78.783 Y75.896 E1.71423
G1 X80.148 Y75.578 E1.79384
G1 X80.686 Y75.486 E1.82482
G1 X80.753 Y75.490 E1.82864
G1 X80.894 Y76.098 E1.86412
G1 X83.311 Y76.074 E2.00139
G1 X83.364 Y76.820 E2.04382
G1 X83.184 Y77.547 E2.08636
G1 X80.866 Y77.119 E2.22022
G1 F1800.000 E1.22022
G92 E0
G1 X71.921 Y78.776 F4800.000
G1 E1.00000 F1800.000
G1 X70.606 Y79.751 E1.09294 F900.000
G1 X70.504 Y79.630 E1.10192
G1 X70.444 Y79.481 E1.11107
G1 X71.867 Y78.802 E1.20058
G1 X72.431 Y77.921 F4800.000
G1 X73.603 Y77.646 E1.26893 F900.000
G1 X73.707 Y77.818 E1.28038
G1 X72.915 Y78.725 E1.34874
G1 X72.542 Y78.402 E1.37674
G1 X72.445 Y77.980 E1.40134
G1 X71.940 Y78.174 F4800.000
G1 X71.799 Y77.565 E1.43683 F900.000
G1 X71.857 Y77.532 E1.44066
G1 X72.381 Y77.378 E1.47164
G1 X73.748 Y77.063 E1.55132
G1 X73.790 Y76.579 E1.57888
G1 X73.918 Y77.130 E1.61100
G1 X74.310 Y77.782 E1.65424
G1 X74.739 Y78.154 E1.68646
G1 X74.289 Y77.964 E1.71419
G1 X73.372 Y79.024 E1.79380
G1 X72.991 Y79.415 E1.82478
G1 X72.934 Y79.451 E1.82860
G1 X72.462 Y79.041 E1.86408
G1 X70.521 Y80.482 E2.00135
G1 X70.040 Y79.910 E2.04376
G1 X69.758 Y79.215 E2.08636
G1 X71.886 Y78.199 E2.22021
G1 F1800.000 E1.22021
G92 E0
G1 X69.445 Y79.868 F4800.000
G1 E1.00000 F1800.000
G1 X68.796 Y78.267 E1.09808 F810.000
G1 X67.769 Y78.456 E1.15738
G1 X67.133 Y78.517 E1.19369
G1 X66.615 Y78.488 E1.22311
G1 X66.586 Y78.361 E1.23048
G1 X67.038 Y78.107 E1.25990
G1 X67.636 Y77.883 E1.29621
G1 X68.642 Y77.601 E1.35553
G1 X68.520 Y75.878 E1.45361
G1 X67.485 Y75.740 E1.51291
G1 X66.860 Y75.602 E1.54922
G1 X66.378 Y75.414 E1.57864
G1 X66.389 Y75.285 E1.58601
G1 X66.897 Y75.183 E1.61542
G1 X67.535 Y75.154 E1.65173
G1 X68.579 Y75.197 E1.71105
G1 X68.995 Y73.520 E1.80913
G1 X68.053 Y73.069 E1.86843
G1 X67.502 Y72.745 E1.90475
G1 X67.101 Y72.417 E1.93416
G1 X67.152 Y72.298 E1.94153
G1 X67.666 Y72.358 E1.97095
G1 X68.283 Y72.527 E2.00726
G1 X69.262 Y72.891 E2.06658
G1 X70.176 Y71.425 E2.16466
G1 X69.419 Y70.705 E2.22396
G1 X68.996 Y70.226 E2.26027
G1 X68.715 Y69.791 E2.28969
G1 X68.801 Y69.693 E2.29706
G1 X69.271 Y69.909 E2.32648
G1 X69.805 Y70.261 E2.36278
G1 X70.624 Y70.909 E2.42210
G1 X71.946 Y69.797 E2.52019
G1 X71.449 Y68.879 E2.57949
G1 X71.194 Y68.292 E2.61580
G1 X71.062 Y67.791 E2.64521
