; generated by Slic3r 1.2.0 on 2014-10-26 at 14:02:58

; external perimeters extrusion width = 0.40mm
; perimeters extrusion width = 0.67mm
; infill extrusion width = 0.67mm
; solid infill extrusion width = 0.67mm
; top infill extrusion width = 0.67mm

G21 ; set units to millimeters
M107
M104 S195 ; set temperature
G28 X0 Y0  
G29
M109 S195 ; wait for temperature to be reached
G90 ; use absolute coordinates
G92 E0
M82 ; use absolute distances for extrusion
G1 F1800.000 E-1.00000
G92 E0
G1 Z0.300 F4800.000
G1 X67.733 Y67.737 F4800.000
G1 E1.00000 F1800.000
G1 X68.262 Y67.207 E1.04250 F720.000
G1 X68.929 Y66.660 E1.09150
G1 X70.169 Y65.832 E1.17617
G1 X70.930 Y65.425 E1.22517
G1 X72.308 Y64.854 E1.30985
G1 X73.133 Y64.604 E1.35885
G1 X74.596 Y64.313 E1.44352
G1 X75.455 Y64.228 E1.49254
G1 X76.946 Y64.228 E1.57720
G1 X77.804 Y64.313 E1.62619 F720.000
G1 X79.267 Y64.604 E1.71087
G1 X80.093 Y64.854 E1.75988
G1 X81.470 Y65.425 E1.84454
G1 X82.231 Y65.832 E1.89354
G1 X83.471 Y66.660 E1.97822
G1 X84.138 Y67.208 E2.02722
G1 X85.193 Y68.262 E2.11189
G1 X85.740 Y68.929 E2.16089
G1 X86.568 Y70.169 E2.24556
G1 X86.975 Y70.930 E2.29456
G1 X87.546 Y72.308 E2.37924
G1 X87.796 Y73.133 E2.42824
G1 X88.087 Y74.596 E2.51291
G1 X88.172 Y75.454 E2.56191
G1 X88.172 Y76.946 E2.64659
G1 X88.087 Y77.804 E2.69559
G1 X87.796 Y79.267 E2.78026
G1 X87.546 Y80.093 E2.82927
G1 X86.975 Y81.470 E2.91393
G1 X86.568 Y82.231 E2.96293
G1 X85.740 Y83.471 E3.04761
G1 X85.192 Y84.138 E3.09661
G1 X84.138 Y85.192 E3.18128
G1 X83.471 Y85.740 E3.23028
G1 X82.231 Y86.568 E3.31496
G1 X81.470 Y86.975 E3.36395
G1 X80.093 Y87.546 E3.44863
G1 X79.267 Y87.796 E3.49762
G1 X77.804 Y88.087 E3.58230
G1 X76.946 Y88.172 E3.63130
G1 X75.454 Y88.172 E3.71598
G1 X74.596 Y88.087 E3.76497
G1 X73.133 Y87.796 E3.84965
G1 X72.307 Y87.546 E3.89865
G1 X70.930 Y86.975 E3.98332
G1 X70.169 Y86.568 E4.03233
G1 X68.929 Y85.740 E4.11700
G1 X68.282 Y85.209 E4.16453
G1 X67.207 Y84.138 E4.25066
G1 X66.660 Y83.471 E4.29967
G1 X65.832 Y82.231 E4.38434
G1 X65.425 Y81.470 E4.43333
G1 X64.854 Y80.092 E4.51801
G1 X64.604 Y79.267 E4.56702
G1 X64.313 Y77.804 E4.65168
G1 X64.228 Y76.945 E4.70070
G1 X64.228 Y75.454 E4.78536
G1 X64.313 Y74.596 E4.83436
G1 X64.604 Y73.133 E4.91903
G1 X64.854 Y72.307 E4.96803
G1 X65.425 Y70.930 E5.05270
G1 X65.832 Y70.169 E5.10171
G1 X66.660 Y68.929 E5.18638
G1 X67.208 Y68.262 E5.23540
G1 X67.690 Y67.779 E5.27415
G1 X68.067 Y68.156 F4800.000
G1 X68.602 Y67.622 E5.31707 F720.000
G1 X69.269 Y67.074 E5.36607
G1 X70.421 Y66.304 E5.44478
G1 X71.182 Y65.897 E5.49378
G1 X72.463 Y65.367 E5.57250
G1 X73.289 Y65.116 E5.62150
G1 X74.648 Y64.846 E5.70021
G1 X75.507 Y64.761 E5.74922
G1 X76.893 Y64.761 E5.82792
G1 X77.752 Y64.846 E5.87691 F720.000
G1 X79.111 Y65.116 E5.95563
G1 X79.937 Y65.367 E6.00464
G1 X81.218 Y65.897 E6.08334
G1 X81.979 Y66.304 E6.13234
G1 X83.131 Y67.074 E6.21106
G1 X83.798 Y67.622 E6.26005
G1 X84.778 Y68.602 E6.33877
G1 X85.326 Y69.269 E6.38776
G1 X86.096 Y70.421 E6.46647
G1 X86.503 Y71.182 E6.51547
G1 X87.033 Y72.463 E6.59419
G1 X87.284 Y73.289 E6.64319
G1 X87.554 Y74.648 E6.72189
G1 X87.639 Y75.507 E6.77090
G1 X87.639 Y76.893 E6.84961
G1 X87.554 Y77.752 E6.89861
G1 X87.284 Y79.111 E6.97732
G1 X87.033 Y79.937 E7.02633
G1 X86.503 Y81.218 E7.10503
G1 X86.096 Y81.979 E7.15403
G1 X85.326 Y83.131 E7.23274
G1 X84.778 Y83.798 E7.28175
G1 X83.798 Y84.778 E7.36045
G1 X83.131 Y85.326 E7.40945
G1 X81.979 Y86.096 E7.48817
G1 X81.218 Y86.503 E7.53716
G1 X79.937 Y87.033 E7.61588
G1 X79.111 Y87.284 E7.66487
G1 X77.752 Y87.554 E7.74359
G1 X76.893 Y87.639 E7.79259
G1 X75.507 Y87.639 E7.87130
G1 X74.648 Y87.554 E7.92030
G1 X73.289 Y87.284 E7.99901
G1 X72.463 Y87.033 E8.04801
G1 X71.182 Y86.503 E8.12672
G1 X70.421 Y86.096 E8.17573
G1 X69.269 Y85.326 E8.25443
G1 X68.622 Y84.795 E8.30197
G1 X67.622 Y83.798 E8.38214
G1 X67.074 Y83.131 E8.43115
G1 X66.304 Y81.979 E8.50985
G1 X65.897 Y81.218 E8.55885
G1 X65.367 Y79.937 E8.63756
G1 X65.116 Y79.111 E8.68657
G1 X64.846 Y77.752 E8.76527
G1 X64.761 Y76.893 E8.81429
G1 X64.761 Y75.507 E8.89299
G1 X64.846 Y74.648 E8.94198
G1 X65.116 Y73.289 E9.02070
G1 X65.367 Y72.463 E9.06969
G1 X65.897 Y71.182 E9.14841
G1 X66.304 Y70.421 E9.19741
G1 X67.074 Y69.269 E9.27612
G1 X67.622 Y68.601 E9.32514
G1 X68.025 Y68.199 E9.35749
G1 X68.402 Y68.575 F4800.000
G1 X68.942 Y68.036 E9.40085 F720.000
G1 X69.609 Y67.488 E9.44985
G1 X70.674 Y66.776 E9.52260
G1 X71.435 Y66.370 E9.57160
G1 X72.618 Y65.879 E9.64435
G1 X73.444 Y65.629 E9.69335
G1 X74.701 Y65.379 E9.76610
G1 X75.560 Y65.294 E9.81511
G1 X76.841 Y65.294 E9.88784
G1 X77.699 Y65.379 E9.93684 F720.000
G1 X78.956 Y65.629 E10.00960
G1 X79.782 Y65.879 E10.05860
G1 X80.965 Y66.370 E10.13134
G1 X81.726 Y66.776 E10.18034
G1 X82.792 Y67.488 E10.25310
G1 X83.459 Y68.036 E10.30209
G1 X84.364 Y68.942 E10.37484
G1 X84.912 Y69.609 E10.42384
G1 X85.624 Y70.674 E10.49659
G1 X86.030 Y71.435 E10.54559
G1 X86.521 Y72.618 E10.61834
G1 X86.771 Y73.444 E10.66734
G1 X87.021 Y74.701 E10.74009
G1 X87.106 Y75.559 E10.78909
G1 X87.106 Y76.841 E10.86184
G1 X87.021 Y77.699 E10.91084
G1 X86.771 Y78.956 E10.98358
G1 X86.521 Y79.782 E11.03259
G1 X86.030 Y80.965 E11.10534
G1 X85.624 Y81.726 E11.15433
G1 X84.912 Y82.791 E11.22708
G1 X84.364 Y83.459 E11.27609
G1 X83.458 Y84.364 E11.34883
G1 X82.791 Y84.912 E11.39783
G1 X81.726 Y85.624 E11.47058
G1 X80.965 Y86.030 E11.51958
G1 X79.782 Y86.521 E11.59233
G1 X78.956 Y86.771 E11.64133
G1 X77.699 Y87.021 E11.71408
G1 X76.841 Y87.106 E11.76308
G1 X75.559 Y87.106 E11.83583
G1 X74.701 Y87.021 E11.88483
G1 X73.444 Y86.771 E11.95758
G1 X72.618 Y86.521 E12.00658
G1 X71.435 Y86.030 E12.07933
G1 X70.674 Y85.624 E12.12833
G1 X69.609 Y84.912 E12.20108
G1 X68.961 Y84.381 E12.24861
G1 X68.036 Y83.458 E12.32282
G1 X67.488 Y82.791 E12.37183
G1 X66.776 Y81.726 E12.44457
G1 X66.370 Y80.965 E12.49356
G1 X65.879 Y79.782 E12.56632
G1 X65.629 Y78.956 E12.61532
G1 X65.379 Y77.699 E12.68806
G1 X65.294 Y76.840 E12.73708
G1 X65.294 Y75.559 E12.80982
G1 X65.379 Y74.701 E12.85881
G1 X65.629 Y73.444 E12.93157
G1 X65.879 Y72.618 E12.98056
G1 X66.370 Y71.435 E13.05331
G1 X66.776 Y70.674 E13.10231
G1 X67.488 Y69.608 E13.17506
G1 X68.036 Y68.941 E13.22408
G1 X68.359 Y68.618 E13.25005
G1 F1800.000 E12.25005
G92 E0
G1 X76.200 Y72.656 F4800.000
G1 E1.00000 F1800.000
G1 X79.269 Y74.428 E1.20126 F810.000
G1 X79.269 Y77.972 E1.40252
G1 X76.200 Y79.744 E1.60378
G1 X73.131 Y77.972 E1.80504
G1 X73.131 Y74.428 E2.00629
G1 X76.148 Y72.686 E2.20415
G1 X76.457 Y72.349 F4800.000
G1 X76.479 Y72.127 F4800.000
G1 X77.000 Y72.179 E2.23387 F810.000
G1 X77.769 Y72.412 E2.27951 F810.000
G1 X78.478 Y72.791 E2.32515
G1 X79.099 Y73.301 E2.37079
G1 X79.609 Y73.922 E2.41643
G1 X79.988 Y74.631 E2.46207
G1 X80.221 Y75.400 E2.50771
G1 X80.300 Y76.200 E2.55335
G1 X80.221 Y77.000 E2.59899
G1 X79.988 Y77.769 E2.64463
G1 X79.609 Y78.478 E2.69027
G1 X79.099 Y79.099 E2.73591
G1 X78.478 Y79.609 E2.78156
G1 X77.769 Y79.988 E2.82720
G1 X77.000 Y80.221 E2.87284
G1 X76.200 Y80.300 E2.91848
G1 X75.400 Y80.221 E2.96412
G1 X74.631 Y79.988 E3.00976
G1 X73.922 Y79.609 E3.05540
G1 X73.301 Y79.099 E3.10104
G1 X72.791 Y78.478 E3.14668
G1 X72.412 Y77.769 E3.19232
G1 X72.179 Y77.000 E3.23796
G1 X72.100 Y76.200 E3.28360
G1 X72.179 Y75.400 E3.32924
G1 X72.412 Y74.631 E3.37488
G1 X72.791 Y73.922 E3.42052
G1 X73.301 Y73.301 E3.46616
G1 X73.922 Y72.791 E3.51180
G1 X74.631 Y72.412 E3.55744
G1 X75.400 Y72.179 E3.60309
G1 X76.200 Y72.100 E3.64873
G1 X76.419 Y72.122 E3.66124
G1 X77.116 Y72.562 F4800.000
G1 F1800.000 E2.66124
G92 E0
G1 X73.362 Y78.557 F4800.000
G1 E1.00000 F1800.000
G1 X73.622 Y78.778 E1.00853 F540.000
G1 X74.207 Y79.183 E1.02630
G1 X74.823 Y79.525 E1.04390
G1 X75.610 Y79.866 E1.06533
G1 X76.790 Y79.866 F4800.000
G1 X77.577 Y79.525 E1.08676 F540.000
G1 X78.193 Y79.183 E1.10436
G1 X78.778 Y78.778 E1.12213
G1 X79.038 Y78.557 E1.13066
G1 X79.665 Y77.469 F4800.000
G1 X79.749 Y76.906 E1.14489 F540.000
G1 X79.783 Y76.200 E1.16255
G1 X79.749 Y75.494 E1.18020
G1 X79.665 Y74.931 E1.19443
G1 X79.038 Y73.843 F4800.000
G1 X78.778 Y73.622 E1.20296 F540.000
G1 X78.193 Y73.217 E1.22073
G1 X77.577 Y72.875 E1.23833
G1 X76.790 Y72.534 E1.25976
G1 X75.610 Y72.534 F4800.000
G1 X74.823 Y72.875 E1.28119 F540.000
G1 X74.207 Y73.217 E1.29879
G1 X73.622 Y73.622 E1.31656
G1 X73.362 Y73.843 E1.32509
G1 X72.735 Y74.931 F4800.000
G1 X72.651 Y75.494 E1.33932 F540.000
G1 X72.617 Y76.200 E1.35698
G1 X72.651 Y76.906 E1.37463
G1 X72.735 Y77.469 E1.38886
M106 S255
M104 S190 ; set temperature
G1 F1800.000 E0.38886
G92 E0
G1 Z0.500 F4800.000
G1 X76.200 Y79.629 F4800.000
G1 E1.00000 F1800.000
G1 X73.231 Y77.914 E1.15227 F600.000
G1 X73.231 Y74.486 E1.30453
G1 X76.200 Y72.771 E1.45680
G1 X79.169 Y74.486 E1.60906
G1 X79.169 Y77.914 E1.76133
G1 X76.252 Y79.599 E1.91093
G1 X75.943 Y79.935 F4800.000
G1 X75.590 Y79.845 F4800.000
G1 X75.477 Y79.834 E1.91595 F600.000
G1 X74.782 Y79.623 E1.94821
G1 X74.141 Y79.281 E1.98047
G1 X73.580 Y78.820 E2.01273
G1 X73.369 Y78.563 E2.02749
G1 X75.538 Y79.815 E2.13869
G1 F1800.000 E1.13869
G92 E0
G1 X72.738 Y77.490 F4800.000
G1 E1.00000 F1800.000
G1 X72.566 Y76.923 E1.02633 F600.000
G1 X72.495 Y76.200 E1.05859
G1 X72.566 Y75.477 E1.09085
G1 X72.738 Y74.910 E1.11718
G1 X72.738 Y77.430 E1.22912
G1 F1800.000 E0.22912
G92 E0
G1 X73.369 Y73.837 F4800.000
G1 E1.00000 F1800.000
G1 X73.580 Y73.580 E1.01476 F600.000
G1 X74.141 Y73.119 E1.04702
G1 X74.782 Y72.777 E1.07928
G1 X75.477 Y72.566 E1.11153
G1 X75.590 Y72.555 E1.11656
G1 X73.421 Y73.807 E1.22776
G1 F1800.000 E0.22776
G92 E0
G1 X76.916 Y72.615 F4800.000
G1 E1.00000 F1800.000
G1 X76.810 Y72.555 E1.00540 F600.000
G1 X76.923 Y72.566 E1.01042
G1 X77.618 Y72.777 E1.04268
G1 X78.259 Y73.119 E1.07494
G1 X78.820 Y73.580 E1.10720
G1 X79.031 Y73.837 E1.12195
G1 X76.968 Y72.645 E1.22776
G1 F1800.000 E0.22776
G92 E0
G1 X79.662 Y74.910 F4800.000
G1 E1.00000 F1800.000
G1 X79.834 Y75.477 E1.02633 F600.000
G1 X79.905 Y76.200 E1.05859
G1 X79.834 Y76.923 E1.09085
G1 X79.662 Y77.490 E1.11718
G1 X79.662 Y74.970 E1.22912
G1 F1800.000 E0.22912
G92 E0
G1 X78.947 Y78.612 F4800.000
G1 E1.00000 F1800.000
G1 X79.031 Y78.563 E1.00433 F600.000
G1 X78.820 Y78.820 E1.01909
G1 X78.259 Y79.281 E1.05135
G1 X77.618 Y79.623 E1.08361
G1 X76.923 Y79.834 E1.11587
G1 X76.810 Y79.845 E1.12089
G1 X78.895 Y78.642 E1.22776
G1 X79.318 Y78.990 F4800.000
G1 X79.170 Y79.170 E1.23813 F600.000
G1 X78.534 Y79.693 E1.27470
G1 X77.807 Y80.081 E1.31127
G1 X77.019 Y80.320 E1.34783
G1 X76.200 Y80.401 E1.38440
G1 X75.381 Y80.320 E1.42097
G1 X74.593 Y80.081 E1.45754
G1 X73.866 Y79.693 E1.49410
G1 X73.268 Y79.202 E1.52848
G1 X72.707 Y78.534 E1.56720
G1 X72.319 Y77.807 E1.60377
G1 X72.080 Y77.019 E1.64034
G1 X71.999 Y76.200 E1.67690
G1 X72.080 Y75.381 E1.71347
G1 X72.319 Y74.593 E1.75004
G1 X72.707 Y73.866 E1.78661
G1 X73.230 Y73.230 E1.82317
G1 X73.866 Y72.707 E1.85974
G1 X74.593 Y72.319 E1.89631
G1 X75.381 Y72.080 E1.93288
G1 X76.200 Y71.999 E1.96945
G1 X76.970 Y72.075 E2.00382
G1 X77.807 Y72.319 E2.04254 F600.000
G1 X78.534 Y72.707 E2.07911
G1 X79.170 Y73.230 E2.11568
G1 X79.693 Y73.866 E2.15224
G1 X80.081 Y74.593 E2.18881
G1 X80.320 Y75.381 E2.22538
G1 X80.401 Y76.200 E2.26195
G1 X80.320 Y77.019 E2.29852
G1 X80.081 Y77.807 E2.33508
G1 X79.693 Y78.534 E2.37165
G1 X79.356 Y78.943 E2.39519
G1 F1800.000 E1.39519
G92 E0
G1 X77.305 Y72.294 F4800.000
G1 Z0.700 F4800.000
G1 X76.200 Y79.629 F4800.000
G1 E1.00000 F1800.000
G1 X73.231 Y77.914 E1.15227 F600.000
G1 X73.231 Y74.486 E1.30453
G1 X76.200 Y72.771 E1.45680
G1 X79.169 Y74.486 E1.60906
G1 X79.169 Y77.914 E1.76133
G1 X76.252 Y79.599 E1.91093
G1 X75.943 Y79.935 F4800.000
G1 X76.810 Y79.845 F4800.000
G1 X79.031 Y78.563 E2.02480 F600.000
G1 X78.820 Y78.820 E2.03956
G1 X78.259 Y79.281 E2.07182
G1 X77.618 Y79.623 E2.10408
G1 X76.870 Y79.839 E2.13865
G1 F1800.000 E1.13865
G92 E0
G1 X79.662 Y77.490 F4800.000
G1 E1.00000 F1800.000
G1 X79.662 Y74.910 E1.11460 F600.000
G1 X79.834 Y75.477 E1.14094
G1 X79.905 Y76.200 E1.17320
G1 X79.834 Y76.923 E1.20545
G1 X79.680 Y77.433 E1.22912
G1 F1800.000 E0.22912
G92 E0
G1 X79.031 Y73.837 F4800.000
G1 E1.00000 F1800.000
G1 X76.810 Y72.555 E1.11387 F600.000
G1 X76.923 Y72.566 E1.11890
G1 X77.618 Y72.777 E1.15115
G1 X78.259 Y73.119 E1.18341
G1 X78.820 Y73.580 E1.21567
G1 X78.993 Y73.790 E1.22776
G1 F1800.000 E0.22776
G92 E0
G1 X75.477 Y72.566 F4800.000
G1 E1.00000 F1800.000
G1 X75.590 Y72.555 E1.00502 F600.000
G1 X73.369 Y73.837 E1.11890
G1 X73.580 Y73.580 E1.13365
G1 X74.141 Y73.119 E1.16591
G1 X74.782 Y72.777 E1.19817
G1 X75.420 Y72.583 E1.22776
G1 F1800.000 E0.22776
G92 E0
G1 X72.738 Y74.910 F4800.000
G1 E1.00000 F1800.000
G1 X72.738 Y77.490 E1.11460 F600.000
G1 X72.566 Y76.923 E1.14094
G1 X72.495 Y76.200 E1.17320
G1 X72.566 Y75.477 E1.20545
G1 X72.720 Y74.967 E1.22912
G1 F1800.000 E0.22912
G92 E0
G1 X73.580 Y78.820 F4800.000
G1 E1.00000 F1800.000
G1 X73.369 Y78.563 E1.01476 F600.000
G1 X75.590 Y79.845 E1.12863
G1 X75.477 Y79.834 E1.13366
G1 X74.782 Y79.623 E1.16591
G1 X74.141 Y79.281 E1.19817
G1 X73.626 Y78.858 E1.22776
G1 X73.314 Y79.239 F4800.000
G1 X73.230 Y79.170 E1.23258 F600.000
G1 X72.707 Y78.534 E1.26915
G1 X72.319 Y77.807 E1.30572
G1 X72.080 Y77.019 E1.34229
G1 X71.999 Y76.200 E1.37885
G1 X72.080 Y75.381 E1.41542
G1 X72.319 Y74.593 E1.45199
G1 X72.707 Y73.866 E1.48856
G1 X73.230 Y73.230 E1.52513
G1 X73.866 Y72.707 E1.56169
G1 X74.593 Y72.319 E1.59826
G1 X75.381 Y72.080 E1.63483
G1 X76.200 Y71.999 E1.67140
G1 X76.936 Y72.072 E1.70424
G1 X77.019 Y72.080 E1.70796 F600.000
G1 X77.807 Y72.319 E1.74453
G1 X78.534 Y72.707 E1.78110
G1 X79.170 Y73.230 E1.81767
G1 X79.693 Y73.866 E1.85424
G1 X80.081 Y74.593 E1.89080
G1 X80.320 Y75.381 E1.92737
G1 X80.401 Y76.200 E1.96394
G1 X80.320 Y77.019 E2.00051
G1 X80.081 Y77.807 E2.03707
G1 X79.693 Y78.534 E2.07364
G1 X79.170 Y79.170 E2.11021
G1 X78.534 Y79.693 E2.14678
G1 X77.807 Y80.081 E2.18335
G1 X77.019 Y80.320 E2.21991
G1 X76.200 Y80.401 E2.25648
G1 X75.381 Y80.320 E2.29305
G1 X74.593 Y80.081 E2.32962
G1 X73.866 Y79.693 E2.36618
G1 X73.360 Y79.277 E2.39527
G1 F1800.000 E1.39527
G92 E0
G1 X76.999 Y72.127 F4800.000
G1 Z0.900 F4800.000
G1 X76.200 Y72.771 F4800.000
G1 E1.00000 F1800.000
G1 X79.169 Y74.486 E1.15227 F600.000
G1 X79.169 Y77.914 E1.30453
G1 X76.200 Y79.629 E1.45680
G1 X73.231 Y77.914 E1.60906
G1 X73.231 Y74.486 E1.76133
G1 X76.148 Y72.801 E1.91093
G1 X76.457 Y72.465 F4800.000
G1 F1800.000 E0.91093
G92 E0
G1 X79.031 Y78.563 F4800.000
G1 E1.00000 F1800.000
G1 X78.820 Y78.820 E1.01476 F600.000
G1 X78.259 Y79.281 E1.04702
G1 X77.618 Y79.623 E1.07928
G1 X76.923 Y79.834 E1.11153
G1 X76.810 Y79.845 E1.11656
G1 X78.979 Y78.593 E1.22776
G1 X79.662 Y77.490 F4800.000
G1 X79.662 Y74.910 E1.34237 F600.000
G1 X79.834 Y75.477 E1.36870
G1 X79.905 Y76.200 E1.40096
G1 X79.834 Y76.923 E1.43322
G1 X79.680 Y77.433 E1.45689
G1 F1800.000 E0.45689
G92 E0
G1 X79.031 Y73.837 F4800.000
G1 E1.00000 F1800.000
G1 X76.810 Y72.555 E1.11387 F600.000
G1 X76.923 Y72.566 E1.11890
G1 X77.618 Y72.777 E1.15115
G1 X78.259 Y73.119 E1.18341
G1 X78.820 Y73.580 E1.21567
G1 X78.993 Y73.790 E1.22776
G1 F1800.000 E0.22776
G92 E0
G1 X75.477 Y72.566 F4800.000
G1 E1.00000 F1800.000
G1 X75.590 Y72.555 E1.00502 F600.000
G1 X73.369 Y73.837 E1.11889
G1 X73.580 Y73.580 E1.13365
G1 X74.141 Y73.119 E1.16591
G1 X74.782 Y72.777 E1.19817
G1 X75.420 Y72.583 E1.22776
G1 F1800.000 E0.22776
G92 E0
G1 X72.738 Y74.910 F4800.000
G1 E1.00000 F1800.000
G1 X72.738 Y77.490 E1.11460 F600.000
G1 X72.566 Y76.923 E1.14094
G1 X72.495 Y76.200 E1.17320
G1 X72.566 Y75.477 E1.20545
G1 X72.720 Y74.967 E1.22912
G1 F1800.000 E0.22912
G92 E0
G1 X73.580 Y78.820 F4800.000
G1 E1.00000 F1800.000
G1 X73.369 Y78.563 E1.01476 F600.000
G1 X75.590 Y79.845 E1.12863
G1 X75.477 Y79.834 E1.13366
G1 X74.782 Y79.623 E1.16591
G1 X74.141 Y79.281 E1.19817
G1 X73.626 Y78.858 E1.22776
G1 X73.314 Y79.239 F4800.000
G1 X73.230 Y79.170 E1.23258 F600.000
G1 X72.707 Y78.534 E1.26915
G1 X72.319 Y77.807 E1.30572
G1 X72.080 Y77.019 E1.34229
G1 X71.999 Y76.200 E1.37885
G1 X72.080 Y75.381 E1.41542
G1 X72.319 Y74.593 E1.45199
