; generated by Slic3r 1.2.0 on 2014-10-26 at 14:03:18

; external perimeters extrusion width = 0.40mm
; perimeters extrusion width = 0.67mm
; infill extrusion width = 0.67mm
; solid infill extrusion width = 0.67mm
; top infill extrusion width = 0.67mm

G21 ; set units to millimeters
M107
M104 S195 ; set temperature
G28 X0 Y0  
G29
M109 S195 ; wait for temperature to be reached
G90 ; use absolute coordinates
G92 E0
M82 ; use absolute distances for extrusion
G1 F1800.000 E-1.00000
G92 E0
G1 Z0.300 F4800.000
G1 X66.726 Y66.725 F4800.000
G1 E1.00000 F1800.000
G1 X67.532 Y65.978 E1.06238 F720.000
G1 X68.002 Y65.598 E1.09670
G1 X68.648 Y65.128 E1.14207
G1 X69.155 Y64.799 E1.17640
G1 X69.847 Y64.399 E1.22176
G1 X70.385 Y64.125 E1.25609
G1 X71.115 Y63.800 E1.30144
G1 X72.439 Y63.336 E1.38111
G1 X73.024 Y63.180 E1.41550
G1 X73.804 Y63.014 E1.46079
G1 X74.403 Y62.919 E1.49519
G1 X75.196 Y62.835 E1.54047
G1 X75.799 Y62.804 E1.57477
G1 X76.598 Y62.804 E1.62016
G1 X77.996 Y62.919 E1.69982
G1 X79.375 Y63.179 E1.77948 F720.000
G1 X79.958 Y63.336 E1.81380
G1 X80.718 Y63.582 E1.85916
G1 X81.285 Y63.800 E1.89361
G1 X82.012 Y64.124 E1.93885
G1 X83.243 Y64.798 E2.01852
G1 X84.396 Y65.596 E2.09818
G1 X84.867 Y65.978 E2.13259
G1 X85.460 Y66.511 E2.17785
G1 X85.886 Y66.938 E2.21213
G1 X86.422 Y67.532 E2.25755
G1 X86.802 Y68.001 E2.29184
G1 X87.272 Y68.648 E2.33723
G1 X87.601 Y69.155 E2.37155
G1 X88.001 Y69.847 E2.41691
G1 X88.600 Y71.115 E2.49658
G1 X89.064 Y72.439 E2.57623
G1 X89.220 Y73.022 E2.61051
G1 X89.386 Y73.804 E2.65592
G1 X89.565 Y75.196 E2.73558
G1 X89.596 Y75.799 E2.76987
G1 X89.596 Y76.598 E2.81526
G1 X89.481 Y77.996 E2.89493
G1 X89.221 Y79.375 E2.97459
G1 X88.818 Y80.718 E3.05425
G1 X88.276 Y82.012 E3.13390
G1 X87.602 Y83.243 E3.21356
G1 X86.804 Y84.396 E3.29322
G1 X86.423 Y84.866 E3.32754
G1 X85.889 Y85.460 E3.37290
G1 X84.868 Y86.422 E3.45257
G1 X83.752 Y87.272 E3.53222
G1 X83.245 Y87.601 E3.56655
G1 X82.553 Y88.001 E3.61192
G1 X82.014 Y88.275 E3.64629
G1 X81.285 Y88.600 E3.69160
G1 X80.721 Y88.817 E3.72593
G1 X79.961 Y89.064 E3.77128
G1 X79.376 Y89.220 E3.80568
G1 X78.596 Y89.386 E3.85097
G1 X77.204 Y89.565 E3.93063
G1 X76.602 Y89.596 E3.96491
G1 X75.802 Y89.596 E4.01031
G1 X74.404 Y89.481 E4.08998
G1 X73.025 Y89.221 E4.16963
G1 X71.682 Y88.818 E4.24929
G1 X70.388 Y88.276 E4.32895
G1 X69.157 Y87.602 E4.40861
G1 X68.004 Y86.804 E4.48827
G1 X67.534 Y86.423 E4.52259
G1 X66.940 Y85.889 E4.56795
G1 X66.512 Y85.461 E4.60232
G1 X65.978 Y84.868 E4.64764
G1 X65.128 Y83.752 E4.72730
G1 X64.399 Y82.553 E4.80696
G1 X63.800 Y81.285 E4.88662
G1 X63.584 Y80.721 E4.92091
G1 X63.336 Y79.961 E4.96630
G1 X63.180 Y79.376 E5.00070
G1 X63.014 Y78.596 E5.04600
G1 X62.919 Y77.997 E5.08039
G1 X62.835 Y77.204 E5.12567
G1 X62.804 Y76.600 E5.16007
G1 X62.804 Y75.802 E5.20536
G1 X62.835 Y75.199 E5.23964
G1 X62.919 Y74.404 E5.28505
G1 X63.179 Y73.025 E5.36471
G1 X63.582 Y71.682 E5.44436
G1 X63.799 Y71.117 E5.47870
G1 X64.124 Y70.388 E5.52405
G1 X64.399 Y69.847 E5.55849
G1 X64.797 Y69.157 E5.60374
G1 X65.596 Y68.004 E5.68340
G1 X65.977 Y67.534 E5.71772
G1 X66.684 Y66.768 E5.77695
G1 X67.063 Y67.146 F4800.000
G1 X67.317 Y66.892 E5.79734 F720.000
G1 X67.869 Y66.395 E5.83957
G1 X68.339 Y66.014 E5.87389
G1 X68.940 Y65.577 E5.91607
G1 X69.447 Y65.248 E5.95039
G1 X70.090 Y64.877 E5.99258
G1 X70.628 Y64.602 E6.02690
G1 X71.307 Y64.300 E6.06907
G1 X72.578 Y63.854 E6.14556
G1 X73.162 Y63.697 E6.17994
G1 X73.888 Y63.543 E6.22206
G1 X74.486 Y63.448 E6.25645
G1 X75.224 Y63.370 E6.29856
G1 X75.827 Y63.339 E6.33285
G1 X76.570 Y63.339 E6.37506
G1 X77.912 Y63.448 E6.45154
G1 X79.236 Y63.697 E6.52802 F720.000
G1 X79.820 Y63.853 E6.56234
G1 X80.526 Y64.082 E6.60452
G1 X81.092 Y64.300 E6.63895
G1 X81.769 Y64.601 E6.68102
G1 X82.951 Y65.247 E6.75750
G1 X84.059 Y66.012 E6.83398
G1 X84.530 Y66.394 E6.86838
G1 X85.081 Y66.890 E6.91047
G1 X85.508 Y67.317 E6.94475
G1 X86.006 Y67.869 E6.98699
G1 X86.386 Y68.338 E7.02128
G1 X86.823 Y68.940 E7.06348
G1 X87.152 Y69.447 E7.09780
G1 X87.523 Y70.090 E7.13998
G1 X88.100 Y71.307 E7.21647
G1 X88.546 Y72.578 E7.29294
G1 X88.703 Y73.161 E7.32722
G1 X88.857 Y73.888 E7.36944
G1 X89.030 Y75.224 E7.44592
G1 X89.061 Y75.827 E7.48020
G1 X89.061 Y76.570 E7.52242
G1 X88.952 Y77.912 E7.59890
G1 X88.703 Y79.236 E7.67537
G1 X88.318 Y80.526 E7.75185
G1 X87.799 Y81.769 E7.82832
G1 X87.153 Y82.951 E7.90480
G1 X86.388 Y84.059 E7.98128
G1 X86.007 Y84.529 E8.01560
G1 X85.510 Y85.081 E8.05778
G1 X84.531 Y86.006 E8.13426
G1 X83.460 Y86.823 E8.21073
G1 X82.953 Y87.152 E8.24505
G1 X82.310 Y87.523 E8.28724
G1 X81.771 Y87.798 E8.32161
G1 X81.093 Y88.100 E8.36374
G1 X80.529 Y88.317 E8.39807
G1 X79.822 Y88.546 E8.44024
G1 X79.237 Y88.703 E8.47463
G1 X78.512 Y88.857 E8.51674
G1 X77.176 Y89.030 E8.59322
G1 X76.574 Y89.061 E8.62750
G1 X75.830 Y89.061 E8.66972
G1 X74.488 Y88.952 E8.74620
G1 X73.164 Y88.703 E8.82267
G1 X71.874 Y88.318 E8.89915
G1 X70.631 Y87.799 E8.97563
G1 X69.449 Y87.153 E9.05210
G1 X68.341 Y86.388 E9.12858
G1 X67.871 Y86.007 E9.16290
G1 X67.319 Y85.510 E9.20508
G1 X66.891 Y85.082 E9.23944
G1 X66.395 Y84.531 E9.28158
G1 X65.577 Y83.460 E9.35806
G1 X64.877 Y82.310 E9.43454
G1 X64.300 Y81.093 E9.51101
G1 X64.084 Y80.529 E9.54530
G1 X63.854 Y79.822 E9.58751
G1 X63.697 Y79.237 E9.62190
G1 X63.543 Y78.512 E9.66402
G1 X63.448 Y77.914 E9.69841
G1 X63.370 Y77.176 E9.74052
G1 X63.339 Y76.572 E9.77491
G1 X63.339 Y75.830 E9.81702
G1 X63.370 Y75.227 E9.85130
G1 X63.448 Y74.488 E9.89353
G1 X63.697 Y73.164 E9.97000
G1 X64.082 Y71.874 E10.04648
G1 X64.299 Y71.309 E10.08080
G1 X64.601 Y70.631 E10.12298
G1 X64.876 Y70.091 E10.15740
G1 X65.247 Y69.449 E10.19948
G1 X66.012 Y68.341 E10.27596
G1 X66.393 Y67.871 E10.31028
G1 X67.020 Y67.189 E10.36292
G1 X67.399 Y67.567 F4800.000
G1 X67.695 Y67.271 E10.38672 F720.000
G1 X68.206 Y66.811 E10.42577
G1 X68.676 Y66.430 E10.46008
G1 X69.231 Y66.027 E10.49909
G1 X69.738 Y65.697 E10.53340
G1 X70.333 Y65.354 E10.57241
G1 X70.871 Y65.080 E10.60673
G1 X71.499 Y64.800 E10.64572
G1 X72.716 Y64.371 E10.71902
G1 X73.301 Y64.214 E10.75340
G1 X73.972 Y64.072 E10.79234
G1 X74.570 Y63.977 E10.82672
G1 X75.252 Y63.905 E10.86566
G1 X75.855 Y63.874 E10.89995
G1 X76.542 Y63.873 E10.93898
G1 X77.829 Y63.977 E11.01227
G1 X79.097 Y64.214 E11.08557 F720.000
G1 X79.681 Y64.370 E11.11988
G1 X80.334 Y64.582 E11.15888
G1 X80.900 Y64.800 E11.19330
G1 X81.526 Y65.078 E11.23220
G1 X82.660 Y65.696 E11.30550
G1 X83.722 Y66.429 E11.37879
G1 X84.193 Y66.810 E11.41319
G1 X84.702 Y67.268 E11.45211
G1 X85.129 Y67.695 E11.48638
G1 X85.589 Y68.206 E11.52543
G1 X85.969 Y68.676 E11.55972
G1 X86.373 Y69.231 E11.59875
G1 X86.703 Y69.738 E11.63306
G1 X87.046 Y70.333 E11.67206
G1 X87.600 Y71.499 E11.74536
G1 X88.029 Y72.716 E11.81865
G1 X88.185 Y73.299 E11.85293
G1 X88.328 Y73.972 E11.89197
G1 X88.495 Y75.252 E11.96527
G1 X88.526 Y75.855 E11.99955
G1 X88.527 Y76.542 E12.03858
G1 X88.423 Y77.829 E12.11188
G1 X88.186 Y79.097 E12.18517
G1 X87.817 Y80.334 E12.25847
G1 X87.322 Y81.526 E12.33176
G1 X86.704 Y82.659 E12.40506
G1 X85.971 Y83.722 E12.47835
G1 X85.591 Y84.192 E12.51266
G1 X85.132 Y84.702 E12.55166
G1 X84.194 Y85.589 E12.62496
G1 X83.169 Y86.373 E12.69825
G1 X82.662 Y86.703 E12.73257
G1 X82.067 Y87.046 E12.77158
G1 X81.528 Y87.321 E12.80594
G1 X80.901 Y87.600 E12.84489
G1 X80.337 Y87.817 E12.87922
G1 X79.684 Y88.029 E12.91821
G1 X79.099 Y88.186 E12.95259
G1 X78.428 Y88.328 E12.99153
G1 X77.148 Y88.495 E13.06483
G1 X76.545 Y88.526 E13.09910
G1 X75.858 Y88.527 E13.13814
G1 X74.571 Y88.423 E13.21144
G1 X73.303 Y88.186 E13.28473
G1 X72.066 Y87.818 E13.35802
G1 X70.874 Y87.322 E13.43132
G1 X69.741 Y86.704 E13.50461
G1 X68.678 Y85.971 E13.57791
G1 X68.208 Y85.591 E13.61222
G1 X67.698 Y85.132 E13.65122
G1 X67.270 Y84.704 E13.68557
G1 X66.811 Y84.194 E13.72454
G1 X66.027 Y83.169 E13.79784
G1 X65.354 Y82.067 E13.87113
G1 X64.800 Y80.901 E13.94442
G1 X64.584 Y80.337 E13.97871
G1 X64.371 Y79.684 E14.01774
G1 X64.214 Y79.099 E14.05212
G1 X64.072 Y78.428 E14.09106
G1 X63.977 Y77.830 E14.12545
G1 X63.905 Y77.148 E14.16438
G1 X63.874 Y76.544 E14.19876
G1 X63.873 Y75.858 E14.23770
G1 X63.905 Y75.255 E14.27197
G1 X63.977 Y74.571 E14.31102
G1 X64.214 Y73.303 E14.38431
G1 X64.582 Y72.066 E14.45760
G1 X64.799 Y71.501 E14.49193
G1 X65.078 Y70.874 E14.53092
G1 X65.353 Y70.334 E14.56534
G1 X65.696 Y69.741 E14.60424
G1 X66.429 Y68.678 E14.67754
G1 X66.809 Y68.208 E14.71185
G1 X67.356 Y67.610 E14.75791
G1 F1800.000 E13.75791
G92 E0
G1 X72.795 Y73.048 F4800.000
G1 E1.00000 F1800.000
G1 X73.094 Y72.750 E1.02397 F900.000
G1 X73.471 Y72.444 E1.05156
G1 X73.879 Y72.179 E1.07916
G1 X74.312 Y71.959 E1.10675
G1 X74.766 Y71.785 E1.13435
G1 X75.235 Y71.659 E1.16193
G1 X75.715 Y71.583 E1.18953
G1 X76.247 Y71.560 E1.21976
G1 X76.685 Y71.583 E1.24469 F900.000
G1 X77.165 Y71.659 E1.27229
G1 X77.635 Y71.785 E1.29989
G1 X78.088 Y71.959 E1.32748
G1 X78.521 Y72.180 E1.35508
G1 X78.929 Y72.444 E1.38267
G1 X79.306 Y72.750 E1.41026
G1 X79.679 Y73.130 E1.44050
G1 X79.956 Y73.471 E1.46544
G1 X80.220 Y73.879 E1.49302
G1 X80.441 Y74.312 E1.52063
G1 X80.615 Y74.765 E1.54821
G1 X80.741 Y75.235 E1.57580
G1 X80.817 Y75.715 E1.60341
G1 X80.842 Y76.200 E1.63099
G1 X80.817 Y76.685 E1.65859
G1 X80.741 Y77.165 E1.68618
G1 X80.615 Y77.635 E1.71377
G1 X80.420 Y78.130 E1.74401
G1 X80.220 Y78.521 E1.76895
G1 X79.956 Y78.929 E1.79654
G1 X79.650 Y79.306 E1.82414
G1 X79.306 Y79.650 E1.85173
G1 X78.929 Y79.956 E1.87933
G1 X78.521 Y80.220 E1.90691
G1 X78.088 Y80.441 E1.93452
G1 X77.635 Y80.615 E1.96210
G1 X77.165 Y80.741 E1.98969
G1 X76.685 Y80.817 E2.01729
G1 X76.200 Y80.842 E2.04488
G1 X75.715 Y80.817 E2.07248
G1 X75.235 Y80.741 E2.10007
G1 X74.766 Y80.615 E2.12766
G1 X74.312 Y80.441 E2.15526
G1 X73.879 Y80.220 E2.18285
G1 X73.471 Y79.956 E2.21044
G1 X73.061 Y79.617 E2.24067
G1 X72.750 Y79.306 E2.26561
G1 X72.444 Y78.929 E2.29321
G1 X72.180 Y78.521 E2.32081
G1 X71.959 Y78.088 E2.34840
G1 X71.785 Y77.635 E2.37599
G1 X71.659 Y77.165 E2.40357
G1 X71.583 Y76.685 E2.43118
G1 X71.558 Y76.200 E2.45877
G1 X71.583 Y75.715 E2.48636
G1 X71.671 Y75.190 E2.51659
G1 X71.785 Y74.765 E2.54154
G1 X71.959 Y74.312 E2.56913
G1 X72.180 Y73.879 E2.59672
G1 X72.444 Y73.471 E2.62432
G1 X72.753 Y73.091 E2.65213
G1 X73.149 Y73.453 F4800.000
G1 X73.452 Y73.149 E2.67653 F810.000
G1 X73.787 Y72.878 E2.70094
G1 X74.147 Y72.644 E2.72535
G1 X74.530 Y72.449 E2.74975
G1 X74.931 Y72.295 E2.77416
G1 X75.346 Y72.184 E2.79856
G1 X75.789 Y72.115 E2.82402
G1 X76.200 Y72.094 E2.84737 F810.000
G1 X76.629 Y72.116 E2.87177
G1 X77.054 Y72.184 E2.89618
G1 X77.469 Y72.295 E2.92058
G1 X77.870 Y72.449 E2.94499
G1 X78.253 Y72.644 E2.96940
G1 X78.613 Y72.878 E2.99380
G1 X78.961 Y73.162 E3.01926
G1 X79.251 Y73.453 E3.04260
G1 X79.522 Y73.787 E3.06701
G1 X79.756 Y74.147 E3.09141
G1 X79.951 Y74.530 E3.11582
G1 X80.105 Y74.931 E3.14022
G1 X80.219 Y75.365 E3.16569
G1 X80.284 Y75.771 E3.18903
G1 X80.306 Y76.200 E3.21344
G1 X80.284 Y76.629 E3.23784
G1 X80.216 Y77.054 E3.26225
G1 X80.098 Y77.486 E3.28771
G1 X79.951 Y77.870 E3.31105
G1 X79.756 Y78.253 E3.33546
G1 X79.522 Y78.613 E3.35986
G1 X79.251 Y78.947 E3.38427
G1 X78.933 Y79.263 E3.40973
G1 X78.613 Y79.522 E3.43308
G1 X78.253 Y79.756 E3.45748
G1 X77.870 Y79.951 E3.48189
G1 X77.469 Y80.105 E3.50629
G1 X77.054 Y80.216 E3.53069
G1 X76.629 Y80.284 E3.55510
G1 X76.200 Y80.306 E3.57951
G1 X75.771 Y80.284 E3.60391
G1 X75.346 Y80.216 E3.62832
G1 X74.931 Y80.105 E3.65272
G1 X74.530 Y79.951 E3.67713
G1 X74.147 Y79.756 E3.70153
G1 X73.772 Y79.510 E3.72699
G1 X73.453 Y79.251 E3.75034
G1 X73.149 Y78.947 E3.77474
G1 X72.878 Y78.613 E3.79915
G1 X72.644 Y78.253 E3.82356
G1 X72.449 Y77.870 E3.84796
G1 X72.295 Y77.469 E3.87237
G1 X72.184 Y77.054 E3.89677
G1 X72.116 Y76.629 E3.92118
G1 X72.094 Y76.200 E3.94558
G1 X72.116 Y75.771 E3.96998
G1 X72.184 Y75.346 E3.99439
G1 X72.295 Y74.931 E4.01880
G1 X72.449 Y74.530 E4.04320
G1 X72.644 Y74.147 E4.06761
G1 X72.878 Y73.787 E4.09201
G1 X73.111 Y73.499 E4.11301
G1 F1800.000 E3.11301
G92 E0
G1 X75.913 Y71.735 F4800.000
G1 X75.888 Y71.253 F4800.000
G1 E1.00000 F1800.000
G1 X76.200 Y71.237 E1.01773 F900.000
G1 X76.719 Y71.264 E1.04723
G1 X77.232 Y71.345 E1.07673
G1 X77.734 Y71.480 E1.10623
G1 X78.219 Y71.666 E1.13573
G1 X78.682 Y71.902 E1.16523
G1 X79.117 Y72.185 E1.19473
G1 X79.521 Y72.512 E1.22423
G1 X79.888 Y72.879 E1.25373
G1 X80.215 Y73.283 E1.28323
G1 X80.498 Y73.718 E1.31273
G1 X80.734 Y74.181 E1.34223
G1 X80.920 Y74.666 E1.37173
G1 X81.055 Y75.168 E1.40123
G1 X81.136 Y75.681 E1.43072
G1 X81.163 Y76.200 E1.46022
G1 X81.136 Y76.719 E1.48972
G1 X81.055 Y77.232 E1.51922
G1 X80.920 Y77.734 E1.54872
G1 X80.734 Y78.219 E1.57822
G1 X80.498 Y78.682 E1.60772
G1 X80.215 Y79.117 E1.63722
G1 X79.888 Y79.521 E1.66672
G1 X79.521 Y79.888 E1.69622
G1 X79.117 Y80.215 E1.72572
G1 X78.682 Y80.498 E1.75522
G1 X78.219 Y80.734 E1.78472
G1 X77.734 Y80.920 E1.81422
G1 X77.232 Y81.055 E1.84371
G1 X76.719 Y81.136 E1.87321
G1 X76.200 Y81.163 E1.90271
G1 X75.681 Y81.136 E1.93221
G1 X75.168 Y81.055 E1.96171
G1 X74.666 Y80.920 E1.99121
G1 X74.181 Y80.734 E2.02071
G1 X73.718 Y80.498 E2.05021
G1 X73.283 Y80.215 E2.07971
G1 X72.879 Y79.888 E2.10921
G1 X72.512 Y79.521 E2.13871
G1 X72.185 Y79.117 E2.16821
G1 X71.902 Y78.682 E2.19771
G1 X71.666 Y78.219 E2.22721
G1 X71.480 Y77.734 E2.25670
G1 X71.345 Y77.232 E2.28620
G1 X71.264 Y76.719 E2.31570
G1 X71.237 Y76.200 E2.34520
G1 X71.264 Y75.681 E2.37470
G1 X71.345 Y75.168 E2.40420
G1 X71.480 Y74.666 E2.43370
G1 X71.666 Y74.181 E2.46320
G1 X71.902 Y73.718 E2.49270
G1 X72.185 Y73.283 E2.52220
G1 X72.512 Y72.879 E2.55170
G1 X72.879 Y72.512 E2.58120
G1 X73.283 Y72.185 E2.61070
G1 X73.718 Y71.902 E2.64019
G1 X74.181 Y71.666 E2.66969
G1 X74.666 Y71.480 E2.69919
G1 X75.168 Y71.345 E2.72869
G1 X75.681 Y71.264 E2.75819
G1 X75.828 Y71.256 E2.76655 F900.000
G1 X75.800 Y70.722 F4800.000
G1 X76.200 Y70.701 E2.78929 F810.000
G1 X76.775 Y70.731 E2.82197
G1 X77.343 Y70.821 E2.85466 F810.000
G1 X77.899 Y70.970 E2.88735
G1 X78.437 Y71.176 E2.92003
G1 X78.950 Y71.437 E2.95272
G1 X79.432 Y71.751 E2.98541
G1 X79.880 Y72.113 E3.01810
G1 X80.287 Y72.520 E3.05078
G1 X80.649 Y72.968 E3.08347
G1 X80.963 Y73.450 E3.11616
G1 X81.224 Y73.963 E3.14885
G1 X81.430 Y74.501 E3.18153
G1 X81.579 Y75.057 E3.21422
G1 X81.669 Y75.625 E3.24691
G1 X81.699 Y76.200 E3.27960
G1 X81.669 Y76.775 E3.31228
G1 X81.579 Y77.343 E3.34497
G1 X81.430 Y77.899 E3.37766
G1 X81.224 Y78.437 E3.41034
G1 X80.963 Y78.950 E3.44303
G1 X80.649 Y79.432 E3.47572
G1 X80.287 Y79.880 E3.50841
G1 X79.880 Y80.287 E3.54109
G1 X79.432 Y80.649 E3.57378
G1 X78.950 Y80.963 E3.60647
G1 X78.437 Y81.224 E3.63915
G1 X77.899 Y81.430 E3.67184
G1 X77.343 Y81.579 E3.70453
G1 X76.775 Y81.669 E3.73722
G1 X76.200 Y81.699 E3.76990
G1 X75.625 Y81.669 E3.80259
G1 X75.057 Y81.579 E3.83528
G1 X74.501 Y81.430 E3.86797
G1 X73.963 Y81.224 E3.90065
G1 X73.450 Y80.963 E3.93334
G1 X72.968 Y80.649 E3.96603
G1 X72.520 Y80.287 E3.99871
G1 X72.113 Y79.880 E4.03140
G1 X71.751 Y79.432 E4.06409
G1 X71.437 Y78.950 E4.09678
G1 X71.176 Y78.437 E4.12946
G1 X70.970 Y77.899 E4.16215
G1 X70.821 Y77.343 E4.19484
G1 X70.731 Y76.775 E4.22752
G1 X70.701 Y76.200 E4.26021
G1 X70.731 Y75.625 E4.29290
G1 X70.821 Y75.057 E4.32559
G1 X70.970 Y74.501 E4.35827
G1 X71.176 Y73.963 E4.39096
G1 X71.437 Y73.450 E4.42365
G1 X71.751 Y72.968 E4.45634
G1 X72.113 Y72.520 E4.48902
G1 X72.520 Y72.113 E4.52171
G1 X72.967 Y71.751 E4.55440
G1 X73.450 Y71.437 E4.58708
G1 X73.963 Y71.176 E4.61977
G1 X74.501 Y70.970 E4.65246
G1 X75.057 Y70.821 E4.68515
G1 X75.740 Y70.725 E4.72435
G1 X76.944 Y71.093 F4800.000
M106 S255
M104 S190 ; set temperature
G1 F1800.000 E3.72435
G92 E0
G1 Z0.500 F4800.000
G1 X76.840 Y71.752 F4800.000
G1 E1.00000 F1800.000
G1 X77.135 Y71.799 E1.01330 F600.000
G1 X77.590 Y71.921 E1.03422
G1 X78.030 Y72.090 E1.05514
G1 X78.450 Y72.303 E1.07605
G1 X78.845 Y72.560 E1.09696
G1 X79.211 Y72.856 E1.11787
G1 X79.544 Y73.189 E1.13879
G1 X79.840 Y73.555 E1.15971
G1 X80.097 Y73.950 E1.18062
G1 X80.310 Y74.370 E1.20153
G1 X80.479 Y74.810 E1.22245
G1 X80.601 Y75.265 E1.24336
G1 X80.675 Y75.730 E1.26427
