; generated by Slic3r 1.2.0 on 2014-10-26 at 14:03:46

; external perimeters extrusion width = 0.40mm
; perimeters extrusion width = 0.67mm
; infill extrusion width = 0.67mm
; solid infill extrusion width = 0.67mm
; top infill extrusion width = 0.67mm

G21 ; set units to millimeters
M107
M104 S195 ; set temperature
G28 X0 Y0  
G29
M109 S195 ; wait for temperature to be reached
G90 ; use absolute coordinates
G92 E0
M82 ; use absolute distances for extrusion
G1 F1800.000 E-1.00000
G92 E0
G1 Z0.300 F4800.000
G1 X44.102 Y64.698 F4800.000
G1 E1.00000 F1800.000
G1 X46.210 Y63.624 E1.13436 F720.000
G1 X47.830 Y63.096 E1.23111
G1 X50.186 Y62.722 E1.36662
G1 X102.168 Y62.720 E4.31834
G1 X104.555 Y63.090 E4.45553 F720.000
G1 X106.177 Y63.616 E4.55234
G1 X108.310 Y64.702 E4.68826
G1 X109.946 Y65.894 E4.80323
G1 X111.620 Y67.567 E4.93759
G1 X112.623 Y68.945 E5.03440
G1 X113.710 Y71.078 E5.17032
G1 X114.333 Y73.004 E5.28528
G1 X114.704 Y75.341 E5.41964
G1 X114.705 Y77.046 E5.51644
G1 X114.331 Y79.410 E5.65237
G1 X113.703 Y81.335 E5.76734
G1 X112.629 Y83.443 E5.90169
G1 X111.628 Y84.824 E5.99851
G1 X109.936 Y86.516 E6.13443
G1 X108.297 Y87.705 E6.24939
G1 X106.188 Y88.779 E6.38375
G1 X104.568 Y89.307 E6.48055
G1 X102.210 Y89.682 E6.61612
G1 X50.179 Y89.676 E9.57065
G1 X47.842 Y89.306 E9.70501
G1 X46.221 Y88.781 E9.80176
G1 X44.089 Y87.695 E9.93769
G1 X42.453 Y86.504 E10.05259
G1 X40.780 Y84.831 E10.18695
G1 X39.777 Y83.453 E10.28369
G1 X38.692 Y81.327 E10.41923
G1 X38.067 Y79.403 E10.53410
G1 X37.695 Y77.052 E10.66924
G1 X37.695 Y75.348 E10.76605
G1 X38.069 Y72.990 E10.90159
G1 X38.696 Y71.066 E11.01649
G1 X39.771 Y68.958 E11.15085
G1 X40.771 Y67.579 E11.24761
G1 X42.463 Y65.886 E11.38353
G1 X44.053 Y64.734 E11.49502
G1 X44.367 Y65.167 F4800.000
G1 X46.376 Y64.133 E11.62329 F720.000
G1 X47.996 Y63.605 E11.72003
G1 X50.186 Y63.257 E11.84600
G1 X102.167 Y63.256 E14.79770
G1 X104.390 Y63.600 E14.92543 F720.000
G1 X106.012 Y64.125 E15.02223
G1 X107.994 Y65.136 E15.14859
G1 X109.631 Y66.327 E15.26356
G1 X111.186 Y67.882 E15.38845
G1 X112.190 Y69.261 E15.48526
G1 X113.200 Y71.243 E15.61161
G1 X113.824 Y73.169 E15.72657
G1 X114.168 Y75.342 E15.85147
G1 X114.169 Y77.046 E15.94827
G1 X113.821 Y79.244 E16.07463
G1 X113.194 Y81.169 E16.18960
G1 X112.195 Y83.129 E16.31450
G1 X111.195 Y84.509 E16.41131
G1 X109.621 Y86.082 E16.53766
G1 X107.982 Y87.271 E16.65262
G1 X106.022 Y88.270 E16.77752
G1 X104.402 Y88.798 E16.87432
G1 X102.210 Y89.146 E17.00034
G1 X50.180 Y89.141 E19.95485
G1 X48.007 Y88.797 E20.07975
G1 X46.386 Y88.272 E20.17650
G1 X44.404 Y87.262 E20.30285
G1 X42.768 Y86.071 E20.41776
G1 X41.213 Y84.515 E20.54265
G1 X40.210 Y83.138 E20.63940
G1 X39.202 Y81.161 E20.76539
G1 X38.577 Y79.238 E20.88026
G1 X38.230 Y77.052 E21.00589
G1 X38.230 Y75.348 E21.10270
G1 X38.579 Y73.156 E21.22869
G1 X39.206 Y71.232 E21.34359
G1 X40.204 Y69.273 E21.46849
G1 X41.205 Y67.893 E21.56526
G1 X42.778 Y66.320 E21.69160
G1 X44.319 Y65.202 E21.79969
G1 X44.633 Y65.636 F4800.000
G1 X44.730 Y65.566 E21.80650 F720.000
G1 X46.542 Y64.643 E21.92194
G1 X48.162 Y64.115 E22.01868
G1 X50.187 Y63.793 E22.13511
G1 X102.167 Y63.791 E25.08678
G1 X104.225 Y64.110 E25.20505 F720.000
G1 X105.847 Y64.635 E25.30185
G1 X107.679 Y65.569 E25.41863
G1 X109.316 Y66.760 E25.53360
G1 X110.753 Y68.198 E25.64904
G1 X111.757 Y69.576 E25.74585
G1 X112.690 Y71.408 E25.86262
G1 X113.314 Y73.334 E25.97759
G1 X113.632 Y75.342 E26.09303
G1 X113.634 Y77.047 E26.18983
G1 X113.312 Y79.078 E26.30662
G1 X112.685 Y81.003 E26.42158
G1 X111.762 Y82.814 E26.53702
G1 X110.761 Y84.195 E26.63383
G1 X109.307 Y85.649 E26.75061
G1 X107.668 Y86.837 E26.86557
G1 X105.856 Y87.760 E26.98101
G1 X104.236 Y88.289 E27.07781
G1 X102.210 Y88.610 E27.19429
G1 X50.180 Y88.605 E30.14877
G1 X48.172 Y88.287 E30.26421
G1 X46.551 Y87.762 E30.36096
G1 X44.719 Y86.828 E30.47774
G1 X43.083 Y85.638 E30.59264
G1 X41.646 Y84.200 E30.70808
G1 X40.643 Y82.823 E30.80483
G1 X39.711 Y80.996 E30.92128
G1 X39.086 Y79.072 E31.03615
G1 X38.766 Y77.052 E31.15225
G1 X38.766 Y75.348 E31.24907
G1 X39.088 Y73.322 E31.36552
G1 X39.715 Y71.398 E31.48042
G1 X40.638 Y69.587 E31.59586
G1 X41.638 Y68.208 E31.69262
G1 X43.092 Y66.753 E31.80939
G1 X44.585 Y65.671 E31.91407
G1 F1800.000 E30.91407
G92 E0
G1 X97.214 Y75.496 F4800.000
G1 E1.00000 F1800.000
G1 X97.372 Y74.707 E1.04569 F900.000
G1 X97.688 Y73.954 E1.09207
G1 X98.152 Y73.267 E1.13914
G1 X98.750 Y72.676 E1.18689
G1 X99.464 Y72.208 E1.23534
G1 X100.266 Y71.885 E1.28448
G1 X101.129 Y71.723 E1.33431
G1 X101.479 Y71.729 E1.35422
G1 X102.018 Y71.734 E1.38483 F900.000
G1 X102.900 Y71.922 E1.43604
G1 X103.740 Y72.285 E1.48795
G1 X104.501 Y72.812 E1.54054
G1 X105.153 Y73.487 E1.59383
G1 X105.487 Y74.007 E1.62895
G1 X105.674 Y74.441 E1.65577
G1 X105.872 Y75.360 E1.70915
G1 X105.887 Y76.123 E1.75248
G1 X105.886 Y76.298 E1.76245
G1 X105.721 Y77.188 E1.81383
G1 X105.386 Y78.028 E1.86518
G1 X104.898 Y78.775 E1.91584
G1 X104.282 Y79.403 E1.96580
G1 X103.565 Y79.891 E2.01507
G1 X102.777 Y80.224 E2.06365
G1 X101.950 Y80.393 E2.11154
G1 X101.119 Y80.396 E2.15874
G1 X100.316 Y80.239 E2.20524
G1 X99.570 Y79.930 E2.25105
G1 X98.910 Y79.488 E2.29617
G1 X98.358 Y78.934 E2.34060
G1 X97.933 Y78.291 E2.38434
G1 X97.799 Y77.962 E2.40455
G1 X97.668 Y77.769 E2.41777
G1 X97.364 Y77.041 E2.46256
G1 X97.213 Y76.287 E2.50620
G1 X97.214 Y75.556 E2.54774
G1 X97.750 Y75.553 F4800.000
G1 X97.887 Y74.867 E2.58743 F810.000
G1 X98.161 Y74.211 E2.62778
G1 X98.565 Y73.612 E2.66882
G1 X99.088 Y73.096 E2.71056
G1 X99.712 Y72.686 E2.75298
G1 X100.417 Y72.402 E2.79610
G1 X100.676 Y72.355 E2.81109
G1 X101.175 Y72.260 E2.83991 F810.000
G1 X101.958 Y72.269 E2.88441
G1 X102.737 Y72.435 E2.92961
G1 X103.479 Y72.756 E2.97549
G1 X104.153 Y73.222 E3.02207
G1 X104.731 Y73.821 E3.06935
G1 X105.014 Y74.261 E3.09900
G1 X105.161 Y74.600 E3.11999
G1 X105.337 Y75.416 E3.16739
G1 X105.350 Y76.242 E3.21431
G1 X105.205 Y77.035 E3.26009
G1 X104.909 Y77.776 E3.30543
G1 X104.480 Y78.435 E3.35007
G1 X103.939 Y78.988 E3.39401
G1 X103.309 Y79.417 E3.43727
G1 X102.619 Y79.709 E3.47983
G1 X101.897 Y79.857 E3.52170
G1 X101.171 Y79.860 E3.56287
G1 X100.472 Y79.723 E3.60336
G1 X99.824 Y79.456 E3.64315
G1 X99.252 Y79.073 E3.68225
G1 X98.775 Y78.593 E3.72066
G1 X98.409 Y78.039 E3.75837
G1 X98.274 Y77.708 E3.77867
G1 X98.141 Y77.512 E3.79212
G1 X97.882 Y76.894 E3.83013
G1 X97.750 Y76.238 E3.86816
G1 X97.750 Y75.613 E3.90367
G1 F1800.000 E2.90367
G92 E0
G1 X100.712 Y71.957 F4800.000
G1 X97.077 Y72.586 F4800.000
G1 E1.00000 F1800.000
G1 X96.134 Y75.480 E1.17280 F900.000
G1 X96.134 Y76.921 E1.25462
G1 X97.074 Y79.813 E1.42734
G1 X55.317 Y79.812 E3.79852
G1 X56.259 Y76.920 E3.97123
G1 X56.258 Y75.481 E4.05295
G1 X55.321 Y72.588 E4.22562
G1 X97.017 Y72.586 E6.59332
G1 X96.339 Y73.122 F4800.000
G1 X95.598 Y75.395 E6.72905 F810.000
G1 X95.598 Y77.005 E6.82052
G1 X96.337 Y79.278 E6.95619
G1 X56.055 Y79.276 E9.24360
G1 X56.795 Y77.005 E9.37926
G1 X56.793 Y75.396 E9.47061
G1 X56.057 Y73.124 E9.60625
G1 X96.279 Y73.122 E11.89023
G1 X96.730 Y73.206 F4800.000
G1 F1800.000 E10.89023
G92 E0
G1 X55.570 Y75.550 F4800.000
G1 E1.00000 F1800.000
G1 X55.571 Y76.851 E1.07391 F900.000
G1 X55.117 Y78.243 E1.15705
G1 X54.353 Y79.297 E1.23096
G1 X53.168 Y80.156 E1.31410
G1 X51.930 Y80.560 E1.38801
G1 X50.466 Y80.558 E1.47115
G1 X49.228 Y80.157 E1.54506
G1 X48.044 Y79.296 E1.62820
G1 X47.279 Y78.244 E1.70207
G1 X46.826 Y76.851 E1.78523
G1 X46.826 Y75.548 E1.85921
G1 X47.280 Y74.157 E1.94231
G1 X48.044 Y73.103 E2.01622
G1 X49.229 Y72.244 E2.09936
G1 X50.466 Y71.840 E2.17327
G1 X51.931 Y71.842 E2.25641
G1 X53.169 Y72.243 E2.33032 F900.000
G1 X54.352 Y73.104 E2.41346
G1 X55.118 Y74.157 E2.48737
G1 X55.551 Y75.493 E2.56711
G1 X55.034 Y75.634 F4800.000
G1 X55.035 Y76.766 E2.63138 F900.000
G1 X54.634 Y77.997 E2.70489
G1 X53.970 Y78.913 E2.76916
G1 X52.922 Y79.673 E2.84267
G1 X51.845 Y80.024 E2.90694
G1 X50.551 Y80.023 E2.98045
G1 X49.474 Y79.674 E3.04472
G1 X48.428 Y78.912 E3.11823
G1 X47.762 Y77.997 E3.18248
G1 X47.362 Y76.766 E3.25599
G1 X47.362 Y75.633 E3.32032
G1 X47.763 Y74.403 E3.39381
G1 X48.427 Y73.487 E3.45808
G1 X49.475 Y72.727 E3.53159
G1 X50.551 Y72.376 E3.59586 F900.000
G1 X51.846 Y72.377 E3.66937
G1 X52.922 Y72.726 E3.73364
G1 X53.969 Y73.488 E3.80715
G1 X54.635 Y74.403 E3.87142
G1 X55.016 Y75.577 E3.94152
G1 X54.499 Y75.719 F4800.000
G1 X54.499 Y76.681 E3.99616 F810.000
G1 X54.151 Y77.751 E4.06003
G1 X53.586 Y78.530 E4.11467
G1 X52.675 Y79.190 E4.17855
G1 X51.761 Y79.488 E4.23318
G1 X50.636 Y79.487 E4.29706
G1 X49.720 Y79.191 E4.35169
G1 X48.811 Y78.529 E4.41557
G1 X48.245 Y77.751 E4.47020
G1 X47.897 Y76.681 E4.53406
G1 X47.897 Y75.719 E4.58874
G1 X48.246 Y74.649 E4.65261
G1 X48.811 Y73.870 E4.70724
G1 X49.721 Y73.210 E4.77112
G1 X50.636 Y72.912 E4.82576
G1 X51.761 Y72.913 E4.88963
G1 X52.676 Y73.209 E4.94427 F810.000
G1 X53.586 Y73.871 E5.00814
G1 X54.152 Y74.649 E5.06278
G1 X54.480 Y75.662 E5.12325
G1 F1800.000 E4.12325
G92 E0
G1 X51.719 Y72.515 F4800.000
G1 X54.641 Y72.227 F4800.000
G1 E1.00000 F1800.000
G1 X55.722 Y75.566 E1.19932 F900.000
G1 X55.724 Y76.835 E1.27140
G1 X54.636 Y80.172 E1.47070
G1 X53.612 Y80.172 E1.52885
G1 X51.993 Y80.700 E1.62557
G1 X50.403 Y80.699 E1.71580
G1 X49.196 Y80.307 E1.78788
G1 X47.911 Y79.372 E1.87812
G1 X47.164 Y78.345 E1.95024
G1 X46.673 Y76.835 E2.04040
G1 X46.673 Y75.565 E2.11251
G1 X47.166 Y74.054 E2.20279
G1 X47.911 Y73.026 E2.27487
G1 X49.197 Y72.093 E2.36510
G1 X50.404 Y71.700 E2.43719
G1 X51.993 Y71.701 E2.52742
G1 X53.615 Y72.227 E2.62421
G1 X54.581 Y72.227 E2.67906
G1 F1800.000 E1.67906
G92 E0
G1 X96.678 Y75.539 F4800.000
G1 E1.00000 F1800.000
G1 X96.677 Y76.337 E1.04533 F900.000
G1 X96.847 Y77.187 E1.09457
G1 X97.196 Y78.026 E1.14615
G1 X97.324 Y78.216 E1.15915
G1 X97.457 Y78.544 E1.17927
G1 X97.941 Y79.274 E1.22902
G1 X98.568 Y79.904 E1.27947
G1 X99.159 Y80.299 E1.31985
G1 X98.781 Y80.176 E1.34244
G1 X97.755 Y80.176 E1.40067
G1 X96.670 Y76.836 E1.60012
G1 X96.670 Y75.597 E1.67044
G1 F1800.000 E0.67044
G92 E0
G1 X97.336 Y73.521 F4800.000
G1 E1.00000 F1800.000
G1 X97.758 Y72.225 E1.07742 F900.000
G1 X98.462 Y72.225 E1.11737
G1 X97.738 Y72.921 E1.17440
G1 X97.370 Y73.472 E1.21201
G1 X97.370 Y71.689 F4800.000
G1 X98.698 Y71.689 E1.28744 F900.000
G1 X98.865 Y71.635 E1.29739
G1 X100.319 Y71.161 E1.38421 F900.000
G1 X102.079 Y71.163 E1.48415
G1 X103.449 Y71.606 E1.56592
G1 X104.871 Y72.642 E1.66585
G1 X105.719 Y73.806 E1.74762
G1 X106.261 Y75.481 E1.84756
G1 X106.263 Y76.921 E1.92933
G1 X105.717 Y78.594 E2.02926
G1 X104.872 Y79.760 E2.11103
G1 X103.447 Y80.793 E2.21097
G1 X102.078 Y81.239 E2.29274
G1 X100.318 Y81.237 E2.39267
G1 X98.696 Y80.712 E2.48949
G1 X53.697 Y80.708 E5.04474
G1 X52.077 Y81.236 E5.14147
G1 X50.319 Y81.234 E5.24134
G1 X48.950 Y80.791 E5.32306
G1 X47.528 Y79.756 E5.42293
G1 X46.681 Y78.592 E5.50467
G1 X46.137 Y76.920 E5.60448
G1 X46.137 Y75.480 E5.68624
G1 X46.682 Y73.808 E5.78613
G1 X47.527 Y72.643 E5.86785
G1 X48.951 Y71.610 E5.96772
G1 X50.319 Y71.164 E6.04944
G1 X52.078 Y71.166 E6.14931
G1 X53.699 Y71.691 E6.24608
G1 X97.310 Y71.689 E8.72250
G1 X97.310 Y71.154 F4800.000
G1 X98.613 Y71.154 E8.79650 F810.000
G1 X100.234 Y70.625 E8.89329
G1 X102.160 Y70.627 E9.00267
G1 X103.695 Y71.123 E9.09426 F810.000
G1 X105.255 Y72.259 E9.20383
G1 X106.202 Y73.560 E9.29523
G1 X106.797 Y75.396 E9.40480
G1 X106.798 Y77.005 E9.49620
G1 X106.200 Y78.840 E9.60577
G1 X105.255 Y80.143 E9.69718
G1 X103.693 Y81.276 E9.80675
G1 X102.163 Y81.775 E9.89815
G1 X100.233 Y81.773 E10.00772
G1 X98.611 Y81.248 E10.10453
G1 X53.782 Y81.243 E12.65015
G1 X52.162 Y81.771 E12.74689
G1 X50.234 Y81.770 E12.85639
G1 X48.703 Y81.274 E12.94774
G1 X47.144 Y80.139 E13.05725
G1 X46.197 Y78.838 E13.14861
G1 X45.602 Y77.005 E13.25807
G1 X45.602 Y75.395 E13.34948
G1 X46.199 Y73.562 E13.45899
G1 X47.144 Y72.259 E13.55034
G1 X48.705 Y71.127 E13.65985
G1 X50.234 Y70.629 E13.75120
G1 X52.163 Y70.630 E13.86070
G1 X53.784 Y71.155 E13.95746
G1 X97.250 Y71.154 E16.42566
G1 F1800.000 E15.42566
G92 E0
G1 X102.285 Y71.007 F4800.000
G1 X102.276 Y80.744 F4800.000
G1 E1.00000 F1800.000
G1 X101.976 Y80.816 E1.00770 F540.000
G1 X101.094 Y80.817 E1.02973
G1 X100.395 Y80.750 E1.04728
G1 X100.157 Y80.687 E1.05343
G1 X99.403 Y80.409 E1.07350
G1 F1800.000 E0.07350
G92 E0
G1 X96.739 Y75.277 F4800.000
G1 E1.00000 F1800.000
G1 X96.931 Y74.547 E1.01886 F540.000
G1 X97.222 Y73.764 E1.03973
G1 X97.505 Y72.138 F4800.000
G1 X54.894 Y72.140 E2.10414 F540.000
G1 F1800.000 E1.10414
G92 E0
G1 X54.889 Y80.260 F4800.000
G1 E1.00000 F1800.000
G1 X97.502 Y80.263 E2.06444 F540.000
M106 S255
M104 S190 ; set temperature
G1 F1800.000 E1.06444
G92 E0
G1 Z0.500 F4800.000
G1 X98.529 Y78.972 F4800.000
G1 E1.00000 F1800.000
G1 X97.983 Y78.426 E1.03430 F2442.399
G1 X97.563 Y77.796 E1.06792
G1 X97.257 Y77.051 E1.10370
G1 X97.107 Y76.274 E1.13883
G1 X97.111 Y75.462 E1.17489
G1 X97.279 Y74.654 E1.21153
G1 X97.606 Y73.884 E1.24871
G1 X98.085 Y73.182 E1.28643
G1 X98.702 Y72.580 E1.32469
G1 X99.434 Y72.105 E1.36349
G1 X100.258 Y71.777 E1.40283
G1 X101.141 Y71.616 E1.44271
G1 X101.923 Y71.631 E1.47746
G1 X102.051 Y71.632 E1.48313 F2442.399
G1 X102.632 Y71.758 E1.50955
G1 X102.971 Y71.891 E1.52567
G1 X103.046 Y71.923 E1.52931
G1 X103.820 Y72.422 E1.57021
G1 X104.452 Y73.036 E1.60936
G1 X104.961 Y73.775 E1.64918
G1 X105.306 Y74.579 E1.68805
G1 X105.484 Y75.424 E1.72638
G1 X105.495 Y75.986 E1.75135
G1 X105.493 Y76.283 E1.76457
G1 X105.338 Y77.098 E1.80141
G1 X105.027 Y77.865 E1.83814
G1 X104.579 Y78.545 E1.87434
G1 X104.014 Y79.116 E1.90999
G1 X103.358 Y79.557 E1.94510
G1 X102.639 Y79.856 E1.97967
G1 X101.887 Y80.005 E2.01370
G1 X101.133 Y80.003 E2.04718
G1 X100.406 Y79.856 E2.08013
G1 X100.076 Y79.717 E2.09603
G1 X99.828 Y79.667 E2.10726
G1 X99.162 Y79.393 E2.13926
G1 X98.578 Y79.007 E2.17033
G1 X98.860 Y78.602 F4800.000
G1 X98.372 Y78.119 E2.20084 F2198.159
G1 X97.998 Y77.559 E2.23073
G1 X97.734 Y76.916 E2.26162
G1 X97.600 Y76.229 E2.29272
G1 X97.604 Y75.514 E2.32447
G1 X97.752 Y74.801 E2.35677
G1 X98.041 Y74.121 E2.38961
G1 X98.465 Y73.500 E2.42299
G1 X99.012 Y72.966 E2.45692
G1 X99.663 Y72.544 E2.49139
G1 X100.396 Y72.253 E2.52640
G1 X101.030 Y72.139 E2.55501
G1 X101.183 Y72.110 E2.56195 F2198.159
G1 X101.996 Y72.124 E2.59804
G1 X102.489 Y72.231 E2.62046
G1 X102.785 Y72.347 E2.63454
G1 X103.503 Y72.803 E2.67231
G1 X104.076 Y73.357 E2.70773
G1 X104.526 Y74.010 E2.74295
G1 X104.834 Y74.725 E2.77752
G1 X104.954 Y75.273 E2.80241
G1 X104.992 Y75.475 E2.81154
G1 X105.000 Y76.231 E2.84514
G1 X104.863 Y76.957 E2.87796
G1 X104.589 Y77.634 E2.91036
G1 X104.194 Y78.233 E2.94223
G1 X103.698 Y78.734 E2.97355
G1 X103.122 Y79.121 E3.00433
G1 X102.494 Y79.382 E3.03457
G1 X101.838 Y79.512 E3.06427
G1 X101.181 Y79.510 E3.09343
G1 X100.550 Y79.382 E3.12204
G1 X100.219 Y79.243 E3.13795
G1 X99.981 Y79.196 E3.14875
G1 X99.392 Y78.955 E3.17701
G1 X98.909 Y78.637 E3.20268
G1 F1800.000 E2.20268
G92 E0
G1 X101.022 Y71.983 F4800.000
G1 X96.880 Y72.729 F4800.000
G1 E1.00000 F1800.000
G1 X95.991 Y75.457 E1.12740 F2442.399
G1 X95.991 Y76.943 E1.19340
G1 X96.877 Y79.671 E1.32075
G1 X55.514 Y79.669 E3.15764
G1 X56.402 Y76.943 E3.28497
G1 X56.401 Y75.458 E3.35089
G1 X55.517 Y72.731 E3.47820
G1 X96.820 Y72.729 E5.31238
G1 X96.201 Y73.222 F4800.000
G1 X95.498 Y75.379 E5.41312 F2198.159
G1 X95.498 Y77.021 E5.48605
G1 X96.199 Y79.178 E5.58675
G1 X56.192 Y79.176 E7.36338
G1 X56.895 Y77.021 E7.46406
G1 X56.893 Y75.380 E7.53691
G1 X56.195 Y73.224 E7.63758
G1 X96.141 Y73.222 E9.41153
G1 X96.593 Y73.306 F4800.000
G1 F1800.000 E8.41153
G92 E0
G1 X55.519 Y75.558 F4800.000
G1 E1.00000 F1800.000
G1 X55.521 Y76.843 E1.05709 F2442.399
G1 X55.072 Y78.220 E1.12140
G1 X54.317 Y79.261 E1.17849
G1 X53.881 Y79.577 E1.20241
G1 X53.881 Y79.871 E1.21546
G1 X51.922 Y80.510 E1.30696
G1 X50.474 Y80.508 E1.37127
G1 X49.251 Y80.112 E1.42837
G1 X48.080 Y79.260 E1.49268
G1 X47.324 Y78.221 E1.54974
G1 X46.876 Y76.843 E1.61407
G1 X46.876 Y75.556 E1.67122
G1 X47.325 Y74.180 E1.73551
G1 X48.079 Y73.139 E1.79260
G1 X49.252 Y72.289 E1.85691
