; generated by Slic3r 1.2.0 on 2014-10-25 at 17:24:22

; external perimeters extrusion width = 0.40mm
; perimeters extrusion width = 0.67mm
; infill extrusion width = 0.67mm
; solid infill extrusion width = 0.67mm
; top infill extrusion width = 0.67mm

G21 ; set units to millimeters
M107
M104 S195 ; set temperature
G28 X0 Y0  
G29
M109 S195 ; wait for temperature to be reached
G90 ; use absolute coordinates
G92 E0
M82 ; use absolute distances for extrusion
G1 F1800.000 E-1.00000
G92 E0
G1 Z0.300 F4800.000
G1 X46.369 Y47.284 F4800.000
G1 E1.00000 F1800.000
G1 X48.669 Y45.029 E1.18290 F720.000
G1 X52.078 Y42.322 E1.43009
G1 X55.751 Y39.986 E1.67728
G1 X59.649 Y38.047 E1.92447
G1 X63.727 Y36.526 E2.17166
G1 X67.943 Y35.440 E2.41885
G1 X72.249 Y34.800 E2.66604
G1 X76.687 Y34.618 E2.91827
G1 X80.943 Y34.883 E3.16041 F720.000
G1 X85.236 Y35.605 E3.40760
G1 X89.430 Y36.772 E3.65480
G1 X93.478 Y38.371 E3.90198
G1 X97.413 Y40.433 E4.15421
G1 X100.966 Y42.790 E4.39634
G1 X104.323 Y45.562 E4.64354
G1 X107.427 Y48.738 E4.89576
G1 X110.078 Y52.078 E5.13789
G1 X112.414 Y55.752 E5.38509
G1 X114.385 Y59.732 E5.63731
G1 X115.874 Y63.728 E5.87945
G1 X116.960 Y67.943 E6.12664
G1 X117.600 Y72.249 E6.37383
G1 X117.786 Y76.598 E6.62102
G1 X117.517 Y80.943 E6.86820
G1 X116.795 Y85.236 E7.11540
G1 X115.628 Y89.430 E7.36259
G1 X113.989 Y93.558 E7.61481
G1 X112.016 Y97.338 E7.85695
G1 X109.610 Y100.966 E8.10414
G1 X106.838 Y104.323 E8.35133
G1 X103.731 Y107.371 E8.59852
G1 X100.247 Y110.127 E8.85074
G1 X96.648 Y112.414 E9.09288
G1 X92.751 Y114.353 E9.34007
G1 X88.672 Y115.874 E9.58726
G1 X84.457 Y116.960 E9.83445
G1 X80.151 Y117.600 E10.08164
G1 X75.802 Y117.786 E10.32883
G1 X71.457 Y117.517 E10.57602
G1 X67.164 Y116.795 E10.82322
G1 X62.971 Y115.628 E11.07041
G1 X58.922 Y114.029 E11.31760
G1 X55.062 Y112.016 E11.56479
G1 X51.434 Y109.610 E11.81198
G1 X48.015 Y106.776 E12.06420
G1 X45.029 Y103.731 E12.30634
G1 X42.322 Y100.322 E12.55353
G1 X39.986 Y96.649 E12.80072
G1 X38.047 Y92.751 E13.04790
G1 X36.503 Y88.586 E13.30013
G1 X35.440 Y84.457 E13.54226
G1 X34.800 Y80.151 E13.78945
G1 X34.614 Y75.802 E14.03664
G1 X34.883 Y71.457 E14.28384
G1 X35.628 Y67.078 E14.53606
G1 X36.772 Y62.971 E14.77819
G1 X38.371 Y58.922 E15.02539
G1 X40.384 Y55.062 E15.27258
G1 X42.790 Y51.434 E15.51977
G1 X45.562 Y48.078 E15.76696
G1 X46.326 Y47.326 E15.82784
G1 X46.701 Y47.708 F4800.000
G1 X49.006 Y45.445 E16.01125 F720.000
G1 X52.370 Y42.771 E16.25526
G1 X55.995 Y40.463 E16.49927
G1 X59.841 Y38.547 E16.74328
G1 X63.866 Y37.043 E16.98729
G1 X68.027 Y35.969 E17.23129
G1 X72.277 Y35.335 E17.47530
G1 X76.659 Y35.153 E17.72436
G1 X80.859 Y35.412 E17.96332 F720.000
G1 X85.097 Y36.122 E18.20733
G1 X89.238 Y37.272 E18.45134
G1 X93.235 Y38.848 E18.69534
G1 X97.121 Y40.882 E18.94439
G1 X100.629 Y43.206 E19.18334
G1 X103.944 Y45.940 E19.42736
G1 X107.011 Y49.075 E19.67640
G1 X109.629 Y52.370 E19.91535
G1 X111.937 Y55.995 E20.15937
G1 X113.885 Y59.924 E20.40840
G1 X115.357 Y63.866 E20.64736
G1 X116.431 Y68.027 E20.89137
G1 X117.065 Y72.277 E21.13538
G1 X117.252 Y76.570 E21.37939
G1 X116.988 Y80.859 E21.62339
G1 X116.278 Y85.097 E21.86741
G1 X115.128 Y89.238 E22.11142
G1 X113.512 Y93.315 E22.36046
G1 X111.567 Y97.046 E22.59942
G1 X109.194 Y100.629 E22.84343
G1 X106.460 Y103.944 E23.08744
G1 X103.394 Y106.955 E23.33145
G1 X99.956 Y109.677 E23.58049
G1 X96.405 Y111.937 E23.81945
G1 X92.559 Y113.853 E24.06346
G1 X88.534 Y115.357 E24.30747
G1 X84.373 Y116.431 E24.55148
G1 X80.123 Y117.065 E24.79549
G1 X75.830 Y117.252 E25.03950
G1 X71.541 Y116.988 E25.28350
G1 X67.303 Y116.278 E25.52752
G1 X63.162 Y115.128 E25.77153
G1 X59.165 Y113.552 E26.01554
G1 X55.354 Y111.567 E26.25955
G1 X51.771 Y109.194 E26.50356
G1 X48.456 Y106.460 E26.74756
G1 X45.445 Y103.394 E26.99158
G1 X42.771 Y100.030 E27.23559
G1 X40.463 Y96.405 E27.47960
G1 X38.547 Y92.559 E27.72360
G1 X37.020 Y88.448 E27.97265
G1 X35.969 Y84.373 E28.21160
G1 X35.335 Y80.123 E28.45561
G1 X35.148 Y75.830 E28.69962
G1 X35.412 Y71.541 E28.94363
G1 X36.145 Y67.217 E29.19267
G1 X37.272 Y63.163 E29.43163
G1 X38.848 Y59.165 E29.67564
G1 X40.833 Y55.354 E29.91965
G1 X43.206 Y51.771 E30.16366
G1 X45.940 Y48.456 E30.40767
G1 X46.658 Y47.750 E30.46487
G1 X47.034 Y48.132 F4800.000
G1 X49.343 Y45.861 E30.64876 F720.000
G1 X52.661 Y43.220 E30.88959
G1 X56.238 Y40.941 E31.13042
G1 X60.033 Y39.047 E31.37125
G1 X64.005 Y37.561 E31.61208
G1 X68.110 Y36.498 E31.85290
G1 X72.305 Y35.870 E32.09373
G1 X76.631 Y35.688 E32.33961
G1 X80.775 Y35.941 E32.57538 F720.000
G1 X84.958 Y36.640 E32.81621
G1 X89.046 Y37.772 E33.05705
G1 X92.992 Y39.325 E33.29787
G1 X96.829 Y41.331 E33.54373
G1 X100.292 Y43.622 E33.77951
G1 X103.565 Y46.319 E34.02034
G1 X106.595 Y49.412 E34.26620
G1 X109.180 Y52.662 E34.50198
G1 X111.459 Y56.238 E34.74281
G1 X113.385 Y60.116 E34.98867
G1 X114.839 Y64.005 E35.22445
G1 X115.902 Y68.111 E35.46527
G1 X116.530 Y72.305 E35.70610
G1 X116.717 Y76.542 E35.94693
G1 X116.459 Y80.775 E36.18775
G1 X115.760 Y84.958 E36.42859
G1 X114.628 Y89.046 E36.66942
G1 X113.034 Y93.071 E36.91528
G1 X111.117 Y96.755 E37.15106
G1 X108.778 Y100.292 E37.39189
G1 X106.081 Y103.565 E37.63272
G1 X103.057 Y106.539 E37.87355
G1 X99.664 Y109.228 E38.11940
G1 X96.162 Y111.459 E38.35518
G1 X92.367 Y113.353 E38.59601
G1 X88.395 Y114.839 E38.83684
G1 X84.289 Y115.902 E39.07767
G1 X80.095 Y116.530 E39.31850
G1 X75.858 Y116.717 E39.55933
G1 X71.625 Y116.459 E39.80016
G1 X67.442 Y115.760 E40.04099
G1 X63.354 Y114.628 E40.28182
G1 X59.408 Y113.075 E40.52265
G1 X55.646 Y111.117 E40.76348
G1 X52.108 Y108.778 E41.00431
G1 X48.835 Y106.081 E41.24513
G1 X45.861 Y103.057 E41.48597
G1 X43.220 Y99.738 E41.72679
G1 X40.941 Y96.162 E41.96762
G1 X39.047 Y92.367 E42.20845
G1 X37.538 Y88.309 E42.45431
G1 X36.498 Y84.289 E42.69009
G1 X35.870 Y80.095 E42.93091
G1 X35.683 Y75.858 E43.17174
G1 X35.941 Y71.625 E43.41258
G1 X36.663 Y67.356 E43.65843
G1 X37.772 Y63.355 E43.89421
G1 X39.325 Y59.408 E44.13504
G1 X41.282 Y55.646 E44.37587
G1 X43.622 Y52.108 E44.61670
G1 X46.319 Y48.835 E44.85753
G1 X46.991 Y48.174 E44.91106
G1 F1800.000 E43.91106
G92 E0
G1 X51.982 Y53.165 F4800.000
G1 E1.00000 F1800.000
G1 X53.812 Y51.336 E1.14692 F900.000
G1 X56.534 Y49.132 E1.34579
G1 X59.471 Y47.224 E1.54466
G1 X62.591 Y45.634 E1.74353
G1 X65.861 Y44.379 E1.94239
G1 X69.243 Y43.473 E2.14126
G1 X72.702 Y42.925 E2.34013
G1 X76.200 Y42.742 E2.53901
G1 X77.602 Y42.815 E2.61873
G1 X79.697 Y42.925 E2.73788 F900.000
G1 X83.156 Y43.473 E2.93675
G1 X86.539 Y44.379 E3.13561
G1 X89.809 Y45.634 E3.33448
G1 X92.929 Y47.224 E3.53335
G1 X95.866 Y49.132 E3.73222
G1 X98.588 Y51.336 E3.93109
G1 X101.064 Y53.812 E4.12996
G1 X103.268 Y56.534 E4.32882
G1 X105.176 Y59.471 E4.52769
G1 X106.766 Y62.591 E4.72656
G1 X108.021 Y65.861 E4.92543
G1 X108.927 Y69.244 E5.12430
G1 X109.475 Y72.703 E5.32317
G1 X109.658 Y76.200 E5.52204
G1 X109.475 Y79.697 E5.72090
G1 X108.927 Y83.156 E5.91977
G1 X108.021 Y86.539 E6.11864
G1 X106.766 Y89.809 E6.31751
G1 X105.176 Y92.929 E6.51638
G1 X103.268 Y95.866 E6.71525
G1 X101.064 Y98.588 E6.91411
G1 X98.588 Y101.064 E7.11298
G1 X95.866 Y103.268 E7.31185
G1 X92.929 Y105.176 E7.51072
G1 X89.809 Y106.766 E7.70959
G1 X86.539 Y108.021 E7.90846
G1 X83.156 Y108.927 E8.10732
G1 X79.697 Y109.475 E8.30619
G1 X76.200 Y109.658 E8.50506
G1 X72.703 Y109.475 E8.70393
G1 X69.244 Y108.927 E8.90280
G1 X65.861 Y108.021 E9.10167
G1 X62.591 Y106.766 E9.30053
G1 X59.471 Y105.176 E9.49940
G1 X56.534 Y103.268 E9.69827
G1 X53.812 Y101.064 E9.89714
G1 X51.336 Y98.588 E10.09601
G1 X49.132 Y95.866 E10.29487
G1 X47.224 Y92.929 E10.49374
G1 X45.634 Y89.809 E10.69261
G1 X44.379 Y86.539 E10.89148
G1 X43.473 Y83.156 E11.09035
G1 X42.925 Y79.697 E11.28922
G1 X42.742 Y76.200 E11.48808
G1 X42.925 Y72.703 E11.68695
G1 X43.473 Y69.244 E11.88582
G1 X44.379 Y65.861 E12.08469
G1 X45.634 Y62.591 E12.28356
G1 X47.224 Y59.471 E12.48243
G1 X49.132 Y56.534 E12.68129
G1 X51.335 Y53.812 E12.88016
G1 X51.940 Y53.208 E12.92870
G1 X53.115 Y54.383 F4800.000
G1 X54.925 Y52.572 E13.07409 F900.000
G1 X57.512 Y50.478 E13.26306
G1 X60.303 Y48.665 E13.45204
G1 X63.268 Y47.154 E13.64102
G1 X66.375 Y45.962 E13.83000
G1 X69.589 Y45.100 E14.01897
G1 X72.876 Y44.580 E14.20795
G1 X74.209 Y44.510 E14.28372
G1 X76.200 Y44.406 E14.39694 F900.000
G1 X79.523 Y44.580 E14.58592
G1 X82.810 Y45.100 E14.77489
G1 X86.025 Y45.962 E14.96387
G1 X89.132 Y47.154 E15.15285
G1 X92.097 Y48.665 E15.34183
G1 X94.888 Y50.478 E15.53080
G1 X97.475 Y52.572 E15.71978
G1 X99.828 Y54.925 E15.90876
G1 X101.922 Y57.512 E16.09774
G1 X103.735 Y60.303 E16.28672
G1 X105.246 Y63.268 E16.47569
G1 X106.438 Y66.375 E16.66467
G1 X107.300 Y69.590 E16.85365
G1 X107.820 Y72.877 E17.04263
G1 X107.994 Y76.200 E17.23161
G1 X107.820 Y79.523 E17.42058
G1 X107.300 Y82.810 E17.60956
G1 X106.438 Y86.025 E17.79854
G1 X105.246 Y89.132 E17.98752
G1 X103.735 Y92.097 E18.17650
G1 X101.922 Y94.888 E18.36547
G1 X99.828 Y97.475 E18.55445
G1 X97.475 Y99.828 E18.74343
G1 X94.888 Y101.922 E18.93241
G1 X92.097 Y103.735 E19.12138
G1 X89.132 Y105.246 E19.31036
G1 X86.025 Y106.438 E19.49934
G1 X84.736 Y106.784 E19.57511
G1 X82.810 Y107.300 E19.68832
G1 X79.523 Y107.820 E19.87730
G1 X76.200 Y107.994 E20.06627
G1 X72.877 Y107.820 E20.25525
G1 X69.590 Y107.300 E20.44423
G1 X66.375 Y106.438 E20.63321
G1 X63.268 Y105.246 E20.82218
G1 X60.303 Y103.735 E21.01116
G1 X57.512 Y101.922 E21.20014
G1 X54.925 Y99.828 E21.38912
G1 X52.572 Y97.475 E21.57809
G1 X50.478 Y94.888 E21.76707
G1 X48.665 Y92.097 E21.95605
G1 X47.154 Y89.132 E22.14503
G1 X45.962 Y86.025 E22.33401
G1 X45.100 Y82.811 E22.52298
G1 X44.580 Y79.524 E22.71196
G1 X44.510 Y78.191 E22.78773
G1 X44.406 Y76.200 E22.90094
G1 X44.580 Y72.877 E23.08992
G1 X45.100 Y69.590 E23.27889
G1 X45.962 Y66.375 E23.46787
G1 X47.154 Y63.268 E23.65685
G1 X48.665 Y60.303 E23.84583
G1 X50.478 Y57.512 E24.03481
G1 X52.572 Y54.925 E24.22378
G1 X53.073 Y54.425 E24.26397
G1 X54.248 Y55.600 F4800.000
G1 X56.039 Y53.809 E24.40782 F900.000
G1 X58.490 Y51.824 E24.58690
G1 X61.135 Y50.106 E24.76599
G1 X63.945 Y48.675 E24.94508
G1 X66.889 Y47.544 E25.12416
G1 X69.935 Y46.728 E25.30325
G1 X73.050 Y46.235 E25.48234
G1 X76.200 Y46.070 E25.66143
G1 X77.463 Y46.136 E25.73325
G1 X79.349 Y46.235 E25.84052 F900.000
G1 X82.464 Y46.728 E26.01961
G1 X85.511 Y47.544 E26.19870
G1 X88.455 Y48.675 E26.37778
G1 X91.265 Y50.106 E26.55687
G1 X92.326 Y50.795 E26.62868
G1 X93.910 Y51.824 E26.73596
G1 X96.361 Y53.809 E26.91505
G1 X98.591 Y56.039 E27.09413
G1 X100.576 Y58.490 E27.27322
G1 X102.294 Y61.135 E27.45231
G1 X103.725 Y63.945 E27.63139
G1 X104.856 Y66.889 E27.81048
G1 X105.672 Y69.936 E27.98957
G1 X106.165 Y73.051 E28.16866
G1 X106.330 Y76.200 E28.34774
G1 X106.165 Y79.349 E28.52683
G1 X105.672 Y82.464 E28.70592
G1 X104.856 Y85.511 E28.88501
G1 X103.725 Y88.455 E29.06409
G1 X102.294 Y91.265 E29.24318
G1 X100.576 Y93.910 E29.42227
G1 X98.591 Y96.361 E29.60136
G1 X96.361 Y98.591 E29.78044
G1 X93.910 Y100.576 E29.95953
G1 X91.265 Y102.294 E30.13862
G1 X88.455 Y103.725 E30.31770
G1 X85.511 Y104.856 E30.49679
G1 X82.464 Y105.672 E30.67588
G1 X79.350 Y106.165 E30.85497
G1 X76.200 Y106.330 E31.03405
G1 X74.890 Y106.262 E31.10856
G1 X73.051 Y106.165 E31.21314
G1 X69.936 Y105.672 E31.39223
G1 X66.889 Y104.856 E31.57131
G1 X63.945 Y103.725 E31.75040
G1 X61.135 Y102.294 E31.92949
G1 X58.490 Y100.576 E32.10858
G1 X56.039 Y98.591 E32.28766
G1 X53.809 Y96.361 E32.46675
G1 X51.824 Y93.910 E32.64584
G1 X50.106 Y91.265 E32.82492
G1 X48.675 Y88.455 E33.00401
G1 X47.544 Y85.511 E33.18310
G1 X46.728 Y82.465 E33.36219
G1 X46.235 Y79.350 E33.54127
G1 X46.169 Y78.087 E33.61309
G1 X46.070 Y76.200 E33.72036
G1 X46.235 Y73.051 E33.89945
G1 X46.728 Y69.936 E34.07853
G1 X47.055 Y68.714 E34.15035
G1 X47.544 Y66.889 E34.25762
G1 X48.675 Y63.945 E34.43671
G1 X50.106 Y61.135 E34.61580
G1 X51.824 Y58.490 E34.79488
G1 X53.809 Y56.039 E34.97397
G1 X54.205 Y55.643 E35.00581
G1 X55.380 Y56.818 F4800.000
G1 X57.152 Y55.045 E35.14811 F900.000
G1 X59.468 Y53.170 E35.31731
G1 X61.967 Y51.547 E35.48651
G1 X64.622 Y50.195 E35.65570
G1 X67.403 Y49.127 E35.82490
G1 X70.281 Y48.356 E35.99410
G1 X73.224 Y47.890 E36.16329
G1 X74.418 Y47.827 E36.23115
G1 X76.200 Y47.734 E36.33250 F900.000
G1 X79.176 Y47.890 E36.50169
G1 X82.118 Y48.356 E36.67089
G1 X84.997 Y49.127 E36.84009
G1 X87.778 Y50.195 E37.00928
G1 X90.433 Y51.547 E37.17848
G1 X92.932 Y53.170 E37.34768
G1 X95.248 Y55.045 E37.51687
G1 X97.355 Y57.152 E37.68607
G1 X99.230 Y59.468 E37.85527
G1 X99.881 Y60.470 E37.92313
G1 X100.853 Y61.967 E38.02446
G1 X102.205 Y64.622 E38.19366
G1 X103.273 Y67.403 E38.36286
G1 X104.044 Y70.282 E38.53206
G1 X104.510 Y73.224 E38.70125
G1 X104.666 Y76.200 E38.87045
G1 X104.510 Y79.176 E39.03965
G1 X104.044 Y82.118 E39.20884
G1 X103.273 Y84.997 E39.37804
G1 X102.205 Y87.778 E39.54724
G1 X100.853 Y90.433 E39.71643
G1 X99.230 Y92.932 E39.88563
G1 X97.355 Y95.248 E40.05483
G1 X95.248 Y97.355 E40.22402
G1 X92.932 Y99.230 E40.39322
G1 X90.433 Y100.853 E40.56242
G1 X87.778 Y102.205 E40.73161
G1 X84.997 Y103.273 E40.90081
G1 X82.119 Y104.044 E41.07001
G1 X79.176 Y104.510 E41.23920
G1 X76.200 Y104.666 E41.40840
G1 X73.224 Y104.510 E41.57760
G1 X70.282 Y104.044 E41.74679
G1 X67.403 Y103.273 E41.91599
G1 X64.622 Y102.205 E42.08519
G1 X61.967 Y100.853 E42.25438
G1 X60.965 Y100.202 E42.32224
G1 X59.468 Y99.230 E42.42358
G1 X57.152 Y97.355 E42.59278
G1 X55.045 Y95.248 E42.76197
G1 X53.170 Y92.932 E42.93117
G1 X51.547 Y90.433 E43.10037
G1 X50.195 Y87.778 E43.26956
G1 X49.127 Y84.997 E43.43876
G1 X48.356 Y82.119 E43.60796
G1 X47.890 Y79.176 E43.77715
G1 X47.734 Y76.200 E43.94635
G1 X47.890 Y73.225 E44.11555
G1 X48.356 Y70.282 E44.28474
G1 X49.127 Y67.404 E44.45394
G1 X50.195 Y64.622 E44.62314
G1 X51.547 Y61.967 E44.79233
G1 X53.170 Y59.468 E44.96153
G1 X55.045 Y57.152 E45.13073
G1 X55.338 Y56.860 E45.15421
G1 X56.513 Y58.035 F4800.000
G1 X58.266 Y56.282 E45.29498 F900.000
G1 X60.446 Y54.517 E45.45428
G1 X62.799 Y52.989 E45.61359
G1 X65.298 Y51.715 E45.77290
G1 X67.918 Y50.710 E45.93220
G1 X70.627 Y49.983 E46.09151
G1 X73.398 Y49.545 E46.25081
G1 X76.200 Y49.398 E46.41013
G1 X79.002 Y49.545 E46.56943
G1 X81.773 Y49.983 E46.72874 F900.000
G1 X84.482 Y50.709 E46.88805
G1 X87.101 Y51.715 E47.04735
G1 X89.601 Y52.989 E47.20666
G1 X91.954 Y54.516 E47.36596
G1 X94.134 Y56.282 E47.52527
G1 X94.930 Y57.078 E47.58917
G1 X96.118 Y58.266 E47.68458
G1 X97.884 Y60.446 E47.84388
G1 X99.411 Y62.799 E48.00319
G1 X100.685 Y65.299 E48.16249
G1 X101.691 Y67.918 E48.32180
G1 X102.417 Y70.627 E48.48111
G1 X102.855 Y73.398 E48.64041
G1 X103.002 Y76.200 E48.79972
G1 X102.946 Y77.271 E48.86064
G1 X102.855 Y79.002 E48.95903
G1 X102.417 Y81.773 E49.11833
G1 X101.691 Y84.482 E49.27764
G1 X100.685 Y87.101 E49.43695
G1 X99.411 Y89.601 E49.59625
G1 X97.884 Y91.954 E49.75556
G1 X96.118 Y94.134 E49.91486
G1 X94.134 Y96.118 E50.07417
G1 X91.954 Y97.884 E50.23348
G1 X89.601 Y99.411 E50.39278
G1 X87.101 Y100.685 E50.55209
G1 X84.482 Y101.691 E50.71139
G1 X81.773 Y102.417 E50.87070
G1 X79.002 Y102.855 E51.03001
G1 X76.200 Y103.002 E51.18931
G1 X73.398 Y102.855 E51.34862
G1 X70.628 Y102.417 E51.50792
G1 X67.918 Y101.691 E51.66723
G1 X65.299 Y100.685 E51.82654
G1 X62.799 Y99.412 E51.98584
G1 X60.446 Y97.884 E52.14515
G1 X58.266 Y96.118 E52.30446
G1 X56.282 Y94.134 E52.46376
G1 X55.574 Y93.260 E52.52766
G1 X54.517 Y91.954 E52.62307
G1 X52.989 Y89.601 E52.78237
G1 X51.715 Y87.102 E52.94168
G1 X50.710 Y84.482 E53.10099
G1 X49.983 Y81.773 E53.26029
G1 X49.545 Y79.002 E53.41960
G1 X49.486 Y77.878 E53.48350
G1 X49.398 Y76.200 E53.57890
G1 X49.545 Y73.398 E53.73821
G1 X49.983 Y70.628 E53.89752
G1 X50.709 Y67.918 E54.05682
G1 X51.715 Y65.299 E54.21613
G1 X52.988 Y62.799 E54.37543
G1 X54.516 Y60.446 E54.53474
G1 X56.282 Y58.266 E54.69405
G1 X56.470 Y58.077 E54.70918
G1 X57.645 Y59.252 F4800.000
G1 X59.379 Y57.519 E54.84841 F900.000
G1 X61.424 Y55.863 E54.99782
G1 X63.631 Y54.430 E55.14724
G1 X65.975 Y53.235 E55.29666
G1 X68.432 Y52.292 E55.44607
G1 X70.973 Y51.611 E55.59549
G1 X73.572 Y51.199 E55.74490
