; generated by Slic3r 1.2.0 on 2014-10-23 at 23:23:28

; external perimeters extrusion width = 0.40mm
; perimeters extrusion width = 0.67mm
; infill extrusion width = 0.67mm
; solid infill extrusion width = 0.67mm
; top infill extrusion width = 0.67mm

G21 ; set units to millimeters
M107
M104 S195 ; set temperature
G28 X0 Y0  
G29
M109 S195 ; wait for temperature to be reached
G90 ; use absolute coordinates
G92 E0
M82 ; use absolute distances for extrusion
G1 F1800.000 E-1.00000
G92 E0
G1 Z0.300 F4800.000
G1 X47.787 Y41.438 F4800.000
G1 E1.00000 F1800.000
G1 X47.894 Y41.314 E1.00984 F720.000
G1 X50.013 Y40.067 E1.15768
G1 X52.748 Y39.554 E1.32500
G1 X53.851 Y39.558 E1.39131
G1 X101.691 Y41.302 E4.26960 F720.000
G1 X104.102 Y41.788 E4.41743
G1 X106.231 Y43.017 E4.56526
G1 X107.554 Y44.414 E4.68093
G1 X108.745 Y46.047 E4.80246
G1 X109.685 Y47.416 E4.90232
G1 X111.015 Y49.582 E5.05515
G1 X112.009 Y51.434 E5.18149
G1 X112.904 Y53.335 E5.30784
G1 X113.626 Y55.083 E5.42156
G1 X114.224 Y56.635 E5.52153
G1 X114.510 Y57.516 E5.57726
G1 X114.746 Y58.756 E5.65313
G1 X114.776 Y59.047 E5.67072
G1 X114.776 Y60.637 E5.76635
G1 X114.746 Y60.928 E5.78393
G1 X114.415 Y62.484 E5.87954
G1 X114.325 Y62.762 E5.89713
G1 X113.678 Y64.215 E5.99276
G1 X113.395 Y64.696 E6.02630
G1 X85.541 Y109.272 E9.18662
G1 X83.918 Y111.119 E9.33445
G1 X81.791 Y112.352 E9.48229
G1 X79.090 Y112.847 E9.64739
G1 X73.310 Y112.847 E9.99493
G1 X70.883 Y112.450 E10.14276
G1 X68.711 Y111.300 E10.29059
G1 X66.859 Y109.272 E10.45571
G1 X38.722 Y64.214 E13.64962
G1 X38.075 Y62.762 E13.74518
G1 X37.985 Y62.484 E13.76278
G1 X37.654 Y60.928 E13.85839
G1 X37.624 Y60.637 E13.87598
G1 X37.624 Y59.047 E13.97159
G1 X37.654 Y58.756 E13.98921
G1 X37.985 Y57.200 E14.08480
G1 X38.076 Y56.922 E14.10244
G1 X38.722 Y55.470 E14.19799
G1 X38.979 Y55.031 E14.22859
G1 X46.283 Y43.171 E15.06600
G1 X47.747 Y41.483 E15.20038
G1 X48.154 Y41.840 F4800.000
G1 X48.303 Y41.671 E15.21390 F720.000
G1 X50.367 Y40.507 E15.35639
G1 X52.749 Y40.089 E15.50181
G1 X53.832 Y40.093 E15.56690
G1 X101.672 Y41.838 E18.44518 F720.000
G1 X103.992 Y42.320 E18.58768
G1 X106.023 Y43.541 E18.73018
G1 X107.122 Y44.730 E18.82749
G1 X108.303 Y46.351 E18.94808
G1 X109.244 Y47.719 E19.04793
G1 X110.545 Y49.838 E19.19739
G1 X111.525 Y51.664 E19.32205
G1 X112.409 Y53.540 E19.44671
G1 X113.126 Y55.276 E19.55964
G1 X113.724 Y56.827 E19.65960
G1 X113.955 Y57.519 E19.70342
G1 X114.213 Y58.812 E19.78272
G1 X114.244 Y59.103 E19.80031
G1 X114.244 Y60.581 E19.88920
G1 X114.213 Y60.872 E19.90679
G1 X113.906 Y62.318 E19.99566
G1 X113.815 Y62.596 E20.01325
G1 X113.214 Y63.947 E20.10215
G1 X112.941 Y64.412 E20.13457
G1 X85.087 Y108.988 E23.29489
G1 X83.512 Y110.759 E23.43739
G1 X81.440 Y111.910 E23.57988
G1 X79.090 Y112.312 E23.72323
G1 X73.310 Y112.312 E24.07077
G1 X70.973 Y111.915 E24.21327
G1 X68.899 Y110.768 E24.35576
G1 X67.313 Y108.988 E24.49912
G1 X39.186 Y63.946 E27.69191
G1 X38.585 Y62.597 E27.78074
G1 X38.494 Y62.318 E27.79834
G1 X38.187 Y60.872 E27.88722
G1 X38.156 Y60.581 E27.90481
G1 X38.156 Y59.103 E27.99368
G1 X38.187 Y58.812 E28.01130
G1 X38.494 Y57.366 E28.10016
G1 X38.585 Y57.087 E28.11779
G1 X39.186 Y55.738 E28.20662
G1 X39.435 Y55.311 E28.23630
G1 X46.739 Y43.452 E29.07371
G1 X48.115 Y41.885 E29.19909
G1 X48.519 Y42.245 F4800.000
G1 X48.710 Y42.032 E29.21628 F720.000
G1 X50.716 Y40.953 E29.35324
G1 X52.750 Y40.625 E29.47712
G1 X53.812 Y40.628 E29.54099
G1 X101.652 Y42.373 E32.41927 F720.000
G1 X103.879 Y42.851 E32.55623
G1 X105.807 Y44.065 E32.69318
G1 X106.689 Y45.046 E32.77253
G1 X107.862 Y46.654 E32.89217
G1 X108.803 Y48.023 E32.99202
G1 X110.074 Y50.093 E33.13811
G1 X111.042 Y51.895 E33.26109
G1 X111.914 Y53.745 E33.38406
G1 X112.626 Y55.469 E33.49619
G1 X113.224 Y57.020 E33.59615
G1 X113.439 Y57.662 E33.63685
G1 X113.680 Y58.868 E33.71081
G1 X113.711 Y59.159 E33.72840
G1 X113.711 Y60.525 E33.81055
G1 X113.680 Y60.816 E33.82814
G1 X113.396 Y62.153 E33.91028
G1 X113.306 Y62.431 E33.92787
G1 X112.750 Y63.679 E34.01004
G1 X112.486 Y64.128 E34.04133
G1 X84.633 Y108.704 E37.20165
G1 X83.107 Y110.396 E37.33861
G1 X81.094 Y111.461 E37.47556
G1 X79.090 Y111.776 E37.59753
G1 X73.310 Y111.776 E37.94507
G1 X71.067 Y111.379 E38.08203
G1 X69.096 Y110.237 E38.21898
G1 X67.767 Y108.704 E38.34096
G1 X39.650 Y63.679 E41.53262
G1 X39.094 Y62.431 E41.61472
G1 X39.004 Y62.153 E41.63232
G1 X38.720 Y60.816 E41.71447
G1 X38.689 Y60.525 E41.73206
G1 X38.689 Y59.159 E41.81420
G1 X38.720 Y58.868 E41.83182
G1 X39.004 Y57.532 E41.91395
G1 X39.094 Y57.253 E41.93157
G1 X39.650 Y56.005 E42.01368
G1 X39.891 Y55.592 E42.04244
G1 X47.195 Y43.733 E42.87985
G1 X48.480 Y42.290 E42.99600
G1 F1800.000 E41.99600
G92 E0
G1 X74.432 Y67.872 F4800.000
G1 E1.00000 F1800.000
G1 X74.802 Y67.539 E1.02990 F900.000
G1 X75.232 Y67.291 E1.05980
G1 X75.705 Y67.137 E1.08970
G1 X76.200 Y67.085 E1.11960
G1 X76.695 Y67.137 E1.14950
G1 X77.168 Y67.291 E1.17940 F900.000
G1 X77.598 Y67.539 E1.20930
G1 X77.968 Y67.872 E1.23920
G1 X78.260 Y68.274 E1.26910
G1 X78.462 Y68.729 E1.29900
G1 X78.566 Y69.215 E1.32890
G1 X78.566 Y69.712 E1.35880
G1 X78.462 Y70.199 E1.38870
G1 X78.260 Y70.653 E1.41860
G1 X77.968 Y71.055 E1.44850
G1 X77.598 Y71.388 E1.47840
G1 X77.168 Y71.637 E1.50830
G1 X76.695 Y71.790 E1.53820
G1 X76.200 Y71.842 E1.56810
G1 X75.705 Y71.790 E1.59801
G1 X75.232 Y71.637 E1.62790
G1 X74.802 Y71.388 E1.65780
G1 X74.432 Y71.055 E1.68771
G1 X74.140 Y70.653 E1.71761
G1 X73.938 Y70.199 E1.74751
G1 X73.834 Y69.712 E1.77741
G1 X73.834 Y69.215 E1.80731
G1 X73.938 Y68.729 E1.83721
G1 X74.140 Y68.274 E1.86711
G1 X74.397 Y67.920 E1.89340
G1 X74.830 Y68.235 F4800.000
G1 X75.118 Y67.975 E1.91675 F900.000
G1 X75.452 Y67.783 E1.93988
G1 X75.817 Y67.664 E1.96301
G1 X76.200 Y67.623 E1.98614 F900.000
G1 X76.583 Y67.664 E2.00927
G1 X76.948 Y67.783 E2.03240
G1 X77.282 Y67.975 E2.05553
G1 X77.568 Y68.232 E2.07866
G1 X77.794 Y68.544 E2.10179
G1 X77.950 Y68.895 E2.12493
G1 X78.030 Y69.271 E2.14806
G1 X78.030 Y69.656 E2.17119
G1 X77.950 Y70.032 E2.19432
G1 X77.794 Y70.384 E2.21745
G1 X77.568 Y70.695 E2.24058
G1 X77.282 Y70.952 E2.26371
G1 X76.948 Y71.145 E2.28684
G1 X76.583 Y71.264 E2.30997
G1 X76.200 Y71.304 E2.33310
G1 X75.817 Y71.264 E2.35623
G1 X75.452 Y71.145 E2.37936
G1 X75.118 Y70.952 E2.40249
G1 X74.832 Y70.695 E2.42562
G1 X74.606 Y70.384 E2.44875
G1 X74.450 Y70.032 E2.47189
G1 X74.370 Y69.656 E2.49502
G1 X74.370 Y69.271 E2.51815
G1 X74.450 Y68.895 E2.54128
G1 X74.606 Y68.544 E2.56441
G1 X74.795 Y68.284 E2.58371
G1 X75.228 Y68.599 F4800.000
G1 X75.435 Y68.411 E2.60051 F810.000
G1 X75.671 Y68.275 E2.61687
G1 X75.929 Y68.190 E2.63323
G1 X76.200 Y68.162 E2.64959
G1 X76.471 Y68.190 E2.66595
G1 X76.729 Y68.275 E2.68231 F810.000
G1 X76.965 Y68.411 E2.69867
G1 X77.167 Y68.593 E2.71503
G1 X77.327 Y68.813 E2.73139
G1 X77.438 Y69.061 E2.74776
G1 X77.495 Y69.328 E2.76412
G1 X77.495 Y69.600 E2.78048
G1 X77.438 Y69.866 E2.79684
G1 X77.327 Y70.114 E2.81320
G1 X77.167 Y70.335 E2.82956
G1 X76.965 Y70.517 E2.84592
G1 X76.729 Y70.653 E2.86228
G1 X76.471 Y70.737 E2.87864
G1 X76.200 Y70.765 E2.89501
G1 X75.929 Y70.737 E2.91137
G1 X75.671 Y70.653 E2.92773
G1 X75.435 Y70.517 E2.94409
G1 X75.233 Y70.335 E2.96045
G1 X75.073 Y70.114 E2.97681
G1 X74.962 Y69.866 E2.99317
G1 X74.905 Y69.600 E3.00953
G1 X74.905 Y69.328 E3.02589
G1 X74.962 Y69.061 E3.04226
G1 X75.073 Y68.813 E3.05862
G1 X75.193 Y68.647 E3.07093
G1 X76.623 Y67.965 F4800.000
G1 F1800.000 E2.07093
G92 E0
G1 X79.846 Y68.250 F4800.000
G1 E1.00000 F1800.000
G1 X105.826 Y59.809 E2.64240 F900.000
G1 X105.825 Y59.857 E2.64529
G1 X105.752 Y59.891 E2.65015
G1 X79.863 Y68.303 E4.28682
G1 X79.807 Y69.817 E4.37792
G1 X79.644 Y70.583 E4.42498
G1 X79.336 Y71.274 E4.47050
G1 X78.891 Y71.887 E4.51601
G1 X78.328 Y72.393 E4.56153
G1 X77.651 Y72.784 E4.60856
G1 X76.220 Y73.307 E4.70019
G1 X76.219 Y98.859 E6.23647
G1 X76.570 Y99.416 E6.27605
G1 X76.200 Y99.392 E6.29831
G1 X75.830 Y99.416 E6.32061
G1 X76.181 Y98.859 E6.36019
G1 X76.181 Y73.308 E7.89647
G1 X74.749 Y72.784 E7.98812
G1 X74.071 Y72.393 E8.03515
G1 X73.509 Y71.887 E8.08066
G1 X73.064 Y71.274 E8.12618
G1 X72.756 Y70.583 E8.17170
G1 X72.593 Y69.817 E8.21876
G1 X72.537 Y68.303 E8.30985
G1 X46.648 Y59.891 E9.94653
G1 X46.568 Y59.842 E9.95218
G1 X46.586 Y59.822 E9.95383
G1 X46.664 Y59.837 E9.95860
G1 X72.554 Y68.249 E11.59537
G1 X73.490 Y67.058 E11.68645
G1 X74.072 Y66.534 E11.73352
G1 X74.727 Y66.156 E11.77904
G1 X75.447 Y65.922 E11.82455
G1 X76.200 Y65.842 E11.87007
G1 X76.953 Y65.922 E11.91559
G1 X77.673 Y66.156 E11.96110
G1 X78.328 Y66.534 E12.00662
G1 X78.910 Y67.058 E12.05369
G1 X79.809 Y68.202 E12.14117
G1 X80.036 Y67.625 F4800.000
G1 X106.143 Y59.143 E13.79159 F900.000
G1 X106.357 Y59.708 E13.82789
G1 X106.371 Y59.842 E13.83602
G1 X106.359 Y59.958 E13.84305
G1 X106.323 Y60.070 E13.85007
G1 X106.186 Y60.258 E13.86405
G1 X106.091 Y60.326 E13.87108
G1 X105.944 Y60.392 E13.88075
G1 X80.384 Y68.697 E15.49663
G1 X80.340 Y69.883 E15.56800
G1 X80.156 Y70.749 E15.62123
G1 X79.802 Y71.544 E15.67352
G1 X79.291 Y72.247 E15.72581
G1 X78.645 Y72.829 E15.77809
G1 X77.879 Y73.271 E15.83130
G1 X76.755 Y73.682 E15.90321
G1 X76.755 Y98.705 E17.40769
G1 X77.996 Y100.679 E17.54787
G1 X77.690 Y100.412 E17.57223
G1 X77.468 Y100.268 E17.58816
G1 X77.231 Y100.147 E17.60414
G1 X76.984 Y100.052 E17.62009
G1 X76.727 Y99.984 E17.63605
G1 X76.465 Y99.942 E17.65201
G1 X76.200 Y99.928 E17.66796
G1 X75.935 Y99.942 E17.68392
G1 X75.673 Y99.984 E17.69988
G1 X75.416 Y100.052 E17.71585
G1 X75.169 Y100.147 E17.73178
G1 X74.932 Y100.268 E17.74774
G1 X74.710 Y100.412 E17.76370
G1 X74.404 Y100.678 E17.78806
G1 X75.645 Y98.705 E17.92823
G1 X75.645 Y73.682 E19.43271
G1 X74.521 Y73.271 E19.50464
G1 X73.755 Y72.829 E19.55785
G1 X73.109 Y72.247 E19.61013
G1 X72.598 Y71.544 E19.66242
G1 X72.244 Y70.749 E19.71471
G1 X72.060 Y69.883 E19.76794
G1 X72.016 Y68.697 E19.83931
G1 X46.456 Y60.392 E21.45519
G1 X46.309 Y60.326 E21.46486
G1 X46.136 Y60.171 E21.47884
G1 X46.041 Y59.958 E21.49282
G1 X46.029 Y59.842 E21.49985
G1 X46.041 Y59.726 E21.50687
G1 X46.136 Y59.514 E21.52085
G1 X46.309 Y59.358 E21.53483
G1 X46.530 Y59.286 E21.54881
G1 X46.647 Y59.286 E21.55584
G1 X46.803 Y59.319 E21.56546
G1 X72.364 Y67.624 E23.18139
G1 X73.097 Y66.691 E23.25276
G1 X73.755 Y66.098 E23.30599
G1 X74.508 Y65.664 E23.35827
G1 X75.335 Y65.395 E23.41056
G1 X76.200 Y65.304 E23.46285
G1 X77.065 Y65.395 E23.51513
G1 X77.892 Y65.664 E23.56742
G1 X78.645 Y66.098 E23.61971
G1 X79.303 Y66.691 E23.67294
G1 X79.999 Y67.577 E23.74070
G1 X80.906 Y69.091 F4800.000
G1 X80.874 Y69.949 E23.79237 F810.000
G1 X80.668 Y70.916 E23.85176
G1 X80.269 Y71.813 E23.91082
G1 X79.692 Y72.607 E23.96987
G1 X78.962 Y73.265 E24.02893
G1 X78.106 Y73.759 E24.08832
G1 X77.291 Y74.057 E24.14051
G1 X77.291 Y98.550 E25.61319
G1 X78.790 Y100.936 E25.78262
G1 X78.790 Y104.435 E25.99297
G1 X78.200 Y103.752 E26.04721
G1 X78.188 Y102.255 E26.13723
G1 X78.155 Y102.048 E26.14982
G1 X78.026 Y101.651 E26.17494
G1 X77.817 Y101.289 E26.20007
G1 X77.538 Y100.978 E26.22520
G1 X77.200 Y100.732 E26.25032
G1 X77.013 Y100.637 E26.26291
G1 X76.616 Y100.508 E26.28803
G1 X76.200 Y100.465 E26.31316
G1 X75.991 Y100.475 E26.32575
G1 X75.602 Y100.557 E26.34967
G1 X75.200 Y100.732 E26.37599
G1 X74.862 Y100.978 E26.40112
G1 X74.583 Y101.289 E26.42625
G1 X74.460 Y101.482 E26.44003
G1 X74.299 Y101.846 E26.46395
G1 X74.212 Y102.255 E26.48908
G1 X74.200 Y103.752 E26.57910
G1 X73.610 Y104.435 E26.63335
G1 X73.610 Y100.936 E26.84369
G1 X75.109 Y98.550 E27.01312
G1 X75.109 Y74.057 E28.48580
G1 X74.294 Y73.759 E28.53801
G1 X73.438 Y73.265 E28.59740
G1 X72.708 Y72.607 E28.65645
G1 X72.131 Y71.813 E28.71551
G1 X71.732 Y70.916 E28.77457
G1 X71.526 Y69.949 E28.83396
G1 X71.494 Y69.091 E28.88562
G1 X46.263 Y60.893 E30.48069
G1 X46.039 Y60.793 E30.49544
G1 X45.854 Y60.658 E30.50923
G1 X45.700 Y60.487 E30.52303
G1 X45.585 Y60.289 E30.53683
G1 X45.515 Y60.070 E30.55063
G1 X45.491 Y59.842 E30.56442
G1 X45.515 Y59.614 E30.57822
G1 X45.585 Y59.396 E30.59202
G1 X45.700 Y59.197 E30.60582
G1 X45.854 Y59.026 E30.61961
G1 X46.039 Y58.892 E30.63341
G1 X46.249 Y58.798 E30.64721
G1 X46.474 Y58.751 E30.66101
G1 X46.703 Y58.751 E30.67480
G1 X46.943 Y58.801 E30.68953
G1 X48.425 Y59.287 E30.78332
G1 X49.183 Y57.444 E30.90312
G1 X49.848 Y56.050 E30.99600
G1 X50.585 Y54.692 E31.08890
G1 X51.392 Y53.374 E31.18180
G1 X52.264 Y52.106 E31.27435
G1 X53.058 Y51.151 E31.34897
G1 X53.060 Y47.460 E31.57090
G1 X53.277 Y47.460 E31.58394
G1 X53.310 Y51.153 E31.80600
G1 X52.435 Y52.216 E31.88880
G1 X51.562 Y53.485 E31.98138
G1 X50.761 Y54.793 E32.07364
G1 X50.028 Y56.142 E32.16591
G1 X49.368 Y57.527 E32.25819
G1 X48.617 Y59.349 E32.37664
G1 X72.174 Y66.999 E33.86579
G1 X72.704 Y66.324 E33.91745
G1 X73.438 Y65.663 E33.97684
G1 X74.289 Y65.171 E34.03590
G1 X75.223 Y64.868 E34.09496
G1 X76.200 Y64.765 E34.15401
G1 X77.177 Y64.868 E34.21307
G1 X78.111 Y65.171 E34.27212
G1 X78.962 Y65.663 E34.33118
G1 X79.696 Y66.324 E34.39057
G1 X80.226 Y67.000 E34.44224
G1 X106.158 Y58.575 E36.08160
G1 X105.966 Y58.035 E36.11607
G1 X105.326 Y56.491 E36.21657
G1 X104.607 Y54.982 E36.31708
G1 X103.809 Y53.513 E36.41759
G1 X102.936 Y52.087 E36.51811
G1 X101.124 Y49.490 E36.70851
G1 X97.784 Y49.459 E36.90935
G1 X97.758 Y49.243 E36.92243
G1 X101.263 Y49.206 E37.13318
G1 X102.231 Y50.529 E37.23176
G1 X103.189 Y51.923 E37.33343
G1 X104.070 Y53.362 E37.43490
G1 X104.876 Y54.845 E37.53636
G1 X105.602 Y56.368 E37.63783
G1 X106.250 Y57.931 E37.73954
G1 X106.885 Y59.607 E37.84733
G1 X106.909 Y59.842 E37.86152
G1 X106.885 Y60.070 E37.87532
G1 X106.815 Y60.289 E37.88912
G1 X106.700 Y60.487 E37.90292
G1 X106.546 Y60.658 E37.91671
G1 X106.361 Y60.793 E37.93051
G1 X106.137 Y60.893 E37.94526
G1 X80.963 Y69.072 E39.53672
G1 X80.507 Y69.123 F4800.000
G1 F1800.000 E38.53672
G92 E0
G1 X78.355 Y67.054 F4800.000
G1 E1.00000 F1800.000
G1 X78.744 Y67.442 E1.03303 F1080.000
G1 X78.450 Y67.909 E1.06621
G1 X79.471 Y68.930 E1.15301
G1 X78.928 Y69.148 E1.18819
G1 X79.444 Y69.664 E1.23206
G1 X78.905 Y69.886 E1.26708
G1 X79.326 Y70.307 E1.30285
G1 X79.118 Y70.859 E1.33835
G1 X78.740 Y70.481 E1.37048
G1 X78.478 Y70.980 E1.40435
G1 X78.835 Y71.337 E1.43473
G1 X78.482 Y71.744 E1.46715
G1 X78.137 Y71.399 E1.49652
G1 X77.720 Y71.743 E1.52901
G1 X78.085 Y72.108 E1.56007
G1 X77.603 Y72.387 E1.59355
G1 X77.222 Y72.006 E1.62591
G1 X76.624 Y72.168 E1.66320
G1 X77.063 Y72.607 E1.70053
G1 X76.506 Y72.811 E1.73619
G1 X75.873 Y72.178 E1.78996
G1 X75.659 Y72.725 E1.82524
G1 X74.674 Y71.740 E1.90902
G1 X74.069 Y71.896 E1.94656
G1 X73.709 Y71.535 E1.97723
G1 X73.943 Y71.009 E2.01186
G1 X73.029 Y70.095 E2.08962
G1 X73.471 Y69.776 E2.12238
G1 X72.941 Y69.246 E2.16752
G1 X73.495 Y69.039 E2.20308
G1 X72.911 Y68.456 E2.25273
G1 X73.217 Y68.001 E2.28568
G1 X73.661 Y68.445 E2.32338
G1 X73.923 Y67.946 E2.35725
G1 X73.552 Y67.575 E2.38880
G1 X73.918 Y67.180 E2.42116
G1 X74.265 Y67.527 E2.45064
G1 X74.682 Y67.183 E2.48313
G1 X74.316 Y66.818 E2.51419
G1 X74.798 Y66.540 E2.54767
G1 X75.179 Y66.921 E2.58006
G1 X75.357 Y66.338 E2.61668
G1 X75.778 Y66.759 E2.65247
G1 X76.013 Y66.232 E2.68711
G1 X76.529 Y66.749 E2.73104
G1 X76.819 Y66.278 E2.76430
G1 X77.732 Y67.191 E2.84196
M106 S255
M104 S190 ; set temperature
G1 F1800.000 E1.84196
G92 E0
G1 Z0.500 F4800.000
G1 X77.523 Y67.554 F4800.000
G1 E1.00000 F1800.000
G1 X77.930 Y67.906 E1.02533 F2193.586
G1 X78.216 Y68.300 E1.04822
G1 X78.414 Y68.744 E1.07110
G1 X78.516 Y69.220 E1.09399
G1 X78.516 Y69.707 E1.11688
G1 X78.414 Y70.183 E1.13976
G1 X78.216 Y70.628 E1.16265
G1 X77.930 Y71.022 E1.18553
G1 X77.569 Y71.347 E1.20842
G1 X77.147 Y71.591 E1.23131
G1 X76.684 Y71.741 E1.25419
G1 X76.200 Y71.792 E1.27708
G1 X75.716 Y71.741 E1.29997
G1 X75.253 Y71.591 E1.32286
G1 X74.831 Y71.347 E1.34574
G1 X74.470 Y71.022 E1.36863
G1 X74.184 Y70.628 E1.39152
G1 X73.986 Y70.183 E1.41440
G1 X73.884 Y69.707 E1.43729
G1 X73.884 Y69.220 E1.46018
G1 X73.986 Y68.744 E1.48306
G1 X74.184 Y68.300 E1.50595
G1 X74.470 Y67.906 E1.52884
G1 X74.831 Y67.580 E1.55172
G1 X75.253 Y67.337 E1.57461
G1 X75.716 Y67.186 E1.59750
