; generated by Slic3r 1.2.0 on 2014-10-26 at 14:28:53

; external perimeters extrusion width = 0.40mm
; perimeters extrusion width = 0.67mm
; infill extrusion width = 0.67mm
; solid infill extrusion width = 0.67mm
; top infill extrusion width = 0.67mm

G21 ; set units to millimeters
M107
M104 S195 ; set temperature
G28 X0 Y0  
G29
M109 S195 ; wait for temperature to be reached
G90 ; use absolute coordinates
G92 E0
M82 ; use absolute distances for extrusion
G1 F1800.000 E-1.00000
G92 E0
G1 Z0.300 F4800.000
G1 X47.543 Y50.794 F4800.000
G1 E1.00000 F1800.000
G1 X54.783 Y44.451 E1.54658 F720.000
G1 X56.797 Y43.182 E1.68173
G1 X65.642 Y39.387 E2.22831
G1 X67.949 Y38.802 E2.36345
G1 X77.535 Y37.926 E2.91003
G1 X79.910 Y38.083 E3.04518
G1 X89.297 Y40.212 E3.59176 F720.000
G1 X91.507 Y41.095 E3.72690
G1 X99.777 Y46.021 E4.27349
G1 X101.606 Y47.543 E4.40863
G1 X107.949 Y54.783 E4.95521
G1 X109.218 Y56.797 E5.09036
G1 X113.013 Y65.642 E5.63694
G1 X113.598 Y67.949 E5.77208
G1 X114.474 Y77.535 E6.31866
G1 X114.317 Y79.910 E6.45381
G1 X112.188 Y89.297 E7.00039
G1 X111.305 Y91.507 E7.13553
G1 X106.379 Y99.777 E7.68212
G1 X104.857 Y101.606 E7.81726
G1 X97.617 Y107.949 E8.36384
G1 X95.603 Y109.218 E8.49899
G1 X86.757 Y113.013 E9.04557
G1 X84.450 Y113.598 E9.18071
G1 X74.865 Y114.474 E9.72730
G1 X72.490 Y114.317 E9.86244
G1 X63.103 Y112.188 E10.40902
G1 X60.893 Y111.305 E10.54416
G1 X52.623 Y106.379 E11.09074
G1 X50.794 Y104.857 E11.22589
G1 X44.451 Y97.617 E11.77247
G1 X43.182 Y95.603 E11.90761
G1 X39.387 Y86.758 E12.45419
G1 X38.802 Y84.451 E12.58934
G1 X37.926 Y74.865 E13.13592
G1 X38.083 Y72.490 E13.27107
G1 X40.212 Y63.103 E13.81765
G1 X41.095 Y60.893 E13.95279
G1 X46.021 Y52.623 E14.49937
G1 X47.505 Y50.840 E14.63111
G1 X47.896 Y51.197 F4800.000
G1 X55.136 Y44.854 E15.17769 F720.000
G1 X57.008 Y43.674 E15.30332
G1 X65.854 Y39.879 E15.84990
G1 X67.998 Y39.336 E15.97553
G1 X77.584 Y38.460 E16.52211
G1 X79.791 Y38.605 E16.64774
G1 X89.178 Y40.734 E17.19432 F720.000
G1 X91.233 Y41.555 E17.31995
G1 X99.503 Y46.481 E17.86653
G1 X101.203 Y47.896 E17.99216
G1 X107.546 Y55.136 E18.53874
G1 X108.726 Y57.008 E18.66437
G1 X112.521 Y65.854 E19.21095
G1 X113.064 Y67.998 E19.33658
G1 X113.940 Y77.584 E19.88316
G1 X113.795 Y79.791 E20.00879
G1 X111.666 Y89.178 E20.55537
G1 X110.845 Y91.233 E20.68100
G1 X105.919 Y99.503 E21.22758
G1 X104.504 Y101.203 E21.35321
G1 X97.264 Y107.546 E21.89980
G1 X95.392 Y108.726 E22.02542
G1 X86.546 Y112.521 E22.57201
G1 X84.402 Y113.064 E22.69763
G1 X74.816 Y113.940 E23.24422
G1 X72.609 Y113.795 E23.36984
G1 X63.222 Y111.666 E23.91642
G1 X61.167 Y110.845 E24.04205
G1 X52.897 Y105.919 E24.58863
G1 X51.197 Y104.504 E24.71426
G1 X44.854 Y97.264 E25.26084
G1 X43.674 Y95.392 E25.38647
G1 X39.879 Y86.546 E25.93305
G1 X39.336 Y84.402 E26.05868
G1 X38.460 Y74.816 E26.60526
G1 X38.605 Y72.609 E26.73089
G1 X40.734 Y63.222 E27.27747
G1 X41.555 Y61.167 E27.40310
G1 X46.481 Y52.897 E27.94968
G1 X47.858 Y51.243 E28.07190
G1 X48.249 Y51.600 F4800.000
G1 X55.489 Y45.257 E28.61849 F720.000
G1 X57.219 Y44.167 E28.73460
G1 X66.065 Y40.371 E29.28118
G1 X68.047 Y39.869 E29.39729
G1 X77.633 Y38.993 E29.94387
G1 X79.673 Y39.128 E30.05999
G1 X89.060 Y41.257 E30.60657 F720.000
G1 X90.959 Y42.015 E30.72268
G1 X99.229 Y46.941 E31.26926
G1 X100.800 Y48.249 E31.38538
G1 X107.143 Y55.489 E31.93196
G1 X108.233 Y57.219 E32.04807
G1 X112.029 Y66.065 E32.59465
G1 X112.531 Y68.047 E32.71076
G1 X113.407 Y77.633 E33.25735
G1 X113.272 Y79.673 E33.37346
G1 X111.143 Y89.060 E33.92004
G1 X110.385 Y90.959 E34.03615
G1 X105.459 Y99.229 E34.58273
G1 X104.151 Y100.800 E34.69885
G1 X96.911 Y107.143 E35.24543
G1 X95.181 Y108.233 E35.36154
G1 X86.335 Y112.029 E35.90812
G1 X84.353 Y112.531 E36.02424
G1 X74.767 Y113.407 E36.57082
G1 X72.727 Y113.272 E36.68693
G1 X63.340 Y111.143 E37.23351
G1 X61.441 Y110.385 E37.34962
G1 X53.171 Y105.459 E37.89620
G1 X51.600 Y104.151 E38.01231
G1 X45.257 Y96.911 E38.55890
G1 X44.167 Y95.181 E38.67501
G1 X40.371 Y86.335 E39.22159
G1 X39.869 Y84.353 E39.33770
G1 X38.993 Y74.767 E39.88428
G1 X39.128 Y72.727 E40.00040
G1 X41.257 Y63.340 E40.54698
G1 X42.015 Y61.441 E40.66309
G1 X46.941 Y53.171 E41.20967
G1 X48.211 Y51.646 E41.32238
G1 F1800.000 E40.32238
G92 E0
G1 X86.501 Y74.060 F4800.000
G1 E1.00000 F1800.000
G1 X86.993 Y73.219 E1.05532 F810.000
G1 X94.823 Y70.675 E1.52281
G1 X95.944 Y71.201 E1.59314
G1 X96.113 Y71.280 E1.60376 F810.000
G1 X96.638 Y74.592 E1.79413
G1 X96.638 Y77.808 E1.97680
G1 X96.134 Y80.986 E2.15948
G1 X95.140 Y84.045 E2.34215
G1 X93.680 Y86.912 E2.52482
G1 X91.789 Y89.514 E2.70750
G1 X89.419 Y91.885 E2.89787
G1 X88.018 Y91.616 E2.97882
G1 X83.179 Y84.956 E3.44631
G1 X83.289 Y83.850 E3.50938
G1 X83.758 Y83.381 E3.54704
G1 X85.365 Y81.169 E3.70235
G1 X85.607 Y80.694 E3.73258
G1 X86.452 Y78.093 E3.88788
G1 X86.536 Y77.567 E3.91811
G1 X86.536 Y74.832 E4.07342
G1 X86.432 Y74.177 E4.11108
G1 X86.470 Y74.111 E4.11542
G1 F1800.000 E3.11542
G92 E0
G1 X96.067 Y71.060 F4800.000
G1 X69.111 Y83.850 F4800.000
G1 E1.00000 F1800.000
G1 X69.221 Y84.956 E1.06307 F810.000
G1 X64.382 Y91.616 E1.53056
G1 X62.981 Y91.885 E1.61151
G1 X60.611 Y89.514 E1.80188
G1 X58.720 Y86.912 E1.98455
G1 X57.260 Y84.045 E2.16723
G1 X56.266 Y80.986 E2.34990
G1 X55.762 Y77.809 E2.53257
G1 X55.762 Y74.592 E2.71525
G1 X56.287 Y71.280 E2.90562
G1 X57.577 Y70.675 E2.98657
G1 X64.655 Y72.975 E3.40917
G1 X65.407 Y73.219 E3.45406 F810.000
G1 X65.968 Y74.177 E3.51713
G1 X65.864 Y74.832 E3.55479
G1 X65.864 Y77.568 E3.71010
G1 X65.948 Y78.093 E3.74033
G1 X66.793 Y80.694 E3.89564
G1 X67.035 Y81.169 E3.92586
G1 X68.642 Y83.381 E4.08117
G1 X69.069 Y83.808 E4.11542
G1 F1800.000 E3.11542
G92 E0
G1 X64.690 Y72.576 F4800.000
G1 X64.879 Y71.996 F4800.000
G1 E1.00000 F1800.000
G1 X57.886 Y69.724 E1.41750 F810.000
G1 X57.198 Y68.475 E1.49845
G1 X58.720 Y65.488 E1.68881
G1 X60.611 Y62.886 E1.87149
G1 X62.814 Y60.682 E2.04844
G1 X62.886 Y60.611 E2.05416
G1 X65.488 Y58.720 E2.23683
G1 X68.355 Y57.260 E2.41951
G1 X71.414 Y56.266 E2.60218
G1 X74.725 Y55.741 E2.79255
G1 X75.600 Y56.674 E2.86518
G1 X75.700 Y56.781 E2.87350 F810.000
G1 X75.700 Y65.014 E3.34099
G1 X74.962 Y65.844 E3.40407
G1 X74.307 Y65.948 E3.44172
G1 X71.706 Y66.793 E3.59703
G1 X71.231 Y67.035 E3.62726
G1 X69.019 Y68.642 E3.78257
G1 X68.642 Y69.019 E3.81279
G1 X67.035 Y71.231 E3.96810
G1 X66.733 Y71.822 E4.00576
G1 X65.716 Y72.268 E4.06883
G1 X64.936 Y72.014 E4.11542
G1 F1800.000 E3.11542
G92 E0
G1 X75.698 Y56.566 F4800.000
G1 X76.700 Y56.781 F4800.000
G1 E1.00000 F1800.000
G1 X77.675 Y55.741 E1.08095 F810.000
G1 X80.928 Y56.256 E1.26801
G1 X84.045 Y57.260 E1.45395 F810.000
G1 X86.912 Y58.720 E1.63663
G1 X89.514 Y60.611 E1.81930
G1 X91.789 Y62.886 E2.00198
G1 X93.680 Y65.488 E2.18465
G1 X95.202 Y68.475 E2.37502
G1 X94.514 Y69.724 E2.45597
G1 X86.684 Y72.268 E2.92346
G1 X85.667 Y71.822 E2.98653
G1 X85.365 Y71.231 E3.02419
G1 X83.758 Y69.019 E3.17950
G1 X83.381 Y68.642 E3.20972
G1 X81.169 Y67.035 E3.36503
G1 X80.694 Y66.793 E3.39526
G1 X78.093 Y65.948 E3.55057
G1 X77.438 Y65.844 E3.58823
G1 X76.700 Y65.014 E3.65130
G1 X76.700 Y56.841 E4.11538
G1 F1800.000 E3.11538
G92 E0
G1 X81.068 Y55.882 F4800.000
G1 X76.200 Y68.562 F4800.000
G1 E1.00000 F1800.000
G1 X77.627 Y67.150 E1.11399 F900.000
G1 X79.673 Y67.815 E1.23617
G1 X80.942 Y68.462 E1.31703
G1 X82.094 Y69.299 E1.39789
G1 X83.101 Y70.306 E1.47876
G1 X84.366 Y72.047 E1.60094
G1 X83.464 Y73.840 E1.71493
G1 X85.247 Y74.760 E1.82892
G1 X85.248 Y76.912 E1.95110
G1 X85.025 Y78.319 E2.03197
G1 X84.585 Y79.673 E2.11282
G1 X83.938 Y80.942 E2.19370
G1 X82.673 Y82.683 E2.31587
G1 X80.689 Y82.379 E2.42986
G1 X80.365 Y84.360 E2.54385
G1 X78.319 Y85.025 E2.66602
G1 X76.912 Y85.247 E2.74689
G1 X75.488 Y85.247 E2.82776
G1 X74.081 Y85.025 E2.90863
G1 X72.035 Y84.360 E3.03080
G1 X71.711 Y82.379 E3.14479
G1 X69.727 Y82.683 E3.25878
G1 X68.462 Y80.942 E3.38095
G1 X67.815 Y79.673 E3.46182
G1 X67.375 Y78.319 E3.54269
G1 X67.152 Y76.912 E3.62356
G1 X67.152 Y74.760 E3.74573
G1 X68.936 Y73.840 E3.85972
G1 X68.034 Y72.047 E3.97371
G1 X69.299 Y70.306 E4.09588
G1 X70.306 Y69.299 E4.17675
G1 X71.458 Y68.462 E4.25762
G1 X72.727 Y67.815 E4.33849
G1 X74.773 Y67.150 E4.46066
G1 X76.157 Y68.520 E4.57124
G1 X76.200 Y69.316 F4800.000
G1 X77.772 Y67.761 E4.69680 F900.000
G1 X79.467 Y68.312 E4.79806
G1 X80.661 Y68.920 E4.87413
G1 X81.745 Y69.707 E4.95021
G1 X82.692 Y70.655 E5.02629
G1 X83.741 Y72.097 E5.12755
G1 X82.747 Y74.073 E5.25311
G1 X84.712 Y75.087 E5.37866
G1 X84.712 Y76.870 E5.47992
G1 X84.502 Y78.193 E5.55600
G1 X84.088 Y79.467 E5.63207
G1 X83.480 Y80.661 E5.70816
G1 X82.432 Y82.104 E5.80941
G1 X80.246 Y81.769 E5.93497
G1 X79.889 Y83.951 E6.06053
G1 X78.193 Y84.502 E6.16178
G1 X76.870 Y84.712 E6.23786
G1 X75.530 Y84.712 E6.31394
G1 X74.207 Y84.502 E6.39002
G1 X72.511 Y83.951 E6.49127
G1 X72.154 Y81.769 E6.61683
G1 X69.968 Y82.104 E6.74239
G1 X68.920 Y80.661 E6.84364
G1 X68.312 Y79.467 E6.91972
G1 X67.898 Y78.193 E6.99580
G1 X67.688 Y76.870 E7.07188
G1 X67.688 Y75.087 E7.17314
G1 X69.653 Y74.073 E7.29869
G1 X68.659 Y72.097 E7.42425
G1 X69.707 Y70.655 E7.52550
G1 X70.655 Y69.707 E7.60159
G1 X71.739 Y68.920 E7.67766
G1 X72.933 Y68.312 E7.75375
G1 X74.628 Y67.761 E7.85500
G1 X76.157 Y69.274 E7.97715
G1 F1800.000 E6.97715
G92 E0
G1 X84.176 Y75.413 F4800.000
G1 E1.00000 F1800.000
G1 X84.176 Y76.828 E1.08033 F810.000
G1 X83.980 Y78.068 E1.15162
G1 X83.592 Y79.262 E1.22291
G1 X83.022 Y80.380 E1.29421
G1 X82.190 Y81.525 E1.37454
G1 X80.499 Y81.266 E1.47172
G1 X78.237 Y78.153 E1.69019
G1 X78.040 Y77.775 E1.71442
G1 X78.338 Y77.289 E1.74679
G1 X78.482 Y76.941 E1.76817
G1 X78.570 Y76.575 E1.78955
G1 X78.614 Y76.007 E1.82192
G1 X78.996 Y75.817 E1.84615
G1 X82.655 Y74.628 E2.06462
G1 X84.123 Y75.386 E2.15839
G1 X83.924 Y75.724 F4800.000
G1 F1800.000 E1.15839
G92 E0
G1 X83.115 Y72.148 F4800.000
G1 E1.00000 F1800.000
G1 X82.346 Y73.677 E1.09718 F810.000
G1 X78.687 Y74.866 E1.31565
G1 X78.267 Y74.937 E1.33988
G1 X77.896 Y74.504 E1.37225
G1 X77.610 Y74.259 E1.39363
G1 X77.289 Y74.062 E1.41501
G1 X76.762 Y73.844 E1.44738
G1 X76.700 Y73.422 E1.47161
G1 X76.700 Y69.575 E1.69008
G1 X77.916 Y68.371 E1.78726
G1 X79.262 Y68.808 E1.86759
G1 X80.380 Y69.378 E1.93888
G1 X81.396 Y70.116 E2.01017
G1 X82.284 Y71.004 E2.08147
G1 X83.080 Y72.100 E2.15839
G1 X82.751 Y72.312 F4800.000
G1 F1800.000 E1.15839
G92 E0
G1 X74.484 Y68.371 F4800.000
G1 E1.00000 F1800.000
G1 X75.700 Y69.575 E1.09718 F810.000
G1 X75.700 Y73.422 E1.31565
G1 X75.638 Y73.844 E1.33988
G1 X75.111 Y74.062 E1.37225
G1 X74.790 Y74.259 E1.39363
G1 X74.504 Y74.504 E1.41501
G1 X74.133 Y74.937 E1.44738
G1 X73.713 Y74.866 E1.47161
G1 X70.054 Y73.677 E1.69008
G1 X69.285 Y72.148 E1.78726
G1 X70.116 Y71.004 E1.86759
G1 X71.004 Y70.116 E1.93888
G1 X72.020 Y69.378 E2.01017
G1 X73.138 Y68.808 E2.08147
G1 X74.427 Y68.389 E2.15839
G1 X74.527 Y68.769 F4800.000
G1 F1800.000 E1.15839
G92 E0
G1 X68.224 Y75.413 F4800.000
G1 E1.00000 F1800.000
G1 X69.745 Y74.628 E1.09718 F810.000
G1 X73.404 Y75.817 E1.31565
G1 X73.786 Y76.007 E1.33988
G1 X73.830 Y76.575 E1.37225
G1 X73.918 Y76.941 E1.39363
G1 X74.062 Y77.289 E1.41501
G1 X74.360 Y77.775 E1.44738
G1 X74.163 Y78.153 E1.47161
G1 X71.901 Y81.266 E1.69008
G1 X70.210 Y81.525 E1.78726
G1 X69.378 Y80.380 E1.86759
G1 X68.808 Y79.262 E1.93888
G1 X68.420 Y78.068 E2.01017
G1 X68.224 Y76.828 E2.08147
G1 X68.224 Y75.473 E2.15839
G1 X68.615 Y75.495 F4800.000
G1 F1800.000 E1.15839
G92 E0
G1 X74.816 Y75.983 F4800.000
G1 E1.00000 F1800.000
G1 X74.868 Y75.767 E1.01260 F810.000
G1 X74.952 Y75.564 E1.02508
G1 X75.067 Y75.377 E1.03757
G1 X75.209 Y75.209 E1.05005
G1 X75.377 Y75.067 E1.06253
G1 X75.564 Y74.952 E1.07501
G1 X75.767 Y74.868 E1.08750
G1 X75.981 Y74.816 E1.09998
G1 X76.200 Y74.799 E1.11246
G1 X76.419 Y74.816 E1.12495
G1 X76.633 Y74.868 E1.13743 F810.000
G1 X76.836 Y74.952 E1.14991
G1 X77.023 Y75.067 E1.16240
G1 X77.191 Y75.209 E1.17488
G1 X77.333 Y75.377 E1.18736
G1 X77.448 Y75.564 E1.19984
G1 X77.532 Y75.767 E1.21233
G1 X77.584 Y75.981 E1.22481
G1 X77.601 Y76.200 E1.23729
G1 X77.584 Y76.419 E1.24978
G1 X77.532 Y76.633 E1.26226
G1 X77.448 Y76.836 E1.27474
G1 X77.333 Y77.023 E1.28723
G1 X77.191 Y77.191 E1.29971
G1 X77.023 Y77.333 E1.31219
G1 X76.836 Y77.448 E1.32467
G1 X76.633 Y77.532 E1.33716
G1 X76.419 Y77.584 E1.34964
G1 X76.200 Y77.601 E1.36212
G1 X75.981 Y77.584 E1.37461
G1 X75.767 Y77.532 E1.38709
G1 X75.564 Y77.448 E1.39957
G1 X75.377 Y77.333 E1.41206
G1 X75.209 Y77.191 E1.42454
G1 X75.067 Y77.023 E1.43702
G1 X74.952 Y76.836 E1.44950
G1 X74.868 Y76.633 E1.46199
G1 X74.816 Y76.419 E1.47447
G1 X74.799 Y76.200 E1.48695
G1 X74.811 Y76.043 E1.49591
G1 F1800.000 E0.49591
G92 E0
G1 X76.544 Y74.997 F4800.000
G1 X79.413 Y83.543 F4800.000
G1 E1.00000 F1800.000
G1 X78.068 Y83.980 E1.08033 F810.000
G1 X76.828 Y84.176 E1.15162
G1 X75.572 Y84.176 E1.22291
G1 X74.332 Y83.980 E1.29421
G1 X72.987 Y83.543 E1.37454
G1 X72.710 Y81.854 E1.47172
G1 X74.972 Y78.741 E1.69019
G1 X75.270 Y78.436 E1.71442
G1 X75.825 Y78.570 E1.74679
G1 X76.200 Y78.599 E1.76817
G1 X76.575 Y78.570 E1.78955
G1 X77.130 Y78.436 E1.82192
G1 X77.428 Y78.741 E1.84615
G1 X79.690 Y81.854 E2.06462
G1 X79.423 Y83.483 E2.15839
G1 X79.475 Y83.938 F4800.000
G1 X80.082 Y85.806 F4800.000
G1 X80.694 Y85.607 E2.19495 F810.000
G1 X81.285 Y85.306 E2.23261
G1 X82.238 Y85.514 E2.28797
G1 X82.370 Y85.543 E2.29568 F810.000
G1 X87.209 Y92.204 E2.76317
G1 X87.032 Y93.618 E2.84413
G1 X84.045 Y95.140 E3.03449
G1 X80.986 Y96.134 E3.21717
G1 X77.808 Y96.638 E3.39984
G1 X74.592 Y96.638 E3.58251
G1 X71.414 Y96.134 E3.76519
G1 X68.355 Y95.140 E3.94786
G1 X65.368 Y93.618 E4.13823
G1 X65.191 Y92.204 E4.21918
G1 X70.030 Y85.543 E4.68667
G1 X71.115 Y85.306 E4.74975
G1 X71.706 Y85.607 E4.78741
G1 X74.307 Y86.452 E4.94271
G1 X74.833 Y86.536 E4.97294
G1 X77.568 Y86.536 E5.12825
G1 X78.093 Y86.452 E5.15847
G1 X80.025 Y85.825 E5.27381
G1 F1800.000 E4.27381
G92 E0
G1 X82.314 Y85.402 F4800.000
G1 X87.761 Y92.112 F4800.000
G1 E1.00000 F1800.000
G1 X88.688 Y92.290 E1.05359 F900.000
G1 X88.127 Y92.846 E1.09841
G1 X88.140 Y92.938 E1.10370
G1 X88.045 Y92.867 E1.11045
G1 X87.641 Y93.071 E1.13619
G1 X87.753 Y92.172 E1.18767
G1 F1800.000 E0.18767
G92 E0
G1 X64.756 Y93.048 F4800.000
G1 E1.00000 F1800.000
G1 X64.055 Y92.687 E1.04482 F900.000
G1 X63.971 Y92.728 E1.05011
G1 X64.009 Y92.616 E1.05686
G1 X63.690 Y92.294 E1.08260
G1 X64.639 Y92.112 E1.13749
G1 X64.749 Y92.989 E1.18767
G1 F1800.000 E0.18767
G92 E0
G1 X56.820 Y69.679 F4800.000
G1 E1.00000 F1800.000
G1 X57.028 Y69.276 E1.02574 F900.000
G1 X57.494 Y70.122 E1.08063
G1 X56.640 Y70.523 E1.13422
G1 X56.766 Y69.744 E1.17904
G1 X56.702 Y69.677 E1.18433
G1 X56.760 Y69.678 E1.18768
G1 F1800.000 E0.18768
G92 E0
G1 X74.732 Y78.221 F4800.000
G1 E1.00000 F1800.000
G1 X74.976 Y77.754 E1.02989 F900.000
G1 X74.900 Y77.631 E1.03812
G1 X75.061 Y77.768 E1.05014
G1 X75.241 Y77.879 E1.06215
G1 X75.100 Y77.845 E1.07038
G1 X74.774 Y78.178 E1.09687
G1 F1800.000 E0.09687
G92 E0
G1 X74.307 Y75.807 F4800.000
G1 E1.00000 F1800.000
G1 X74.296 Y75.662 E1.00823 F900.000
G1 X73.824 Y75.428 E1.03812
G1 X74.343 Y75.516 E1.06801
G1 X74.438 Y75.406 E1.07624
G1 X74.357 Y75.601 E1.08825
G1 X74.321 Y75.748 E1.09686
G1 F1800.000 E0.09686
G92 E0
G1 X75.989 Y74.278 F4800.000
G1 E1.00000 F1800.000
G1 X76.123 Y74.223 E1.00823 F900.000
G1 X76.200 Y73.702 E1.03812
G1 X76.277 Y74.223 E1.06801
G1 X76.411 Y74.278 E1.07624
G1 X76.200 Y74.262 E1.08826
G1 X76.049 Y74.274 E1.09687
G1 F1800.000 E0.09687
G92 E0
G1 X77.962 Y75.406 F4800.000
G1 E1.00000 F1800.000
G1 X78.056 Y75.516 E1.00823 F900.000
G1 X78.576 Y75.428 E1.03812
G1 X78.104 Y75.662 E1.06801
G1 X78.093 Y75.807 E1.07624
G1 X78.043 Y75.601 E1.08826
G1 X77.985 Y75.461 E1.09687
G1 F1800.000 E0.09687
G92 E0
G1 X77.500 Y77.631 F4800.000
G1 E1.00000 F1800.000
G1 X77.424 Y77.754 E1.00823 F900.000
G1 X77.668 Y78.221 E1.03812
G1 X77.300 Y77.845 E1.06801
G1 X77.159 Y77.879 E1.07624
G1 X77.339 Y77.768 E1.08826
G1 X77.455 Y77.670 E1.09687
G1 F1800.000 E0.09687
G92 E0
G1 X82.158 Y84.400 F4800.000
G1 E1.00000 F1800.000
G1 X81.140 Y84.178 E1.05916 F900.000
