; generated by Slic3r 1.2.0 on 2014-10-25 at 13:20:02

; external perimeters extrusion width = 0.40mm
; perimeters extrusion width = 0.67mm
; infill extrusion width = 0.67mm
; solid infill extrusion width = 0.67mm
; top infill extrusion width = 0.67mm

G21 ; set units to millimeters
M107
M104 S195 ; set temperature
G28 X0 Y0  
G29
M109 S195 ; wait for temperature to be reached
G90 ; use absolute coordinates
G92 E0
M82 ; use absolute distances for extrusion
G1 F1800.000 E-1.00000
G92 E0
G1 Z0.300 F4800.000
G1 X59.018 Y57.531 F4800.000
G1 E1.00000 F1800.000
G1 X60.163 Y56.356 E1.09315 F720.000
G1 X61.171 Y55.414 E1.17150
G1 X62.227 Y54.526 E1.24985
G1 X63.328 Y53.694 E1.32821
G1 X64.471 Y52.921 E1.40655
G1 X65.653 Y52.209 E1.48491
G1 X66.870 Y51.560 E1.56326
G1 X68.256 Y50.919 E1.64996
G1 X69.399 Y50.457 E1.71995
G1 X70.703 Y50.006 E1.79830
G1 X72.029 Y49.624 E1.87665
G1 X73.373 Y49.312 E1.95500
G1 X74.731 Y49.071 E2.03335
G1 X76.101 Y48.901 E2.11170
G1 X77.477 Y48.804 E2.19005
G1 X78.856 Y48.778 E2.26841
G1 X80.259 Y48.825 E2.34809
G1 X81.807 Y48.965 E2.43634 F720.000
G1 X83.047 Y49.139 E2.50746
G1 X84.425 Y49.405 E2.58715
G1 X85.787 Y49.743 E2.66684
G1 X87.130 Y50.151 E2.74653
G1 X88.588 Y50.687 E2.83477
G1 X89.741 Y51.176 E2.90589
G1 X91.004 Y51.790 E2.98559
G1 X92.232 Y52.469 E3.06528
G1 X93.423 Y53.211 E3.14496
G1 X94.693 Y54.106 E3.23321
G1 X95.680 Y54.877 E3.30433
G1 X96.741 Y55.796 E3.38402
G1 X97.752 Y56.769 E3.46371
G1 X98.710 Y57.795 E3.54340
G1 X99.705 Y58.988 E3.63164
G1 X100.459 Y59.988 E3.70277
G1 X101.246 Y61.151 E3.78246
G1 X101.970 Y62.352 E3.86214
G1 X102.630 Y63.591 E3.94183
G1 X103.225 Y64.862 E4.02152
G1 X103.753 Y66.162 E4.10121
G1 X104.211 Y67.489 E4.18090
G1 X104.635 Y68.984 E4.26914
G1 X104.917 Y70.204 E4.34027
G1 X105.163 Y71.586 E4.41996
G1 X105.347 Y73.129 E4.50820
G1 X105.428 Y74.195 E4.56893
G1 X105.486 Y75.781 E4.65905
G1 X105.437 Y77.248 E4.74242
G1 X105.311 Y78.711 E4.82578
G1 X105.109 Y80.165 E4.90914
G1 X104.832 Y81.607 E4.99250
G1 X104.479 Y83.032 E5.07587
G1 X104.052 Y84.436 E5.15922
G1 X103.552 Y85.817 E5.24259
G1 X102.981 Y87.169 E5.32595
G1 X102.339 Y88.489 E5.40931
G1 X101.630 Y89.774 E5.49267
G1 X100.854 Y91.021 E5.57604
G1 X100.014 Y92.225 E5.65940
G1 X99.112 Y93.383 E5.74276
G1 X98.150 Y94.493 E5.82612
G1 X97.132 Y95.550 E5.90949
G1 X96.060 Y96.553 E5.99284
G1 X94.810 Y97.596 E6.08532
G1 X93.766 Y98.384 E6.15957
G1 X92.550 Y99.207 E6.24293
G1 X91.293 Y99.965 E6.32629
G1 X89.998 Y100.656 E6.40965
G1 X88.669 Y101.279 E6.49302
G1 X87.309 Y101.831 E6.57637
G1 X85.921 Y102.311 E6.65974
G1 X84.355 Y102.756 E6.75221
G1 X83.081 Y103.051 E6.82645
G1 X81.635 Y103.308 E6.90982
G1 X80.179 Y103.489 E6.99318
G1 X78.714 Y103.594 E7.07654
G1 X77.082 Y103.618 E7.16922
G1 X75.755 Y103.573 E7.24465
G1 X74.268 Y103.445 E7.32940
G1 X72.628 Y103.210 E7.42347
G1 X71.324 Y102.958 E7.49890
G1 X69.875 Y102.599 E7.58365
G1 X68.292 Y102.111 E7.67772
G1 X67.044 Y101.657 E7.75315
G1 X65.669 Y101.076 E7.83790
G1 X64.326 Y100.425 E7.92266
G1 X63.019 Y99.703 E8.00741
G1 X61.617 Y98.822 E8.10148
G1 X60.528 Y98.060 E8.17691
G1 X59.350 Y97.144 E8.26166
G1 X58.222 Y96.166 E8.34642
G1 X57.147 Y95.132 E8.43117
G1 X56.127 Y94.042 E8.51593
G1 X55.166 Y92.900 E8.60068
G1 X54.265 Y91.710 E8.68543
G1 X53.428 Y90.474 E8.77018
G1 X52.657 Y89.196 E8.85494
G1 X48.679 Y81.680 E9.33781
G1 X47.800 Y78.132 E9.54538
G1 X47.800 Y72.132 E9.88608
G1 X48.198 Y69.706 E10.02570
G1 X49.958 Y66.825 E10.21743
G1 X58.976 Y57.574 E10.95102
G1 X59.359 Y57.947 F4800.000
G1 X60.532 Y56.745 E11.04639 F720.000
G1 X61.519 Y55.821 E11.12316
G1 X62.553 Y54.951 E11.19991
G1 X63.631 Y54.135 E11.27667
G1 X64.751 Y53.378 E11.35343
G1 X65.908 Y52.680 E11.43019
G1 X67.101 Y52.043 E11.50695
G1 X68.461 Y51.414 E11.59206
G1 X69.577 Y50.962 E11.66046
G1 X70.855 Y50.520 E11.73722
G1 X72.154 Y50.145 E11.81398
G1 X73.470 Y49.839 E11.89073
G1 X74.801 Y49.602 E11.96749
G1 X76.143 Y49.435 E12.04425
G1 X77.491 Y49.339 E12.12101
G1 X78.842 Y49.313 E12.19777
G1 X80.217 Y49.359 E12.27586
G1 X81.737 Y49.496 E12.36252 F720.000
G1 X82.949 Y49.666 E12.43204
G1 X84.300 Y49.926 E12.51014
G1 X85.635 Y50.256 E12.58824
G1 X86.951 Y50.656 E12.66634
G1 X88.383 Y51.182 E12.75299
G1 X89.511 Y51.660 E12.82252
G1 X90.748 Y52.260 E12.90062
G1 X91.952 Y52.925 E12.97872
G1 X93.120 Y53.652 E13.05681
G1 X94.367 Y54.531 E13.14346
G1 X95.333 Y55.284 E13.21300
G1 X96.372 Y56.184 E13.29109
G1 X97.363 Y57.138 E13.36919
G1 X98.303 Y58.142 E13.44729
G1 X99.280 Y59.314 E13.53394
G1 X100.018 Y60.291 E13.60347
G1 X100.789 Y61.430 E13.68157
G1 X101.499 Y62.608 E13.75966
G1 X102.147 Y63.821 E13.83776
G1 X102.730 Y65.067 E13.91586
G1 X103.248 Y66.341 E13.99395
G1 X103.698 Y67.641 E14.07205
G1 X104.114 Y69.109 E14.15870
G1 X104.391 Y70.302 E14.22823
G1 X104.632 Y71.656 E14.30633
G1 X104.813 Y73.171 E14.39298
G1 X104.893 Y74.222 E14.45286
G1 X104.950 Y75.767 E14.54065
G1 X104.903 Y77.206 E14.62242
G1 X104.780 Y78.641 E14.70420
G1 X104.583 Y80.068 E14.78596
G1 X104.311 Y81.482 E14.86773
G1 X103.965 Y82.880 E14.94951
G1 X103.547 Y84.257 E15.03127
G1 X103.057 Y85.612 E15.11305
G1 X102.497 Y86.938 E15.19482
G1 X101.868 Y88.234 E15.27658
G1 X101.173 Y89.495 E15.35835
G1 X100.412 Y90.717 E15.44013
G1 X99.589 Y91.899 E15.52190
G1 X98.704 Y93.035 E15.60367
G1 X97.762 Y94.124 E15.68544
G1 X96.764 Y95.162 E15.76721
G1 X95.712 Y96.146 E15.84897
G1 X94.484 Y97.171 E15.93986
G1 X93.463 Y97.943 E16.01251
G1 X92.271 Y98.750 E16.09428
G1 X91.038 Y99.494 E16.17605
G1 X89.768 Y100.173 E16.25782
G1 X88.464 Y100.784 E16.33959
G1 X87.130 Y101.326 E16.42136
G1 X85.769 Y101.798 E16.50313
G1 X84.230 Y102.235 E16.59401
G1 X82.983 Y102.524 E16.66666
G1 X81.566 Y102.777 E16.74843
G1 X80.137 Y102.955 E16.83020
G1 X78.700 Y103.059 E16.91197
G1 X77.096 Y103.082 E17.00306
G1 X75.797 Y103.039 E17.07690
G1 X74.338 Y102.914 E17.16006
G1 X72.726 Y102.683 E17.25253
G1 X71.449 Y102.437 E17.32637
G1 X70.027 Y102.086 E17.40953
G1 X68.471 Y101.606 E17.50201
G1 X67.248 Y101.162 E17.57584
G1 X65.899 Y100.593 E17.65901
G1 X64.582 Y99.954 E17.74217
G1 X63.299 Y99.247 E17.82533
G1 X61.920 Y98.380 E17.91781
G1 X60.854 Y97.636 E17.99165
G1 X59.698 Y96.736 E18.07480
G1 X58.591 Y95.778 E18.15797
G1 X57.535 Y94.763 E18.24113
G1 X56.534 Y93.694 E18.32429
G1 X55.590 Y92.574 E18.40745
G1 X54.707 Y91.406 E18.49061
G1 X53.885 Y90.194 E18.57377
G1 X53.128 Y88.940 E18.65694
G1 X49.152 Y81.431 E19.13943
G1 X48.336 Y78.132 E19.33239
G1 X48.336 Y72.132 E19.67310
G1 X48.733 Y69.796 E19.80768
G1 X50.342 Y67.198 E19.98116
G1 X59.317 Y57.990 E20.71134
G1 X59.701 Y58.364 F4800.000
G1 X60.900 Y57.133 E20.80893 F720.000
G1 X61.867 Y56.228 E20.88410
G1 X62.879 Y55.376 E20.95927
G1 X63.935 Y54.577 E21.03443
G1 X65.030 Y53.835 E21.10960
G1 X66.164 Y53.151 E21.18477
G1 X67.331 Y52.527 E21.25993
G1 X68.666 Y51.909 E21.34345
G1 X69.756 Y51.467 E21.41026
G1 X71.007 Y51.033 E21.48542
G1 X72.279 Y50.666 E21.56059
G1 X73.568 Y50.366 E21.63576
G1 X74.871 Y50.133 E21.71092
G1 X76.185 Y49.969 E21.78609
G1 X77.505 Y49.874 E21.86126
G1 X78.828 Y49.849 E21.93642
G1 X80.175 Y49.893 E22.01293
G1 X81.667 Y50.027 E22.09799 F720.000
G1 X82.852 Y50.192 E22.16592
G1 X84.175 Y50.447 E22.24243
G1 X85.483 Y50.770 E22.31894
G1 X86.772 Y51.161 E22.39544
G1 X88.178 Y51.677 E22.48050
G1 X89.280 Y52.143 E22.54844
G1 X90.492 Y52.731 E22.62495
G1 X91.672 Y53.382 E22.70145
G1 X92.816 Y54.093 E22.77795
G1 X94.041 Y54.956 E22.86301
G1 X94.985 Y55.691 E22.93095
G1 X96.003 Y56.573 E23.00746
G1 X96.974 Y57.507 E23.08396
G1 X97.895 Y58.490 E23.16047
G1 X98.855 Y59.640 E23.24553
G1 X99.577 Y60.595 E23.31347
G1 X100.332 Y61.710 E23.38998
G1 X101.029 Y62.864 E23.46648
G1 X101.664 Y64.052 E23.54298
G1 X102.235 Y65.272 E23.61949
G1 X102.743 Y66.520 E23.69599
G1 X103.184 Y67.793 E23.77250
G1 X103.593 Y69.234 E23.85755
G1 X103.864 Y70.399 E23.92550
G1 X104.101 Y71.726 E24.00200
G1 X104.279 Y73.213 E24.08706
G1 X104.358 Y74.249 E24.14607
G1 X104.415 Y75.753 E24.23155
G1 X104.369 Y77.164 E24.31173
G1 X104.249 Y78.571 E24.39191
G1 X104.056 Y79.970 E24.47208
G1 X103.790 Y81.357 E24.55226
G1 X103.452 Y82.727 E24.63244
G1 X103.042 Y84.079 E24.71262
G1 X102.562 Y85.407 E24.79280
G1 X102.014 Y86.708 E24.87298
G1 X101.398 Y87.978 E24.95315
G1 X100.716 Y89.215 E25.03333
G1 X99.971 Y90.414 E25.11351
G1 X99.164 Y91.573 E25.19369
G1 X98.297 Y92.687 E25.27386
G1 X97.373 Y93.755 E25.35404
G1 X96.395 Y94.773 E25.43422
G1 X95.365 Y95.739 E25.51439
G1 X94.158 Y96.746 E25.60368
G1 X93.159 Y97.501 E25.67475
G1 X91.991 Y98.294 E25.75493
G1 X90.782 Y99.024 E25.83510
G1 X89.537 Y99.689 E25.91528
G1 X88.259 Y100.289 E25.99546
G1 X86.951 Y100.821 E26.07564
G1 X85.617 Y101.284 E26.15581
G1 X84.105 Y101.714 E26.24510
G1 X82.886 Y101.997 E26.31616
G1 X81.496 Y102.246 E26.39634
G1 X80.095 Y102.421 E26.47652
G1 X78.686 Y102.523 E26.55670
G1 X77.111 Y102.547 E26.64619
G1 X75.839 Y102.505 E26.71844
G1 X74.408 Y102.383 E26.80001
G1 X72.823 Y102.157 E26.89089
G1 X71.574 Y101.916 E26.96313
G1 X70.179 Y101.572 E27.04470
G1 X68.650 Y101.101 E27.13559
G1 X67.453 Y100.668 E27.20783
G1 X66.130 Y100.110 E27.28940
G1 X64.837 Y99.483 E27.37097
G1 X63.579 Y98.790 E27.45254
G1 X62.224 Y97.939 E27.54343
G1 X61.180 Y97.211 E27.61568
G1 X60.046 Y96.329 E27.69724
G1 X58.960 Y95.389 E27.77881
G1 X57.924 Y94.394 E27.86038
G1 X56.941 Y93.346 E27.94195
G1 X56.015 Y92.248 E28.02352
G1 X55.148 Y91.103 E28.10509
G1 X54.342 Y89.914 E28.18666
G1 X53.599 Y88.685 E28.26823
G1 X49.626 Y81.181 E28.75036
G1 X48.872 Y78.132 E28.92870
G1 X48.872 Y72.132 E29.26940
G1 X49.269 Y69.889 E29.39875
G1 X50.726 Y67.572 E29.55417
G1 X59.659 Y58.407 E30.28093
G1 F1800.000 E29.28093
G92 E0
G1 X56.572 Y72.968 F4800.000
G1 E1.00000 F1800.000
G1 X56.572 Y77.494 E1.25701 F900.000
G1 X56.243 Y77.434 E1.27598
G1 X56.243 Y72.968 E1.52960
G1 X56.512 Y72.968 E1.54487
G1 F1800.000 E0.54487
G92 E0
G1 X57.057 Y78.126 F4800.000
G1 E1.00000 F1800.000
G1 X55.707 Y77.882 E1.07786 F810.000
G1 X55.707 Y72.432 E1.38731
G1 X57.107 Y72.432 E1.46680
G1 X57.117 Y78.322 E1.80126
G1 X57.316 Y79.393 E1.86310
G1 X57.567 Y80.441 E1.92428
G1 X57.873 Y81.474 E1.98547
G1 X58.233 Y82.489 E2.04665
G1 X58.645 Y83.485 E2.10783
G1 X59.109 Y84.457 E2.16901
G1 X59.623 Y85.404 E2.23019
G1 X60.186 Y86.323 E2.29138
G1 X60.796 Y87.211 E2.35256
G1 X61.452 Y88.065 E2.41374
G1 X62.152 Y88.885 E2.47492
G1 X62.894 Y89.666 E2.53610
G1 X63.675 Y90.408 E2.59729
G1 X64.494 Y91.108 E2.65847
G1 X65.349 Y91.764 E2.71965
G1 X66.237 Y92.374 E2.78083
G1 X67.303 Y93.017 E2.85149
G1 X68.103 Y93.451 E2.90318
G1 X69.075 Y93.915 E2.96437
G1 X69.995 Y94.300 E3.02100
G1 X71.086 Y94.687 E3.08674
G1 X72.119 Y94.993 E3.14792
G1 X73.167 Y95.244 E3.20910
G1 X74.226 Y95.441 E3.27028
G1 X75.295 Y95.581 E3.33146
G1 X76.369 Y95.666 E3.39265
G1 X77.446 Y95.694 E3.45383
G1 X78.498 Y95.666 E3.51362
G1 X79.548 Y95.584 E3.57341
G1 X80.592 Y95.446 E3.63320
G1 X81.627 Y95.254 E3.69299
G1 X82.651 Y95.009 E3.75278
G1 X83.661 Y94.710 E3.81257
G1 X84.653 Y94.358 E3.87236
G1 X85.626 Y93.955 E3.93215
G1 X86.576 Y93.502 E3.99194
G1 X87.502 Y92.999 E4.05173
G1 X88.399 Y92.449 E4.11152
G1 X89.267 Y91.853 E4.17131
G1 X90.103 Y91.212 E4.23110
G1 X90.903 Y90.528 E4.29089
G1 X91.667 Y89.803 E4.35069
G1 X92.392 Y89.040 E4.41048
G1 X93.076 Y88.239 E4.47027
G1 X93.717 Y87.404 E4.53006
G1 X94.313 Y86.536 E4.58985
G1 X94.863 Y85.638 E4.64964
G1 X95.366 Y84.713 E4.70943
G1 X95.819 Y83.762 E4.76922
G1 X96.222 Y82.790 E4.82901
G1 X96.573 Y81.797 E4.88880
G1 X96.872 Y80.787 E4.94859
G1 X97.118 Y79.764 E5.00838
G1 X97.310 Y78.728 E5.06817
G1 X97.447 Y77.684 E5.12796
G1 X97.530 Y76.635 E5.18775
G1 X97.558 Y75.582 E5.24755
G1 X97.532 Y74.597 E5.30349
G1 X97.581 Y75.586 E5.35970
G1 X97.554 Y76.636 E5.41935
G1 X97.471 Y77.687 E5.47921
G1 X97.334 Y78.732 E5.53908
G1 X97.141 Y79.769 E5.59894
G1 X96.895 Y80.794 E5.65880
G1 X96.596 Y81.804 E5.71866
G1 X96.244 Y82.798 E5.77852
G1 X95.841 Y83.772 E5.83838
G1 X95.387 Y84.723 E5.89824
G1 X94.884 Y85.650 E5.95810
G1 X94.333 Y86.549 E6.01797
G1 X93.736 Y87.418 E6.07783
G1 X93.094 Y88.254 E6.13769
G1 X92.409 Y89.055 E6.19755
G1 X91.684 Y89.820 E6.25741
G1 X90.919 Y90.546 E6.31727
G1 X89.996 Y91.323 E6.38579
G1 X89.281 Y91.872 E6.43698
G1 X88.412 Y92.469 E6.49685
G1 X87.514 Y93.020 E6.55671
G1 X86.587 Y93.523 E6.61657
G1 X85.636 Y93.977 E6.67643
G1 X84.662 Y94.380 E6.73629
G1 X83.522 Y94.776 E6.80481
G1 X82.657 Y95.032 E6.85600
G1 X81.632 Y95.278 E6.91587
G1 X80.596 Y95.470 E6.97573
G1 X79.550 Y95.607 E7.03559
G1 X78.500 Y95.690 E7.09545
G1 X77.446 Y95.718 E7.15531
G1 X76.367 Y95.690 E7.21656
G1 X75.292 Y95.605 E7.27781
G1 X74.223 Y95.464 E7.33907
G1 X73.162 Y95.268 E7.40032
G1 X72.113 Y95.016 E7.46157
G1 X71.079 Y94.709 E7.52282
G1 X70.062 Y94.349 E7.58408
G1 X69.065 Y93.936 E7.64533
G1 X68.092 Y93.472 E7.70658
G1 X67.144 Y92.957 E7.76784
G1 X66.224 Y92.394 E7.82909
G1 X65.335 Y91.783 E7.89034
G1 X64.479 Y91.126 E7.95159
G1 X63.659 Y90.426 E8.01285
G1 X62.877 Y89.683 E8.07410
G1 X62.134 Y88.901 E8.13535
G1 X61.434 Y88.080 E8.19660
G1 X60.777 Y87.225 E8.25786
G1 X60.166 Y86.336 E8.31911
G1 X59.602 Y85.416 E8.38036
G1 X59.088 Y84.468 E8.44161
G1 X58.623 Y83.494 E8.50287
G1 X58.211 Y82.498 E8.56412
G1 X57.850 Y81.481 E8.62537
G1 X57.544 Y80.447 E8.68662
G1 X57.292 Y79.398 E8.74788
G1 X57.067 Y78.185 E8.81793
G1 X57.080 Y77.727 F4800.000
G1 F1800.000 E7.81793
G92 E0
G1 X73.862 Y76.528 F4800.000
G1 E1.00000 F1800.000
G1 X75.523 Y71.416 E1.30523 F810.000
G1 X80.901 Y71.416 E1.61059
G1 X82.562 Y76.528 E1.91584
G1 X78.207 Y79.752 E2.22353
G1 X73.910 Y76.564 E2.52734
G1 X73.497 Y76.364 F4800.000
G1 F1800.000 E1.52734
G92 E0
G1 X78.990 Y79.846 F4800.000
G1 E1.00000 F1800.000
G1 X81.420 Y78.040 E1.17196 F900.000
G1 X81.193 Y78.358 E1.19417
G1 X80.886 Y78.707 E1.22055
G1 X80.365 Y79.163 E1.25990
G1 X79.781 Y79.530 E1.29902
G1 X79.365 Y79.720 E1.32501
G1 X79.047 Y79.829 E1.34409
G1 X78.454 Y79.848 F4800.000
G1 X77.716 Y79.809 E1.38604 F810.000
G1 X77.230 Y79.732 E1.41399
G1 X76.754 Y79.605 E1.44194
G1 X76.295 Y79.428 E1.46990
G1 X75.856 Y79.205 E1.49785
G1 X75.443 Y78.937 E1.52580
G1 X75.061 Y78.627 E1.55375
G1 X74.712 Y78.279 E1.58170
G1 X74.403 Y77.896 E1.60966
G1 X74.135 Y77.484 E1.63761
G1 X73.911 Y77.045 E1.66556
G1 X73.735 Y76.585 E1.69351
G1 X73.607 Y76.110 E1.72146
G1 X73.530 Y75.624 E1.74942
G1 X73.505 Y75.132 E1.77737
G1 X73.530 Y74.641 E1.80532
G1 X73.607 Y74.154 E1.83327
G1 X73.735 Y73.679 E1.86122
G1 X73.911 Y73.219 E1.88918
G1 X74.169 Y72.728 E1.92068
G1 X74.403 Y72.368 E1.94506
G1 X74.712 Y71.985 E1.97302
G1 X75.061 Y71.637 E2.00097
G1 X75.443 Y71.328 E2.02892
G1 X75.856 Y71.059 E2.05687
G1 X76.295 Y70.836 E2.08482
G1 X76.755 Y70.659 E2.11283
G1 X77.268 Y70.518 E2.14304
G1 X77.712 Y70.458 E2.16851
G1 X78.207 Y70.433 E2.19664
G1 X78.702 Y70.458 E2.22476
G1 X79.148 Y70.520 E2.25035
G1 X79.660 Y70.659 E2.28046
G1 X80.120 Y70.836 E2.30846
G1 X80.559 Y71.059 E2.33641
G1 X80.972 Y71.328 E2.36436
G1 X81.354 Y71.637 E2.39231
G1 X81.702 Y71.985 E2.42027
G1 X82.012 Y72.368 E2.44822
G1 X82.280 Y72.781 E2.47617
G1 X82.503 Y73.219 E2.50412
G1 X82.696 Y73.740 E2.53563
G1 X82.807 Y74.154 E2.56001
G1 X82.884 Y74.641 E2.58796
G1 X82.910 Y75.132 E2.61591
G1 X82.884 Y75.624 E2.64387
G1 X82.807 Y76.110 E2.67182
G1 X82.680 Y76.585 E2.69977
G1 X82.283 Y77.568 E2.75995
G1 X82.172 Y77.808 E2.77497
G1 X81.915 Y78.264 E2.80470
G1 X81.613 Y78.690 E2.83434
G1 X81.446 Y78.890 E2.84914
G1 X81.083 Y79.262 E2.87865
G1 X80.685 Y79.593 E2.90807
G1 X80.254 Y79.879 E2.93741
G1 X79.798 Y80.118 E2.96666
G1 X79.319 Y80.306 E2.99586
G1 X79.074 Y80.381 E3.01044
G1 X78.573 Y80.490 E3.03955
G1 X78.428 Y80.509 E3.04787
G1 X78.451 Y79.908 E3.08206
G1 X78.473 Y79.448 F4800.000
G1 X76.781 Y79.189 F4800.000
G1 X76.097 Y78.787 E3.10188 F540.000
G1 X75.735 Y78.535 E3.11290
G1 X75.386 Y78.265 E3.12391
G1 X74.735 Y77.673 E3.14591
G1 F1800.000 E2.14591
G92 E0
G1 X73.905 Y75.110 F4800.000
G1 E1.00000 F1800.000
G1 X74.086 Y74.256 E1.02179 F540.000
G1 X74.211 Y73.834 E1.03280
G1 X74.358 Y73.419 E1.04380
G1 X74.713 Y72.621 E1.06560
G1 F1800.000 E0.06560
G92 E0
