; generated by Slic3r 1.2.0 on 2014-10-27 at 21:04:09

; external perimeters extrusion width = 0.40mm
; perimeters extrusion width = 0.67mm
; infill extrusion width = 0.67mm
; solid infill extrusion width = 0.67mm
; top infill extrusion width = 0.67mm

G21 ; set units to millimeters
M107
M104 S195 ; set temperature
G28 X0 Y0  
G29
M109 S195 ; wait for temperature to be reached
G90 ; use absolute coordinates
G92 E0
M82 ; use absolute distances for extrusion
G1 F1800.000 E-1.00000
G92 E0
G1 Z0.300 F4800.000
G1 X69.685 Y57.520 F4800.000
G1 E1.00000 F1800.000
G1 X71.413 Y55.512 E1.15044 F720.000
G1 X73.245 Y53.597 E1.30088
G1 X74.829 Y52.094 E1.42489
G1 X75.173 Y51.781 E1.45133
G1 X77.202 Y50.063 E1.60230
G1 X79.568 Y48.281 E1.77049
G1 X80.433 Y47.769 E1.82756
G1 X81.347 Y47.350 E1.88468
G1 X82.300 Y47.029 E1.94175
G1 X83.280 Y46.809 E1.99883
G1 X84.279 Y46.693 E2.05592
G1 X85.488 Y46.693 E2.12454
G1 X86.286 Y46.776 E2.17010 F720.000
G1 X87.271 Y46.975 E2.22717
G1 X88.230 Y47.275 E2.28426
G1 X89.153 Y47.674 E2.34137
G1 X90.029 Y48.167 E2.39844
G1 X90.849 Y48.749 E2.45553
G1 X91.603 Y49.413 E2.51261
G1 X92.284 Y50.153 E2.56970
G1 X92.884 Y50.960 E2.62679
G1 X93.396 Y51.825 E2.68389
G1 X93.815 Y52.739 E2.74097
G1 X94.136 Y53.692 E2.79806
G1 X94.356 Y54.673 E2.85514
G1 X94.472 Y55.671 E2.91223
G1 X94.483 Y56.677 E2.96932
G1 X94.389 Y57.678 E3.02641
G1 X94.190 Y58.663 E3.08349
G1 X94.091 Y59.027 E3.10493
G1 X82.927 Y97.195 E5.36309
G1 X82.405 Y98.439 E5.43970
G1 X81.756 Y99.622 E5.51629
G1 X80.987 Y100.730 E5.59290
G1 X80.106 Y101.751 E5.66950
G1 X79.726 Y102.131 E5.69998
G1 X79.123 Y102.675 E5.74613
G1 X78.049 Y103.492 E5.82273
G1 X76.895 Y104.191 E5.89933
G1 X75.675 Y104.766 E5.97594
G1 X74.401 Y105.210 E6.05254
G1 X73.088 Y105.519 E6.12915
G1 X72.558 Y105.603 E6.15962
G1 X71.750 Y105.689 E6.20577
G1 X71.213 Y105.717 E6.23626
G1 X70.401 Y105.718 E6.28240
G1 X69.057 Y105.606 E6.35900
G1 X67.731 Y105.354 E6.43561
G1 X66.440 Y104.964 E6.51221
G1 X65.196 Y104.442 E6.58881
G1 X64.717 Y104.198 E6.61931
G1 X64.013 Y103.793 E6.66544
G1 X63.563 Y103.500 E6.69594
G1 X62.905 Y103.024 E6.74206
G1 X61.883 Y102.143 E6.81867
G1 X61.504 Y101.763 E6.84914
G1 X60.960 Y101.160 E6.89529
G1 X60.622 Y100.742 E6.92579
G1 X60.143 Y100.086 E6.97192
G1 X59.851 Y99.635 E7.00240
G1 X59.444 Y98.932 E7.04855
G1 X58.869 Y97.712 E7.12515
G1 X58.676 Y97.210 E7.15567
G1 X58.425 Y96.438 E7.20178
G1 X58.116 Y95.125 E7.27838
G1 X58.032 Y94.595 E7.30886
G1 X57.946 Y93.787 E7.35501
G1 X57.918 Y93.250 E7.38552
G1 X57.930 Y92.248 E7.44244
G1 X58.580 Y84.033 E7.91036
G1 X58.936 Y81.408 E8.06080
G1 X59.429 Y78.805 E8.21124
G1 X60.058 Y76.231 E8.36169
G1 X60.678 Y74.137 E8.48569
G1 X60.820 Y73.694 E8.51213
G1 X61.715 Y71.200 E8.66258
G1 X62.738 Y68.756 E8.81302
G1 X63.888 Y66.370 E8.96346
G1 X65.161 Y64.046 E9.11390
G1 X66.555 Y61.793 E9.26434
G1 X68.064 Y59.615 E9.41479
G1 X69.647 Y57.567 E9.56182
G1 X70.065 Y57.902 F4800.000
G1 X71.802 Y55.881 E9.71316 F720.000
G1 X73.613 Y53.986 E9.86201
G1 X75.197 Y52.483 E9.98601
G1 X75.521 Y52.189 E10.01086
G1 X77.528 Y50.488 E10.16020
G1 X79.860 Y48.730 E10.32604
G1 X80.676 Y48.246 E10.37993
G1 X81.539 Y47.850 E10.43386
G1 X82.438 Y47.546 E10.48775
G1 X83.364 Y47.338 E10.54164
G1 X84.307 Y47.228 E10.59556
G1 X85.460 Y47.228 E10.66099
G1 X86.202 Y47.305 E10.70337 F720.000
G1 X87.132 Y47.492 E10.75725
G1 X88.038 Y47.775 E10.81116
G1 X88.910 Y48.151 E10.86508
G1 X89.738 Y48.616 E10.91898
G1 X90.512 Y49.165 E10.97288
G1 X91.225 Y49.792 E11.02678
G1 X91.868 Y50.490 E11.08069
G1 X92.435 Y51.252 E11.13459
G1 X92.919 Y52.068 E11.18850
G1 X93.315 Y52.931 E11.24241
G1 X93.619 Y53.830 E11.29631
G1 X93.827 Y54.757 E11.35021
G1 X93.937 Y55.699 E11.40412
G1 X93.948 Y56.649 E11.45802
G1 X93.860 Y57.594 E11.51193
G1 X93.673 Y58.524 E11.56583
G1 X93.577 Y58.877 E11.58659
G1 X82.427 Y97.003 E13.84225
G1 X81.928 Y98.196 E13.91566
G1 X81.307 Y99.330 E13.98908
G1 X80.570 Y100.393 E14.06250
G1 X79.727 Y101.373 E14.13592
G1 X79.347 Y101.752 E14.16640
G1 X78.786 Y102.259 E14.20937
G1 X77.757 Y103.042 E14.28279
G1 X76.652 Y103.714 E14.35620
G1 X75.483 Y104.266 E14.42963
G1 X74.262 Y104.693 E14.50304
G1 X73.004 Y104.990 E14.57647
G1 X72.474 Y105.074 E14.60694
G1 X71.722 Y105.154 E14.64991
G1 X71.185 Y105.182 E14.68040
G1 X70.429 Y105.183 E14.72336
G1 X69.140 Y105.077 E14.79677
G1 X67.870 Y104.836 E14.87020
G1 X66.632 Y104.464 E14.94362
G1 X65.439 Y103.965 E15.01703
G1 X64.960 Y103.721 E15.04753
G1 X64.305 Y103.344 E15.09048
G1 X63.855 Y103.051 E15.12098
G1 X63.242 Y102.607 E15.16392
G1 X62.262 Y101.764 E15.23734
G1 X61.883 Y101.384 E15.26781
G1 X61.376 Y100.823 E15.31079
G1 X61.038 Y100.405 E15.34128
G1 X60.593 Y99.794 E15.38423
G1 X60.300 Y99.344 E15.41471
G1 X59.921 Y98.689 E15.45767
G1 X59.369 Y97.520 E15.53109
G1 X59.176 Y97.018 E15.56161
G1 X58.942 Y96.300 E15.60453
G1 X58.645 Y95.041 E15.67796
G1 X58.561 Y94.511 E15.70843
G1 X58.481 Y93.759 E15.75140
G1 X58.453 Y93.222 E15.78191
G1 X58.464 Y92.289 E15.83489
G1 X59.111 Y84.103 E16.30118
G1 X59.463 Y81.506 E16.45003
G1 X59.950 Y78.930 E16.59888
G1 X60.572 Y76.383 E16.74773
G1 X61.192 Y74.289 E16.87173
G1 X61.325 Y73.873 E16.89658
G1 X62.209 Y71.405 E17.04544
G1 X63.222 Y68.987 E17.19428
G1 X64.359 Y66.625 E17.34313
G1 X65.618 Y64.326 E17.49198
G1 X66.996 Y62.096 E17.64084
G1 X68.489 Y59.941 E17.78969
G1 X70.027 Y57.949 E17.93264
G1 X70.445 Y58.284 F4800.000
G1 X72.190 Y56.249 E18.08486 F720.000
G1 X73.982 Y54.374 E18.23212
G1 X75.566 Y52.871 E18.35613
G1 X77.853 Y50.914 E18.52708
G1 X80.151 Y49.179 E18.69057
G1 X80.919 Y48.723 E18.74128
G1 X81.731 Y48.350 E18.79203
G1 X82.577 Y48.064 E18.84273
G1 X83.448 Y47.867 E18.89344
G1 X84.335 Y47.763 E18.94418
G1 X85.432 Y47.763 E19.00642
G1 X86.118 Y47.834 E19.04562 F720.000
G1 X86.994 Y48.009 E19.09632
G1 X87.847 Y48.275 E19.14705
G1 X88.667 Y48.628 E19.19778
G1 X89.446 Y49.065 E19.24849
G1 X90.175 Y49.581 E19.29921
G1 X90.846 Y50.171 E19.34993
G1 X91.452 Y50.827 E19.40065
G1 X91.986 Y51.543 E19.45138
G1 X92.442 Y52.312 E19.50210
G1 X92.815 Y53.123 E19.55282
G1 X93.101 Y53.969 E19.60354
G1 X93.298 Y54.840 E19.65426
G1 X93.402 Y55.727 E19.70498
G1 X93.413 Y56.621 E19.75570
G1 X93.331 Y57.510 E19.80643
G1 X93.156 Y58.386 E19.85714
G1 X93.063 Y58.727 E19.87723
G1 X81.927 Y96.811 E22.13038
G1 X81.451 Y97.953 E22.20061
G1 X80.857 Y99.038 E22.27085
G1 X80.154 Y100.056 E22.34109
G1 X79.348 Y100.994 E22.41132
G1 X78.969 Y101.373 E22.44180
G1 X78.449 Y101.843 E22.48158
G1 X77.465 Y102.593 E22.55182
G1 X76.409 Y103.237 E22.62206
G1 X75.291 Y103.766 E22.69230
G1 X74.124 Y104.176 E22.76253
G1 X72.920 Y104.461 E22.83277
G1 X72.390 Y104.545 E22.86325
G1 X71.694 Y104.619 E22.90303
G1 X71.157 Y104.647 E22.93352
G1 X70.457 Y104.648 E22.97329
G1 X69.224 Y104.548 E23.04353
G1 X68.009 Y104.319 E23.11377
G1 X66.823 Y103.964 E23.18400
G1 X65.682 Y103.488 E23.25424
G1 X65.204 Y103.244 E23.28474
G1 X64.597 Y102.895 E23.32450
G1 X64.146 Y102.602 E23.35500
G1 X63.579 Y102.191 E23.39476
G1 X62.641 Y101.385 E23.46500
G1 X62.262 Y101.006 E23.49547
G1 X61.792 Y100.486 E23.53526
G1 X61.454 Y100.068 E23.56575
G1 X61.042 Y99.502 E23.60552
G1 X60.749 Y99.052 E23.63600
G1 X60.398 Y98.446 E23.67577
G1 X59.869 Y97.328 E23.74601
G1 X59.676 Y96.826 E23.77653
G1 X59.459 Y96.161 E23.81627
G1 X59.174 Y94.957 E23.88651
G1 X59.090 Y94.427 E23.91699
G1 X59.016 Y93.731 E23.95677
G1 X58.988 Y93.194 E23.98728
G1 X58.998 Y92.331 E24.03631
G1 X59.642 Y84.173 E24.50098
G1 X59.990 Y81.603 E24.64824
G1 X60.471 Y79.055 E24.79550
G1 X61.085 Y76.535 E24.94276
G1 X61.705 Y74.442 E25.06676
G1 X62.704 Y71.610 E25.23727
G1 X63.705 Y69.217 E25.38452
G1 X64.829 Y66.881 E25.53178
G1 X66.075 Y64.606 E25.67904
G1 X67.437 Y62.400 E25.82630
G1 X68.914 Y60.267 E25.97356
G1 X70.407 Y58.331 E26.11244
G1 F1800.000 E25.11244
G92 E0
G1 X83.394 Y56.435 F4800.000
G1 E1.00000 F1800.000
G1 X83.394 Y56.122 E1.01781 F810.000
G1 X83.459 Y55.815 E1.03562
G1 X83.587 Y55.528 E1.05344
G1 X83.771 Y55.275 E1.07125
G1 X84.004 Y55.065 E1.08906
G1 X84.276 Y54.908 E1.10687
G1 X84.574 Y54.811 E1.12468
G1 X84.906 Y54.779 E1.14359
G1 X85.198 Y54.811 E1.16029 F810.000
G1 X85.350 Y54.852 E1.16921
G1 X85.497 Y54.908 E1.17813
G1 X85.768 Y55.065 E1.19594
G1 X85.890 Y55.164 E1.20486
G1 X86.100 Y55.397 E1.22268
G1 X86.257 Y55.668 E1.24049
G1 X86.318 Y55.834 E1.25050
G1 X86.379 Y56.122 E1.26721
G1 X86.379 Y56.435 E1.28503
G1 X86.313 Y56.742 E1.30283
G1 X86.257 Y56.889 E1.31175
G1 X86.175 Y57.045 E1.32177
G1 X86.001 Y57.283 E1.33848
G1 X85.768 Y57.492 E1.35629
G1 X85.497 Y57.649 E1.37410
G1 X85.350 Y57.706 E1.38302
G1 X85.043 Y57.771 E1.40083
G1 X84.886 Y57.779 E1.40975
G1 X84.730 Y57.771 E1.41867
G1 X84.423 Y57.706 E1.43648
G1 X84.136 Y57.578 E1.45429
G1 X83.882 Y57.394 E1.47210
G1 X83.771 Y57.283 E1.48102
G1 X83.673 Y57.161 E1.48994
G1 X83.516 Y56.889 E1.50775
G1 X83.459 Y56.742 E1.51667
G1 X83.404 Y56.495 E1.53108
G1 F1800.000 E0.53108
G92 E0
G1 X84.988 Y54.497 F4800.000
G1 X83.171 Y56.690 F4800.000
G1 E1.00000 F1800.000
G1 X83.412 Y57.124 E1.02816 F810.000
G1 X83.623 Y57.416 E1.04864
G1 X83.887 Y57.654 E1.06882
G1 X84.241 Y57.855 E1.09191
G1 X84.555 Y58.124 E1.11540
G1 X83.289 Y60.255 E1.25617
G1 X81.684 Y63.225 E1.44788
G1 X80.238 Y66.272 E1.63939
G1 X79.134 Y69.088 E1.81117
G1 X78.663 Y68.844 E1.84132
G1 X78.378 Y68.405 E1.87101
G1 X78.109 Y68.072 E1.89532
G1 X77.806 Y67.770 E1.91963
G1 X77.473 Y67.500 E1.94393
G1 X77.114 Y67.267 E1.96824
G1 X76.733 Y67.073 E1.99255
G1 X76.333 Y66.919 E2.01686
G1 X75.920 Y66.809 E2.04117
G1 X75.497 Y66.742 E2.06548
G1 X75.069 Y66.719 E2.08978
G1 X73.999 Y66.775 E2.15063
G1 X75.148 Y65.013 E2.27008
G1 X76.479 Y63.278 E2.39426
G1 X77.897 Y61.618 E2.51823
G1 X79.400 Y60.034 E2.64220
G1 X80.984 Y58.532 E2.76617
G1 X82.641 Y57.116 E2.88995
G1 X83.124 Y56.728 E2.92513
G1 X83.509 Y56.477 F4800.000
G1 F1800.000 E1.92513
G92 E0
G1 X77.018 Y67.434 F4800.000
G1 E1.00000 F1800.000
G1 X77.360 Y67.656 E1.02316 F810.000
G1 X77.677 Y67.913 E1.04632
G1 X77.965 Y68.201 E1.06948
G1 X78.222 Y68.518 E1.09264
G1 X78.336 Y68.693 E1.10450
G1 X78.359 Y68.693 E1.10583
G1 X78.629 Y69.224 E1.13963
G1 X78.775 Y69.605 E1.16279
G1 X78.881 Y69.999 E1.18595
G1 X78.945 Y70.402 E1.20911
G1 X78.966 Y70.809 E1.23227
G1 X78.945 Y71.216 E1.25543
G1 X78.881 Y71.619 E1.27859
G1 X78.775 Y72.013 E1.30176
G1 X78.629 Y72.394 E1.32492
G1 X78.444 Y72.757 E1.34808
G1 X78.222 Y73.099 E1.37124
G1 X77.965 Y73.416 E1.39440
G1 X77.677 Y73.705 E1.41756
G1 X77.360 Y73.961 E1.44072
G1 X77.018 Y74.183 E1.46388
G1 X76.654 Y74.369 E1.48704
G1 X76.274 Y74.515 E1.51021
G1 X75.880 Y74.620 E1.53337
G1 X75.477 Y74.684 E1.55653
G1 X75.069 Y74.706 E1.57969
G1 X74.662 Y74.684 E1.60285
G1 X74.259 Y74.620 E1.62601
G1 X73.865 Y74.515 E1.64917
G1 X73.485 Y74.369 E1.67233
G1 X73.121 Y74.183 E1.69549
G1 X72.779 Y73.961 E1.71866
G1 X72.462 Y73.705 E1.74182
G1 X72.174 Y73.416 E1.76498
G1 X71.917 Y73.099 E1.78814
G1 X71.695 Y72.757 E1.81130
G1 X71.510 Y72.394 E1.83446
G1 X71.363 Y72.013 E1.85762
G1 X71.258 Y71.619 E1.88078
G1 X71.194 Y71.216 E1.90394
G1 X71.173 Y70.809 E1.92711
G1 X71.194 Y70.402 E1.95027
G1 X71.258 Y69.999 E1.97343
G1 X71.363 Y69.605 E1.99659
G1 X71.510 Y69.224 E2.01975
G1 X71.709 Y68.838 E2.04444
G1 X71.917 Y68.518 E2.06606
G1 X72.174 Y68.201 E2.08923
G1 X72.462 Y67.913 E2.11239
G1 X72.779 Y67.656 E2.13555
G1 X73.121 Y67.434 E2.15871
G1 X73.485 Y67.249 E2.18187
G1 X73.865 Y67.103 E2.20503
G1 X74.259 Y66.997 E2.22819
G1 X74.662 Y66.933 E2.25135
G1 X75.096 Y66.914 E2.27604
G1 X75.477 Y66.933 E2.29767 F810.000
G1 X75.880 Y66.997 E2.32083
G1 X76.274 Y67.103 E2.34399
G1 X76.654 Y67.249 E2.36715
G1 X76.964 Y67.407 E2.38690
G1 F1800.000 E1.38690
G92 E0
G1 X74.942 Y66.565 F4800.000
G1 X71.021 Y72.005 F4800.000
G1 E1.00000 F1800.000
G1 X71.761 Y73.213 E1.08042 F810.000
G1 X72.030 Y73.545 E1.10473
G1 X72.333 Y73.848 E1.12903
G1 X72.666 Y74.117 E1.15334
G1 X73.025 Y74.351 E1.17765
G1 X73.406 Y74.545 E1.20196
G1 X73.806 Y74.698 E1.22627
G1 X74.219 Y74.809 E1.25057
G1 X74.642 Y74.876 E1.27488
G1 X75.069 Y74.899 E1.29919
G1 X75.497 Y74.876 E1.32350
G1 X75.920 Y74.809 E1.34781
G1 X76.335 Y74.698 E1.37223
G1 X77.195 Y74.381 E1.42428
G1 X76.876 Y75.810 E1.50740
G1 X76.089 Y79.104 E1.69976
G1 X75.477 Y82.426 E1.89157
G1 X75.038 Y85.777 E2.08349
G1 X74.717 Y89.361 E2.28782
G1 X74.187 Y89.174 E2.31974
G1 X73.729 Y88.803 E2.35320
G1 X73.291 Y88.519 E2.38283
G1 X72.827 Y88.282 E2.41245
G1 X72.339 Y88.095 E2.44208
G1 X71.835 Y87.960 E2.47171
G1 X71.320 Y87.878 E2.50134
G1 X70.799 Y87.851 E2.53097
G1 X70.277 Y87.879 E2.56065
G1 X69.763 Y87.960 E2.59023
G1 X69.259 Y88.095 E2.61986
G1 X68.771 Y88.282 E2.64949
G1 X68.306 Y88.519 E2.67912
G1 X67.241 Y89.184 E2.75044
G1 X67.243 Y87.342 E2.85503
G1 X67.415 Y85.162 E2.97921
G1 X67.700 Y82.997 E3.10318
G1 X68.098 Y80.851 E3.22715
G1 X68.607 Y78.728 E3.35112
G1 X69.227 Y76.635 E3.47509
G1 X69.956 Y74.577 E3.59906
G1 X70.998 Y72.060 E3.75374
G1 X71.312 Y71.730 F4800.000
G1 F1800.000 E2.75374
G92 E0
G1 X70.799 Y88.059 F4800.000
G1 E1.00000 F1800.000
G1 X70.829 Y88.061 E1.00169 F810.000
G1 X71.298 Y88.085 E1.02839 F810.000
G1 X71.792 Y88.164 E1.05678
G1 X72.275 Y88.293 E1.08517
G1 X72.742 Y88.472 E1.11357
G1 X73.187 Y88.699 E1.14196
G1 X73.607 Y88.972 E1.17035
G1 X73.995 Y89.286 E1.19874
G1 X74.349 Y89.640 E1.22713
G1 X74.663 Y90.028 E1.25552
G1 X74.936 Y90.448 E1.28392
G1 X75.163 Y90.893 E1.31231
G1 X75.342 Y91.360 E1.34070
G1 X75.471 Y91.843 E1.36909
G1 X75.550 Y92.337 E1.39748
G1 X75.576 Y92.836 E1.42588
G1 X75.550 Y93.335 E1.45427
G1 X75.471 Y93.829 E1.48266
G1 X75.342 Y94.312 E1.51105
G1 X75.163 Y94.779 E1.53944
G1 X74.936 Y95.224 E1.56783
G1 X74.663 Y95.644 E1.59622
G1 X74.328 Y96.053 E1.62630
G1 X73.995 Y96.386 E1.65300
G1 X73.607 Y96.700 E1.68139
G1 X73.187 Y96.973 E1.70978
G1 X72.742 Y97.200 E1.73818
G1 X72.275 Y97.379 E1.76657
G1 X71.792 Y97.508 E1.79496
G1 X71.298 Y97.587 E1.82335
G1 X70.799 Y97.613 E1.85174
G1 X70.300 Y97.587 E1.88013
G1 X69.806 Y97.508 E1.90853
G1 X69.323 Y97.379 E1.93692
G1 X68.856 Y97.200 E1.96531
G1 X68.411 Y96.973 E1.99370
G1 X67.991 Y96.700 E2.02209
G1 X67.603 Y96.386 E2.05048
G1 X67.249 Y96.032 E2.07888
G1 X66.934 Y95.644 E2.10727
G1 X66.662 Y95.224 E2.13566
G1 X66.435 Y94.779 E2.16405
G1 X66.256 Y94.312 E2.19244
G1 X66.127 Y93.829 E2.22083
G1 X66.048 Y93.335 E2.24923
G1 X66.022 Y92.836 E2.27762
G1 X66.048 Y92.337 E2.30601
G1 X66.127 Y91.843 E2.33440
G1 X66.267 Y91.332 E2.36447
G1 X66.435 Y90.893 E2.39118
G1 X66.662 Y90.448 E2.41957
G1 X66.934 Y90.028 E2.44796
G1 X67.249 Y89.640 E2.47635
G1 X67.603 Y89.286 E2.50474
G1 X67.991 Y88.972 E2.53313
G1 X68.411 Y88.699 E2.56153
G1 X68.856 Y88.472 E2.58992
G1 X69.323 Y88.293 E2.61831
G1 X69.806 Y88.164 E2.64670
G1 X70.300 Y88.085 E2.67509
G1 X70.739 Y88.062 E2.70008
G1 X71.035 Y87.718 F4800.000
G1 F1800.000 E1.70008
G92 E0
G1 X75.269 Y89.195 F4800.000
G1 E1.00000 F1800.000
G1 X75.262 Y89.967 E1.04379 F900.000
G1 X75.208 Y89.883 E1.04945
G1 X75.264 Y89.255 E1.08525
G1 F1800.000 E0.08525
G92 E0
G1 X66.705 Y89.246 F4800.000
G1 E1.00000 F1800.000
G1 X66.705 Y89.460 E1.01218 F900.000
G1 X66.646 Y89.533 E1.01749
G1 X66.655 Y89.433 E1.02320
G1 X66.706 Y88.567 E1.07248 F900.000
G1 X66.706 Y89.186 E1.10765
G1 F1800.000 E0.10765
G92 E0
G1 X77.625 Y74.915 F4800.000
G1 E1.00000 F1800.000
G1 X77.755 Y74.330 E1.03400 F900.000
G1 X77.810 Y74.286 E1.03802 F900.000
G1 X77.642 Y74.857 E1.07184
G1 X78.156 Y75.009 F4800.000
G1 X77.840 Y76.081 E1.13533 F810.000
G1 X77.067 Y79.314 E1.32411
G1 X76.464 Y82.584 E1.51291
G1 X76.032 Y85.883 E1.70182
G1 X75.801 Y89.276 E1.89493
G1 X75.784 Y92.828 E2.09662
G1 X75.757 Y93.357 E2.12673
G1 X75.675 Y93.872 E2.15636
G1 X75.540 Y94.376 E2.18599
G1 X75.353 Y94.864 E2.21562
G1 X75.116 Y95.328 E2.24525
G1 X74.832 Y95.766 E2.27488
G1 X74.504 Y96.172 E2.30451
G1 X74.135 Y96.541 E2.33414
G1 X73.730 Y96.868 E2.36372
G1 X73.291 Y97.153 E2.39340
G1 X72.827 Y97.390 E2.42303
G1 X72.339 Y97.577 E2.45266
G1 X71.836 Y97.712 E2.48224
G1 X71.320 Y97.794 E2.51191
G1 X70.799 Y97.821 E2.54154
G1 X70.278 Y97.794 E2.57117
G1 X69.763 Y97.712 E2.60080
