; generated by Slic3r 1.2.0 on 2014-10-25 at 11:26:32

; external perimeters extrusion width = 0.40mm
; perimeters extrusion width = 0.67mm
; infill extrusion width = 0.67mm
; solid infill extrusion width = 0.67mm
; top infill extrusion width = 0.67mm

G21 ; set units to millimeters
M107
M104 S195 ; set temperature
G28 X0 Y0  
G29
M109 S195 ; wait for temperature to be reached
G90 ; use absolute coordinates
G92 E0
M82 ; use absolute distances for extrusion
G1 F1800.000 E-1.00000
G92 E0
G1 Z0.300 F4800.000
G1 X47.489 Y47.879 F4800.000
G1 E1.00000 F1800.000
G1 X48.160 Y47.222 E1.05331 F720.000
G1 X50.392 Y45.211 E1.22392
G1 X51.135 Y44.613 E1.27808
G1 X53.554 Y42.830 E1.44870
G1 X54.352 Y42.308 E1.50285
G1 X56.934 Y40.771 E1.67348
G1 X57.779 Y40.330 E1.72762
G1 X60.513 Y39.048 E1.89908
G1 X61.384 Y38.697 E1.95239
G1 X64.216 Y37.693 E2.12302
G1 X65.131 Y37.425 E2.17716
G1 X68.062 Y36.701 E2.34862
G1 X68.985 Y36.527 E2.40193
G1 X71.959 Y36.095 E2.57256
G1 X72.908 Y36.011 E2.62670
G1 X75.910 Y35.873 E2.79734
G1 X76.863 Y35.882 E2.85147
G1 X79.864 Y36.038 E3.02211 F720.000
G1 X80.812 Y36.141 E3.07624
G1 X83.797 Y36.594 E3.24770
G1 X84.716 Y36.786 E3.30101
G1 X87.629 Y37.525 E3.47163
G1 X88.538 Y37.810 E3.52578
G1 X91.364 Y38.831 E3.69638
G1 X92.242 Y39.205 E3.75055
G1 X94.954 Y40.498 E3.92115
G1 X95.791 Y40.955 E3.97532
G1 X98.375 Y42.516 E4.14677
G1 X99.151 Y43.045 E4.20009
G1 X101.570 Y44.852 E4.37154
G1 X102.290 Y45.454 E4.42486
G1 X104.510 Y47.479 E4.59547
G1 X105.178 Y48.160 E4.64963
G1 X107.189 Y50.392 E4.82026
G1 X107.787 Y51.135 E4.87440
G1 X109.569 Y53.554 E5.04500
G1 X110.092 Y54.352 E5.09917
G1 X111.636 Y56.947 E5.27062
G1 X112.070 Y57.779 E5.32393
G1 X113.347 Y60.499 E5.49457
G1 X113.703 Y61.384 E5.54870
G1 X114.707 Y64.216 E5.71934
G1 X114.975 Y65.131 E5.77347
G1 X115.696 Y68.048 E5.94411
G1 X115.873 Y68.985 E5.99824
G1 X116.305 Y71.959 E6.16888
G1 X116.389 Y72.908 E6.22301
G1 X116.527 Y75.910 E6.39365
G1 X116.518 Y76.863 E6.44778
G1 X116.362 Y79.864 E6.61840
G1 X116.259 Y80.812 E6.67255
G1 X115.806 Y83.797 E6.84402
G1 X115.614 Y84.716 E6.89732
G1 X114.875 Y87.629 E7.06795
G1 X114.590 Y88.538 E7.12209
G1 X113.569 Y91.364 E7.29272
G1 X113.195 Y92.242 E7.34686
G1 X111.902 Y94.954 E7.51748
G1 X111.445 Y95.791 E7.57163
G1 X109.892 Y98.363 E7.74227
G1 X109.355 Y99.151 E7.79640
G1 X107.558 Y101.559 E7.96701
G1 X106.946 Y102.290 E8.02117
G1 X104.921 Y104.511 E8.19181
G1 X104.240 Y105.178 E8.24594
G1 X102.008 Y107.189 E8.41658
G1 X101.265 Y107.787 E8.47071
G1 X98.846 Y109.570 E8.64134
G1 X98.048 Y110.092 E8.69548
G1 X95.467 Y111.628 E8.86607
G1 X94.621 Y112.070 E8.92025
G1 X91.901 Y113.347 E9.09089
G1 X91.016 Y113.703 E9.14502
G1 X88.184 Y114.707 E9.31566
G1 X87.269 Y114.975 E9.36979
G1 X84.352 Y115.696 E9.54042
G1 X83.415 Y115.873 E9.59456
G1 X80.442 Y116.305 E9.76519
G1 X79.492 Y116.389 E9.81933
G1 X76.490 Y116.527 E9.98996
G1 X75.537 Y116.518 E10.04410
G1 X72.522 Y116.360 E10.21555
G1 X71.588 Y116.259 E10.26887
G1 X68.617 Y115.809 E10.43949
G1 X67.684 Y115.614 E10.49364
G1 X64.771 Y114.875 E10.66426
G1 X63.862 Y114.589 E10.71841
G1 X61.035 Y113.569 E10.88904
G1 X60.158 Y113.195 E10.94318
G1 X57.446 Y111.902 E11.11381
G1 X56.609 Y111.445 E11.16795
G1 X54.037 Y109.892 E11.33858
G1 X53.249 Y109.355 E11.39272
G1 X50.830 Y107.548 E11.56418
G1 X50.110 Y106.946 E11.61749
G1 X47.889 Y104.921 E11.78812
G1 X47.222 Y104.240 E11.84226
G1 X45.211 Y102.008 E12.01289
G1 X44.613 Y101.265 E12.06703
G1 X42.830 Y98.846 E12.23766
G1 X42.308 Y98.048 E12.29180
G1 X40.771 Y95.466 E12.46243
G1 X40.330 Y94.621 E12.51657
G1 X39.053 Y91.901 E12.68720
G1 X38.697 Y91.016 E12.74134
G1 X37.694 Y88.184 E12.91195
G1 X37.425 Y87.269 E12.96611
G1 X36.701 Y84.338 E13.13757
G1 X36.527 Y83.415 E13.19087
G1 X36.095 Y80.441 E13.36151
G1 X36.011 Y79.492 E13.41564
G1 X35.873 Y76.490 E13.58628
G1 X35.882 Y75.537 E13.64042
G1 X36.039 Y72.536 E13.81104
G1 X36.141 Y71.588 E13.86518
G1 X36.591 Y68.617 E14.03580
G1 X36.786 Y67.684 E14.08995
G1 X37.525 Y64.772 E14.26054
G1 X37.811 Y63.862 E14.31472
G1 X38.831 Y61.036 E14.48531
G1 X39.205 Y60.158 E14.53949
G1 X40.498 Y57.446 E14.71012
G1 X40.955 Y56.609 E14.76426
G1 X42.516 Y54.025 E14.93571
G1 X43.045 Y53.249 E14.98903
G1 X44.842 Y50.841 E15.15964
G1 X45.454 Y50.110 E15.21380
G1 X47.448 Y47.923 E15.38185
G1 X47.844 Y48.284 F4800.000
G1 X48.519 Y47.619 E15.43567 F720.000
G1 X50.732 Y45.625 E15.60478
G1 X51.454 Y45.043 E15.65745
G1 X53.852 Y43.276 E15.82658
G1 X54.627 Y42.768 E15.87924
G1 X57.186 Y41.244 E16.04837
G1 X58.008 Y40.814 E16.10102
G1 X60.718 Y39.543 E16.27099
G1 X61.564 Y39.201 E16.32280
G1 X64.371 Y38.206 E16.49194
G1 X65.261 Y37.945 E16.54459
G1 X68.167 Y37.227 E16.71455
G1 X69.063 Y37.057 E16.76637
G1 X72.011 Y36.628 E16.93551
G1 X72.934 Y36.546 E16.98816
G1 X75.910 Y36.408 E17.15730
G1 X76.837 Y36.417 E17.20994
G1 X79.812 Y36.572 E17.37909 F720.000
G1 X80.733 Y36.671 E17.43173
G1 X83.693 Y37.119 E17.60169
G1 X84.586 Y37.306 E17.65351
G1 X87.473 Y38.037 E17.82264
G1 X88.358 Y38.315 E17.87529
G1 X91.159 Y39.326 E18.04441
G1 X92.013 Y39.689 E18.09708
G1 X94.701 Y40.970 E18.26619
G1 X95.515 Y41.415 E18.31886
G1 X98.078 Y42.961 E18.48883
G1 X98.832 Y43.475 E18.54065
G1 X101.230 Y45.266 E18.71061
G1 X101.930 Y45.851 E18.76243
G1 X104.132 Y47.858 E18.93156
G1 X104.781 Y48.519 E18.98422
G1 X106.775 Y50.732 E19.15336
G1 X107.357 Y51.454 E19.20600
G1 X109.124 Y53.851 E19.37511
G1 X109.632 Y54.627 E19.42778
G1 X111.163 Y57.199 E19.59775
G1 X111.586 Y58.008 E19.64957
G1 X112.852 Y60.704 E19.81871
G1 X113.199 Y61.564 E19.87135
G1 X114.194 Y64.371 E20.04049
G1 X114.455 Y65.261 E20.09314
G1 X115.170 Y68.153 E20.26228
G1 X115.343 Y69.063 E20.31492
G1 X115.772 Y72.011 E20.48407
G1 X115.854 Y72.934 E20.53671
G1 X115.992 Y75.910 E20.70585
G1 X115.983 Y76.837 E20.75849
G1 X115.829 Y79.811 E20.92761
G1 X115.729 Y80.733 E20.98027
G1 X115.281 Y83.693 E21.15025
G1 X115.094 Y84.586 E21.20206
G1 X114.362 Y87.473 E21.37120
G1 X114.085 Y88.358 E21.42384
G1 X113.074 Y91.159 E21.59298
G1 X112.711 Y92.013 E21.64563
G1 X111.430 Y94.702 E21.81476
G1 X110.985 Y95.515 E21.86741
G1 X109.447 Y98.066 E22.03656
G1 X108.925 Y98.832 E22.08920
G1 X107.144 Y101.219 E22.25832
G1 X106.549 Y101.930 E22.31098
G1 X104.542 Y104.132 E22.48013
G1 X103.881 Y104.781 E22.53277
G1 X101.668 Y106.775 E22.70191
G1 X100.946 Y107.357 E22.75455
G1 X98.548 Y109.124 E22.92369
G1 X97.773 Y109.632 E22.97634
G1 X95.214 Y111.156 E23.14544
G1 X94.392 Y111.586 E23.19812
G1 X91.696 Y112.852 E23.36727
G1 X90.836 Y113.199 E23.41991
G1 X88.028 Y114.194 E23.58905
G1 X87.139 Y114.455 E23.64169
G1 X84.248 Y115.170 E23.81083
G1 X83.337 Y115.343 E23.86348
G1 X80.389 Y115.772 E24.03262
G1 X79.466 Y115.854 E24.08526
G1 X76.490 Y115.992 E24.25440
G1 X75.563 Y115.983 E24.30705
G1 X72.574 Y115.827 E24.47701
G1 X71.667 Y115.729 E24.52883
G1 X68.722 Y115.284 E24.69796
G1 X67.814 Y115.094 E24.75061
G1 X64.927 Y114.362 E24.91974
G1 X64.042 Y114.085 E24.97240
G1 X61.240 Y113.074 E25.14154
G1 X60.387 Y112.711 E25.19418
G1 X57.698 Y111.430 E25.36332
G1 X56.885 Y110.985 E25.41597
G1 X54.334 Y109.447 E25.58511
G1 X53.568 Y108.925 E25.63775
G1 X51.169 Y107.134 E25.80772
G1 X50.469 Y106.549 E25.85954
G1 X48.268 Y104.542 E26.02868
G1 X47.619 Y103.881 E26.08132
G1 X45.625 Y101.668 E26.25047
G1 X45.043 Y100.946 E26.30311
G1 X43.276 Y98.548 E26.47225
G1 X42.768 Y97.773 E26.52489
G1 X41.244 Y95.213 E26.69403
G1 X40.814 Y94.392 E26.74667
G1 X39.548 Y91.696 E26.91582
G1 X39.201 Y90.836 E26.96846
G1 X38.206 Y88.029 E27.13758
G1 X37.945 Y87.139 E27.19024
G1 X37.227 Y84.233 E27.36021
G1 X37.057 Y83.337 E27.41203
G1 X36.628 Y80.389 E27.58117
G1 X36.546 Y79.466 E27.63381
G1 X36.408 Y76.490 E27.80296
G1 X36.417 Y75.563 E27.85560
G1 X36.572 Y72.588 E28.02473
G1 X36.671 Y71.667 E28.07738
G1 X37.116 Y68.722 E28.24650
G1 X37.306 Y67.814 E28.29916
G1 X38.037 Y64.927 E28.46827
G1 X38.315 Y64.042 E28.52095
G1 X39.326 Y61.241 E28.69005
G1 X39.689 Y60.387 E28.74273
G1 X40.970 Y57.698 E28.91187
G1 X41.415 Y56.885 E28.96452
G1 X42.961 Y54.322 E29.13448
G1 X43.475 Y53.568 E29.18630
G1 X45.256 Y51.181 E29.35543
G1 X45.851 Y50.470 E29.40808
G1 X47.803 Y48.328 E29.57264
G1 X48.199 Y48.688 F4800.000
G1 X48.879 Y48.016 E29.62696 F720.000
G1 X51.072 Y46.039 E29.79458
G1 X51.773 Y45.473 E29.84576
G1 X54.149 Y43.721 E30.01340
G1 X54.903 Y43.227 E30.06456
G1 X57.439 Y41.716 E30.23220
G1 X58.237 Y41.298 E30.28336
G1 X60.923 Y40.038 E30.45183
G1 X61.745 Y39.706 E30.50216
G1 X64.527 Y38.719 E30.66980
G1 X65.391 Y38.465 E30.72096
G1 X68.271 Y37.752 E30.88943
G1 X69.142 Y37.587 E30.93975
G1 X72.064 Y37.161 E31.10740
G1 X72.961 Y37.081 E31.15855
G1 X75.910 Y36.944 E31.32620
G1 X76.811 Y36.952 E31.37735
G1 X79.759 Y37.105 E31.54500 F720.000
G1 X80.655 Y37.201 E31.59615
G1 X83.588 Y37.645 E31.76463
G1 X84.456 Y37.825 E31.81495
G1 X87.318 Y38.550 E31.98259
G1 X88.177 Y38.819 E32.03375
G1 X90.954 Y39.821 E32.20137
G1 X91.784 Y40.173 E32.25255
G1 X94.449 Y41.442 E32.42018
G1 X95.240 Y41.874 E32.47135
G1 X97.780 Y43.407 E32.63982
G1 X98.513 Y43.906 E32.69015
G1 X100.891 Y45.680 E32.85862
G1 X101.571 Y46.248 E32.90895
G1 X103.753 Y48.236 E33.07658
G1 X104.384 Y48.879 E33.12775
G1 X106.361 Y51.072 E33.29540
G1 X106.927 Y51.773 E33.34655
G1 X108.679 Y54.149 E33.51417
G1 X109.173 Y54.903 E33.56535
G1 X110.691 Y57.452 E33.73381
G1 X111.102 Y58.237 E33.78414
G1 X112.357 Y60.909 E33.95180
G1 X112.694 Y61.745 E34.00294
G1 X113.681 Y64.527 E34.17059
G1 X113.935 Y65.391 E34.22174
G1 X114.645 Y68.257 E34.38940
G1 X114.813 Y69.142 E34.44054
G1 X115.239 Y72.064 E34.60820
G1 X115.319 Y72.961 E34.65934
G1 X115.456 Y75.910 E34.82699
G1 X115.448 Y76.811 E34.87814
G1 X115.295 Y79.759 E35.04577
G1 X115.199 Y80.655 E35.09694
G1 X114.755 Y83.588 E35.26542
G1 X114.575 Y84.456 E35.31574
G1 X113.850 Y87.318 E35.48339
G1 X113.581 Y88.177 E35.53454
G1 X112.579 Y90.955 E35.70218
G1 X112.227 Y91.784 E35.75334
G1 X110.958 Y94.449 E35.92098
G1 X110.526 Y95.240 E35.97214
G1 X109.001 Y97.768 E36.13979
G1 X108.494 Y98.513 E36.19094
G1 X106.730 Y100.879 E36.35857
G1 X106.152 Y101.571 E36.40974
G1 X104.163 Y103.753 E36.57739
G1 X103.521 Y104.384 E36.62854
G1 X101.328 Y106.361 E36.79619
G1 X100.627 Y106.927 E36.84734
G1 X98.251 Y108.679 E37.01499
G1 X97.497 Y109.173 E37.06614
G1 X94.962 Y110.684 E37.23375
G1 X94.163 Y111.102 E37.28493
G1 X91.491 Y112.357 E37.45259
G1 X90.655 Y112.694 E37.50373
G1 X87.873 Y113.681 E37.67139
G1 X87.009 Y113.935 E37.72253
G1 X84.143 Y114.645 E37.89018
G1 X83.258 Y114.813 E37.94133
G1 X80.336 Y115.239 E38.10898
G1 X79.439 Y115.319 E38.16013
G1 X76.490 Y115.456 E38.32778
G1 X75.589 Y115.448 E38.37893
G1 X72.627 Y115.294 E38.54740
G1 X71.745 Y115.199 E38.59773
G1 X68.826 Y114.758 E38.76537
G1 X67.944 Y114.575 E38.81653
G1 X65.082 Y113.850 E38.98417
G1 X64.223 Y113.581 E39.03533
G1 X61.445 Y112.579 E39.20298
G1 X60.616 Y112.227 E39.25413
G1 X57.951 Y110.957 E39.42178
G1 X57.160 Y110.526 E39.47293
G1 X54.632 Y109.001 E39.64058
G1 X53.887 Y108.494 E39.69173
G1 X51.509 Y106.720 E39.86021
G1 X50.829 Y106.152 E39.91053
G1 X48.647 Y104.163 E40.07818
G1 X48.016 Y103.521 E40.12933
G1 X46.039 Y101.328 E40.29698
G1 X45.473 Y100.627 E40.34813
G1 X43.721 Y98.251 E40.51578
G1 X43.227 Y97.497 E40.56693
G1 X41.716 Y94.961 E40.73458
G1 X41.298 Y94.163 E40.78573
G1 X40.043 Y91.491 E40.95338
G1 X39.706 Y90.655 E41.00452
G1 X38.719 Y87.873 E41.17216
G1 X38.465 Y87.009 E41.22332
G1 X37.752 Y84.129 E41.39180
G1 X37.587 Y83.258 E41.44212
G1 X37.161 Y80.336 E41.60978
G1 X37.081 Y79.439 E41.66092
G1 X36.944 Y76.490 E41.82858
G1 X36.952 Y75.589 E41.87972
G1 X37.105 Y72.641 E42.04737
G1 X37.201 Y71.745 E42.09852
G1 X37.642 Y68.826 E42.26615
G1 X37.825 Y67.944 E42.31732
G1 X38.550 Y65.083 E42.48493
G1 X38.819 Y64.223 E42.53612
G1 X39.821 Y61.446 E42.70373
G1 X40.173 Y60.616 E42.75491
G1 X41.443 Y57.951 E42.92257
G1 X41.874 Y57.160 E42.97371
G1 X43.407 Y54.620 E43.14219
G1 X43.906 Y53.887 E43.19251
G1 X45.670 Y51.521 E43.36015
G1 X46.248 Y50.829 E43.41131
G1 X48.159 Y48.733 E43.57238
G1 F1800.000 E42.57238
G92 E0
G1 X57.983 Y53.404 F4800.000
G1 E1.00000 F1800.000
G1 X58.650 Y53.916 E1.04777 F810.000
G1 X69.211 Y68.450 E2.06790
G1 X68.642 Y69.019 E2.11357
G1 X67.035 Y71.231 E2.26888
G1 X66.793 Y71.706 E2.29911
G1 X65.948 Y74.307 E2.45442
G1 X65.864 Y74.832 E2.48465
G1 X65.864 Y77.568 E2.63996
G1 X65.990 Y78.360 E2.68554
G1 X48.908 Y83.911 E3.70541
G1 X48.078 Y83.959 E3.75268
G1 X47.747 Y82.662 E3.82866
G1 X47.440 Y81.118 E3.91809
G1 X47.251 Y79.842 E3.99133
G1 X47.126 Y78.569 E4.06398
G1 X47.111 Y78.569 E4.06480
G1 X47.033 Y76.987 E4.15474
G1 X47.033 Y75.413 E4.24411
G1 X47.097 Y74.124 E4.31737
G1 X47.251 Y72.558 E4.40676
G1 X47.440 Y71.282 E4.48001
G1 X47.748 Y69.738 E4.56940
G1 X48.061 Y68.486 E4.64265
G1 X48.518 Y66.980 E4.73205
G1 X48.952 Y65.765 E4.80529
G1 X49.555 Y64.311 E4.89469
G1 X50.106 Y63.145 E4.96793
G1 X50.849 Y61.757 E5.05733
G1 X51.512 Y60.650 E5.13057
G1 X52.386 Y59.341 E5.21997
G1 X53.155 Y58.305 E5.29322
G1 X54.153 Y57.088 E5.38261
G1 X55.020 Y56.133 E5.45586
G1 X56.135 Y55.017 E5.54541
G1 X57.938 Y53.443 E5.68133
G1 X58.247 Y53.103 F4800.000
G1 F1800.000 E4.68133
G92 E0
G1 X60.111 Y51.912 F4800.000
G1 E1.00000 F1800.000
G1 X61.752 Y50.851 E1.11098 F810.000
G1 X63.145 Y50.106 E1.20066
G1 X64.311 Y49.555 E1.27391
G1 X65.766 Y48.952 E1.36330
G1 X66.980 Y48.518 E1.43655
G1 X68.487 Y48.061 E1.52594
G1 X69.738 Y47.747 E1.59919
G1 X71.282 Y47.440 E1.68858
G1 X72.558 Y47.251 E1.76183
G1 X74.125 Y47.097 E1.85122
G1 X75.413 Y47.033 E1.92447
G1 X76.987 Y47.033 E2.01386
G1 X78.276 Y47.097 E2.08711
G1 X79.842 Y47.251 E2.17650
G1 X81.118 Y47.440 E2.24975
G1 X82.662 Y47.747 E2.33915
G1 X83.914 Y48.061 E2.41239
G1 X85.420 Y48.518 E2.50179
G1 X86.634 Y48.952 E2.57503
G1 X88.089 Y49.555 E2.66443
G1 X89.255 Y50.106 E2.73767
G1 X90.648 Y50.851 E2.82738
G1 X92.230 Y51.880 E2.93454
G1 X91.970 Y52.623 E2.97924
G1 X81.411 Y67.158 E3.99942
G1 X80.694 Y66.793 E4.04509
G1 X78.093 Y65.948 E4.20040
G1 X77.567 Y65.864 E4.23063
G1 X74.832 Y65.864 E4.38593
G1 X74.307 Y65.948 E4.41616
G1 X71.706 Y66.793 E4.57147
G1 X70.990 Y67.157 E4.61705
G1 X60.438 Y52.633 E5.63648
G1 X60.136 Y51.967 E5.67801
G1 X59.911 Y51.566 F4800.000
G1 F1800.000 E4.67801
G92 E0
G1 X83.190 Y68.451 F4800.000
G1 E1.00000 F1800.000
G1 X93.755 Y53.909 E2.02066 F810.000
G1 X94.403 Y53.470 E2.06510
G1 X96.263 Y55.015 E2.20243
G1 X97.380 Y56.133 E2.29219
G1 X98.247 Y57.089 E2.36543
G1 X99.245 Y58.305 E2.45483
G1 X100.014 Y59.342 E2.52807
G1 X100.888 Y60.650 E2.61747
G1 X101.552 Y61.757 E2.69071
G1 X102.294 Y63.145 E2.78011
G1 X102.845 Y64.311 E2.85336
G1 X103.448 Y65.766 E2.94275
G1 X103.882 Y66.980 E3.01600
G1 X104.339 Y68.487 E3.10539
G1 X104.653 Y69.738 E3.17864
G1 X104.960 Y71.282 E3.26803
G1 X105.149 Y72.558 E3.34128
G1 X105.303 Y74.125 E3.43067
G1 X105.367 Y75.413 E3.50392
G1 X105.367 Y76.987 E3.59331
G1 X105.303 Y78.276 E3.66656
G1 X105.149 Y79.842 E3.75595
G1 X104.960 Y81.118 E3.82920
G1 X104.653 Y82.661 E3.91852
G1 X104.339 Y83.956 E3.99416
G1 X103.492 Y83.911 E4.04232
G1 X86.410 Y78.362 E5.06223
G1 X86.536 Y77.568 E5.10790
G1 X86.536 Y74.832 E5.26321
G1 X86.452 Y74.307 E5.29344
G1 X85.607 Y71.706 E5.44875
G1 X85.365 Y71.231 E5.47898
G1 X83.758 Y69.018 E5.63429
G1 X83.233 Y68.493 E5.67646
G1 X82.880 Y68.199 F4800.000
G1 F1800.000 E4.67646
G92 E0
G1 X85.730 Y80.454 F4800.000
G1 E1.00000 F1800.000
G1 X102.827 Y86.008 E2.02081 F810.000
G1 X103.469 Y86.525 E2.06759
G1 X102.846 Y88.087 E2.16310
G1 X102.294 Y89.255 E2.23646
G1 X101.551 Y90.643 E2.32585
G1 X100.888 Y91.750 E2.39910
G1 X100.014 Y93.059 E2.48849
G1 X99.245 Y94.095 E2.56174
G1 X98.247 Y95.312 E2.65113
G1 X97.380 Y96.267 E2.72438
G1 X96.267 Y97.380 E2.81377
G1 X95.311 Y98.247 E2.88702
G1 X94.094 Y99.245 E2.97641
G1 X93.058 Y100.014 E3.04966
G1 X91.749 Y100.888 E3.13905
G1 X90.643 Y101.552 E3.21230
G1 X89.255 Y102.294 E3.30169
G1 X88.089 Y102.845 E3.37494
G1 X86.634 Y103.448 E3.46434
G1 X85.420 Y103.882 E3.53758
G1 X83.913 Y104.339 E3.62698
G1 X82.662 Y104.653 E3.70022
G1 X81.118 Y104.960 E3.78962
G1 X79.839 Y105.149 E3.86302
