; generated by Slic3r 1.2.0 on 2014-10-25 at 11:39:25

; external perimeters extrusion width = 0.40mm
; perimeters extrusion width = 0.67mm
; infill extrusion width = 0.67mm
; solid infill extrusion width = 0.67mm
; top infill extrusion width = 0.67mm

G21 ; set units to millimeters
M107
M104 S195 ; set temperature
G28 X0 Y0  
G29
M109 S195 ; wait for temperature to be reached
G90 ; use absolute coordinates
G92 E0
M82 ; use absolute distances for extrusion
G1 F1800.000 E-1.00000
G92 E0
G1 Z0.300 F4800.000
G1 X45.070 Y45.294 F4800.000
G1 E1.00000 F1800.000
G1 X46.334 Y44.036 E1.10125 F720.000
G1 X47.011 Y43.426 E1.15302
G1 X49.251 Y41.556 E1.31869
G1 X49.979 Y41.006 E1.37048
G1 X52.373 Y39.339 E1.53618
G1 X53.146 Y38.855 E1.58795
G1 X55.689 Y37.395 E1.75446
G1 X56.488 Y36.988 E1.80541
G1 X59.135 Y35.761 E1.97107
G1 X59.981 Y35.419 E2.02287
G1 X62.739 Y34.423 E2.18938
G1 X63.597 Y34.160 E2.24033
G1 X66.417 Y33.412 E2.40598
G1 X67.309 Y33.222 E2.45779
G1 X70.184 Y32.722 E2.62348
G1 X71.088 Y32.611 E2.67525
G1 X73.995 Y32.364 E2.84092
G1 X74.907 Y32.331 E2.89270
G1 X77.825 Y32.338 E3.05838
G1 X78.735 Y32.385 E3.11017 F720.000
G1 X81.641 Y32.647 E3.27585
G1 X82.544 Y32.773 E3.32763
G1 X85.417 Y33.287 E3.49333
G1 X86.305 Y33.491 E3.54509
G1 X89.122 Y34.253 E3.71077
G1 X89.989 Y34.534 E3.76255
G1 X92.728 Y35.539 E3.92825
G1 X93.568 Y35.895 E3.98001
G1 X96.209 Y37.134 E4.14571
G1 X97.015 Y37.562 E4.19747
G1 X99.538 Y39.027 E4.36315
G1 X100.303 Y39.523 E4.41494
G1 X102.689 Y41.203 E4.58064
G1 X103.408 Y41.763 E4.63240
G1 X105.638 Y43.644 E4.79809
G1 X106.306 Y44.266 E4.84986
G1 X108.363 Y46.333 E5.01550
G1 X108.974 Y47.011 E5.06732
G1 X110.845 Y49.251 E5.23302
G1 X111.394 Y49.979 E5.28478
G1 X113.061 Y52.373 E5.45047
G1 X113.545 Y53.146 E5.50224
G1 X114.997 Y55.676 E5.66789
G1 X115.412 Y56.488 E5.71970
G1 X116.639 Y59.136 E5.88540
G1 X116.981 Y59.981 E5.93716
G1 X117.972 Y62.725 E6.10285
G1 X118.240 Y63.597 E6.15463
G1 X118.988 Y66.417 E6.32032
G1 X119.178 Y67.309 E6.37209
G1 X119.678 Y70.184 E6.53778
G1 X119.789 Y71.088 E6.58955
G1 X120.036 Y73.996 E6.75524
G1 X120.069 Y74.907 E6.80701
G1 X120.062 Y77.825 E6.97270
G1 X120.015 Y78.735 E7.02447
G1 X119.753 Y81.641 E7.19016
G1 X119.627 Y82.544 E7.24193
G1 X119.113 Y85.416 E7.40759
G1 X118.909 Y86.305 E7.45939
G1 X118.147 Y89.122 E7.62509
G1 X117.866 Y89.989 E7.67686
G1 X116.861 Y92.728 E7.84255
G1 X116.505 Y93.568 E7.89432
G1 X115.266 Y96.210 E8.06002
G1 X114.838 Y97.015 E8.11178
G1 X113.373 Y99.537 E8.27743
G1 X112.877 Y100.303 E8.32924
G1 X111.198 Y102.689 E8.49492
G1 X110.637 Y103.408 E8.54670
G1 X108.756 Y105.639 E8.71240
G1 X108.134 Y106.306 E8.76416
G1 X106.066 Y108.364 E8.92982
G1 X105.389 Y108.974 E8.98162
G1 X103.149 Y110.844 E9.14731
G1 X102.421 Y111.394 E9.19908
G1 X100.027 Y113.061 E9.36478
G1 X99.254 Y113.545 E9.41654
G1 X96.724 Y114.998 E9.58219
G1 X95.912 Y115.412 E9.63401
G1 X93.264 Y116.639 E9.79970
G1 X92.419 Y116.981 E9.85147
G1 X89.661 Y117.977 E10.01799
G1 X88.803 Y118.240 E10.06893
G1 X85.983 Y118.988 E10.23463
G1 X85.091 Y119.178 E10.28639
G1 X82.216 Y119.678 E10.45209
G1 X81.312 Y119.789 E10.50385
G1 X78.404 Y120.037 E10.66955
G1 X77.493 Y120.069 E10.72131
G1 X74.575 Y120.062 E10.88701
G1 X73.665 Y120.015 E10.93877
G1 X70.759 Y119.753 E11.10446
G1 X69.856 Y119.627 E11.15624
G1 X66.984 Y119.113 E11.32190
G1 X66.095 Y118.909 E11.37369
G1 X63.278 Y118.147 E11.53940
G1 X62.411 Y117.866 E11.59116
G1 X59.671 Y116.861 E11.75685
G1 X58.832 Y116.505 E11.80862
G1 X56.191 Y115.266 E11.97431
G1 X55.385 Y114.838 E12.02608
G1 X52.862 Y113.373 E12.19178
G1 X52.097 Y112.877 E12.24354
G1 X49.711 Y111.197 E12.40924
G1 X48.992 Y110.637 E12.46100
G1 X46.761 Y108.756 E12.62670
G1 X46.094 Y108.134 E12.67846
G1 X44.036 Y106.066 E12.84412
G1 X43.426 Y105.389 E12.89592
G1 X41.555 Y103.149 E13.06162
G1 X41.006 Y102.421 E13.11338
G1 X39.339 Y100.027 E13.27907
G1 X38.855 Y99.254 E13.33085
G1 X37.402 Y96.724 E13.49654
G1 X36.988 Y95.912 E13.54831
G1 X35.761 Y93.264 E13.71400
G1 X35.419 Y92.419 E13.76577
G1 X34.428 Y89.675 E13.93146
G1 X34.160 Y88.803 E13.98323
G1 X33.412 Y85.983 E14.14891
G1 X33.222 Y85.091 E14.20069
G1 X32.722 Y82.217 E14.36637
G1 X32.611 Y81.312 E14.41815
G1 X32.364 Y78.404 E14.58384
G1 X32.331 Y77.493 E14.63561
G1 X32.338 Y74.575 E14.80129
G1 X32.385 Y73.665 E14.85307
G1 X32.647 Y70.759 E15.01876
G1 X32.773 Y69.856 E15.07054
G1 X33.287 Y66.983 E15.23622
G1 X33.491 Y66.095 E15.28800
G1 X34.253 Y63.279 E15.45363
G1 X34.534 Y62.411 E15.50546
G1 X35.539 Y59.672 E15.67114
G1 X35.895 Y58.832 E15.72292
G1 X37.134 Y56.191 E15.88861
G1 X37.562 Y55.385 E15.94038
G1 X39.027 Y52.862 E16.10605
G1 X39.523 Y52.097 E16.15784
G1 X41.203 Y49.711 E16.32353
G1 X41.763 Y48.992 E16.37530
G1 X43.644 Y46.761 E16.54099
G1 X44.266 Y46.094 E16.59276
G1 X45.027 Y45.336 E16.65379
G1 X45.405 Y45.716 F4800.000
G1 X46.696 Y44.431 E16.75719 F720.000
G1 X47.355 Y43.836 E16.80764
G1 X49.577 Y41.981 E16.97198
G1 X50.286 Y41.445 E17.02245
G1 X52.661 Y39.790 E17.18681
G1 X53.413 Y39.319 E17.23725
G1 X55.936 Y37.871 E17.40244
G1 X56.715 Y37.473 E17.45206
G1 X59.340 Y36.256 E17.61640
G1 X60.164 Y35.922 E17.66687
G1 X62.900 Y34.934 E17.83206
G1 X63.736 Y34.678 E17.88168
G1 X66.533 Y33.935 E18.04601
G1 X67.402 Y33.749 E18.09648
G1 X70.253 Y33.254 E18.26084
G1 X71.135 Y33.144 E18.31129
G1 X74.019 Y32.899 E18.47563
G1 X74.907 Y32.867 E18.52609
G1 X77.801 Y32.873 E18.69044
G1 X78.689 Y32.919 E18.74090 F720.000
G1 X81.571 Y33.178 E18.90526
G1 X82.451 Y33.300 E18.95571
G1 X85.301 Y33.810 E19.12008
G1 X86.166 Y34.008 E19.17052
G1 X88.960 Y34.764 E19.33487
G1 X89.806 Y35.038 E19.38532
G1 X92.523 Y36.034 E19.54969
G1 X93.342 Y36.380 E19.60013
G1 X95.962 Y37.610 E19.76450
G1 X96.747 Y38.026 E19.81494
G1 X99.250 Y39.479 E19.97929
G1 X99.996 Y39.962 E20.02975
G1 X102.363 Y41.627 E20.19412
G1 X103.064 Y42.173 E20.24455
G1 X105.277 Y44.039 E20.40892
G1 X105.927 Y44.644 E20.45936
G1 X107.968 Y46.695 E20.62368
G1 X108.564 Y47.355 E20.67417
G1 X110.420 Y49.577 E20.83854
G1 X110.955 Y50.286 E20.88898
G1 X112.610 Y52.661 E21.05334
G1 X113.081 Y53.413 E21.10379
G1 X114.522 Y55.923 E21.26811
G1 X114.927 Y56.715 E21.31859
G1 X116.144 Y59.341 E21.48296
G1 X116.478 Y60.164 E21.53340
G1 X117.461 Y62.886 E21.69776
G1 X117.722 Y63.736 E21.74821
G1 X118.465 Y66.533 E21.91257
G1 X118.651 Y67.402 E21.96302
G1 X119.147 Y70.254 E22.12738
G1 X119.256 Y71.135 E22.17782
G1 X119.501 Y74.019 E22.34219
G1 X119.533 Y74.907 E22.39263
G1 X119.527 Y77.801 E22.55699
G1 X119.481 Y78.689 E22.60744
G1 X119.222 Y81.571 E22.77180
G1 X119.100 Y82.451 E22.82225
G1 X118.590 Y85.300 E22.98658
G1 X118.392 Y86.166 E23.03705
G1 X117.636 Y88.961 E23.20142
G1 X117.362 Y89.806 E23.25186
G1 X116.366 Y92.524 E23.41623
G1 X116.020 Y93.342 E23.46667
G1 X114.790 Y95.962 E23.63104
G1 X114.374 Y96.747 E23.68148
G1 X112.922 Y99.250 E23.84581
G1 X112.438 Y99.996 E23.89629
G1 X110.773 Y102.363 E24.06064
G1 X110.226 Y103.064 E24.11109
G1 X108.361 Y105.277 E24.27546
G1 X107.756 Y105.927 E24.32590
G1 X105.705 Y107.969 E24.49024
G1 X105.045 Y108.564 E24.54071
G1 X102.823 Y110.420 E24.70507
G1 X102.114 Y110.955 E24.75552
G1 X99.739 Y112.610 E24.91988
G1 X98.987 Y113.081 E24.97032
G1 X96.477 Y114.522 E25.13465
G1 X95.685 Y114.927 E25.18513
G1 X93.059 Y116.144 E25.34950
G1 X92.236 Y116.478 E25.39994
G1 X89.500 Y117.466 E25.56513
G1 X88.665 Y117.722 E25.61474
G1 X85.867 Y118.465 E25.77912
G1 X84.998 Y118.651 E25.82955
G1 X82.146 Y119.147 E25.99393
G1 X81.265 Y119.256 E26.04436
G1 X78.381 Y119.501 E26.20873
G1 X77.493 Y119.533 E26.25917
G1 X74.598 Y119.527 E26.42354
G1 X73.711 Y119.481 E26.47398
G1 X70.829 Y119.222 E26.63834
G1 X69.949 Y119.100 E26.68879
G1 X67.100 Y118.590 E26.85312
G1 X66.233 Y118.392 E26.90359
G1 X63.439 Y117.636 E27.06797
G1 X62.594 Y117.362 E27.11840
G1 X59.876 Y116.366 E27.28277
G1 X59.058 Y116.020 E27.33321
G1 X56.438 Y114.790 E27.49758
G1 X55.653 Y114.374 E27.54801
G1 X53.150 Y112.921 E27.71238
G1 X52.404 Y112.438 E27.76282
G1 X50.037 Y110.773 E27.92719
G1 X49.336 Y110.226 E27.97763
G1 X47.123 Y108.361 E28.14200
G1 X46.473 Y107.756 E28.19244
G1 X44.431 Y105.705 E28.35677
G1 X43.836 Y105.045 E28.40724
G1 X41.980 Y102.823 E28.57161
G1 X41.445 Y102.114 E28.62205
G1 X39.790 Y99.739 E28.78642
G1 X39.319 Y98.987 E28.83686
G1 X37.877 Y96.476 E29.00123
G1 X37.473 Y95.685 E29.05167
G1 X36.256 Y93.059 E29.21603
G1 X35.922 Y92.236 E29.26647
G1 X34.939 Y89.514 E29.43084
G1 X34.678 Y88.664 E29.48128
G1 X33.935 Y85.867 E29.64564
G1 X33.749 Y84.998 E29.69609
G1 X33.253 Y82.147 E29.86044
G1 X33.144 Y81.265 E29.91090
G1 X32.899 Y78.381 E30.07526
G1 X32.867 Y77.493 E30.12570
G1 X32.873 Y74.599 E30.29005
G1 X32.919 Y73.711 E30.34051
G1 X33.178 Y70.828 E30.50487
G1 X33.300 Y69.949 E30.55532
G1 X33.810 Y67.099 E30.71968
G1 X34.008 Y66.233 E30.77013
G1 X34.764 Y63.440 E30.93444
G1 X35.038 Y62.594 E30.98494
G1 X36.034 Y59.877 E31.14930
G1 X36.380 Y59.058 E31.19974
G1 X37.609 Y56.438 E31.36410
G1 X38.026 Y55.653 E31.41455
G1 X39.479 Y53.150 E31.57890
G1 X39.962 Y52.404 E31.62936
G1 X41.627 Y50.037 E31.79372
G1 X42.174 Y49.336 E31.84416
G1 X44.039 Y47.123 E32.00853
G1 X44.644 Y46.473 E32.05897
G1 X45.363 Y45.758 E32.11652
G1 X45.740 Y46.137 F4800.000
G1 X47.058 Y44.826 E32.22207 F720.000
G1 X47.700 Y44.246 E32.27119
G1 X49.903 Y42.406 E32.43421
G1 X50.593 Y41.884 E32.48334
G1 X52.948 Y40.242 E32.64638
G1 X53.681 Y39.783 E32.69550
G1 X56.184 Y38.346 E32.85936
G1 X56.941 Y37.959 E32.90765
G1 X59.545 Y36.751 E33.07066
G1 X60.347 Y36.425 E33.11981
G1 X63.061 Y35.445 E33.28367
G1 X63.874 Y35.195 E33.33196
G1 X66.649 Y34.458 E33.49496
G1 X67.495 Y34.277 E33.54411
G1 X70.323 Y33.785 E33.70715
G1 X71.182 Y33.678 E33.75627
G1 X74.042 Y33.434 E33.91928
G1 X74.907 Y33.402 E33.96841
G1 X77.778 Y33.408 E34.13144
G1 X78.642 Y33.452 E34.18057 F720.000
G1 X81.501 Y33.709 E34.34360
G1 X82.358 Y33.828 E34.39272
G1 X85.185 Y34.333 E34.55577
G1 X86.028 Y34.526 E34.60488
G1 X88.799 Y35.275 E34.76791
G1 X89.623 Y35.541 E34.81703
G1 X92.319 Y36.529 E34.98007
G1 X93.115 Y36.866 E35.02919
G1 X95.715 Y38.085 E35.19223
G1 X96.479 Y38.489 E35.24134
G1 X98.962 Y39.930 E35.40437
G1 X99.689 Y40.400 E35.45349
G1 X102.037 Y42.052 E35.61654
G1 X102.719 Y42.584 E35.66565
G1 X104.915 Y44.434 E35.82869
G1 X105.548 Y45.023 E35.87780
G1 X107.574 Y47.057 E36.04079
G1 X108.154 Y47.700 E36.08996
G1 X109.995 Y49.903 E36.25300
G1 X110.516 Y50.593 E36.30211
G1 X112.158 Y52.948 E36.46515
G1 X112.617 Y53.681 E36.51426
G1 X114.047 Y56.170 E36.67727
G1 X114.441 Y56.941 E36.72642
G1 X115.649 Y59.546 E36.88946
G1 X115.974 Y60.347 E36.93857
G1 X116.951 Y63.047 E37.10161
G1 X117.205 Y63.874 E37.15073
G1 X117.942 Y66.649 E37.31376
G1 X118.123 Y67.495 E37.36288
G1 X118.616 Y70.323 E37.52592
G1 X118.722 Y71.182 E37.57504
G1 X118.966 Y74.043 E37.73808
G1 X118.998 Y74.907 E37.78719
G1 X118.992 Y77.778 E37.95022
G1 X118.948 Y78.642 E37.99934
G1 X118.691 Y81.502 E38.16238
G1 X118.572 Y82.358 E38.21150
G1 X118.068 Y85.184 E38.37450
G1 X117.874 Y86.028 E38.42365
G1 X117.125 Y88.800 E38.58669
G1 X116.859 Y89.623 E38.63581
G1 X115.871 Y92.319 E38.79884
G1 X115.534 Y93.115 E38.84796
G1 X114.315 Y95.715 E39.01100
G1 X113.910 Y96.479 E39.06011
G1 X112.470 Y98.962 E39.22312
G1 X112.000 Y99.689 E39.27227
G1 X110.348 Y102.037 E39.43530
G1 X109.816 Y102.719 E39.48442
G1 X107.966 Y104.915 E39.64746
G1 X107.377 Y105.548 E39.69658
G1 X105.343 Y107.574 E39.85959
G1 X104.700 Y108.154 E39.90873
G1 X102.497 Y109.995 E40.07177
G1 X101.807 Y110.516 E40.12088
G1 X99.451 Y112.158 E40.28392
G1 X98.719 Y112.617 E40.33304
G1 X96.230 Y114.047 E40.49604
G1 X95.459 Y114.442 E40.54519
G1 X92.854 Y115.649 E40.70823
G1 X92.053 Y115.975 E40.75735
G1 X89.339 Y116.955 E40.92121
G1 X88.526 Y117.205 E40.96950
G1 X85.751 Y117.942 E41.13254
G1 X84.905 Y118.123 E41.18165
G1 X82.076 Y118.616 E41.34470
G1 X81.218 Y118.722 E41.39380
G1 X78.357 Y118.966 E41.55685
G1 X77.493 Y118.998 E41.60596
G1 X74.622 Y118.992 E41.76900
G1 X73.758 Y118.948 E41.81812
G1 X70.898 Y118.691 E41.98115
G1 X70.042 Y118.572 E42.03027
G1 X67.216 Y118.068 E42.19328
G1 X66.372 Y117.874 E42.24242
G1 X63.600 Y117.125 E42.40547
G1 X62.777 Y116.859 E42.45458
G1 X60.081 Y115.871 E42.61762
G1 X59.285 Y115.534 E42.66673
G1 X56.685 Y114.315 E42.82977
G1 X55.921 Y113.910 E42.87888
G1 X53.437 Y112.469 E43.04193
G1 X52.711 Y112.000 E43.09104
G1 X50.363 Y110.348 E43.25408
G1 X49.681 Y109.816 E43.30319
G1 X47.485 Y107.966 E43.46623
G1 X46.852 Y107.377 E43.51535
G1 X44.826 Y105.343 E43.67836
G1 X44.246 Y104.700 E43.72750
G1 X42.405 Y102.497 E43.89054
G1 X41.884 Y101.807 E43.93965
G1 X40.242 Y99.452 E44.10269
G1 X39.783 Y98.719 E44.15181
G1 X38.352 Y96.229 E44.31485
G1 X37.959 Y95.459 E44.36396
G1 X36.751 Y92.854 E44.52700
G1 X36.425 Y92.053 E44.57612
G1 X35.449 Y89.353 E44.73915
G1 X35.195 Y88.526 E44.78827
G1 X34.458 Y85.751 E44.95130
G1 X34.277 Y84.905 E45.00042
G1 X33.785 Y82.077 E45.16345
G1 X33.678 Y81.218 E45.21258
G1 X33.434 Y78.357 E45.37562
G1 X33.402 Y77.493 E45.42473
G1 X33.408 Y74.622 E45.58776
G1 X33.452 Y73.758 E45.63689
G1 X33.709 Y70.898 E45.79992
G1 X33.828 Y70.042 E45.84904
G1 X34.333 Y67.215 E46.01207
G1 X34.526 Y66.372 E46.06119
G1 X35.275 Y63.601 E46.22418
G1 X35.541 Y62.777 E46.27335
G1 X36.529 Y60.082 E46.43638
G1 X36.866 Y59.285 E46.48550
G1 X38.085 Y56.685 E46.64854
G1 X38.490 Y55.921 E46.69766
G1 X39.930 Y53.438 E46.86068
G1 X40.400 Y52.711 E46.90981
G1 X42.052 Y50.363 E47.07285
G1 X42.584 Y49.681 E47.12196
G1 X44.434 Y47.485 E47.28500
G1 X45.023 Y46.852 E47.33412
G1 X45.698 Y46.180 E47.38820
G1 F1800.000 E46.38820
G92 E0
G1 X56.185 Y50.528 F4800.000
G1 E1.00000 F1800.000
G1 X72.347 Y72.773 E2.56142 F810.000
G1 X71.906 Y73.380 E2.60400
G1 X71.076 Y75.936 E2.75663
G1 X71.069 Y76.708 E2.80044
G1 X44.949 Y85.195 E4.35999
G1 X44.598 Y84.814 E4.38939
G1 X44.026 Y82.529 E4.52316
G1 X43.804 Y81.260 E4.59633
G1 X43.596 Y79.697 E4.68586
G1 X43.486 Y78.417 E4.75881
G1 X43.416 Y76.842 E4.84833
G1 X43.417 Y75.557 E4.92128
G1 X43.485 Y73.982 E5.01081
G1 X43.598 Y72.702 E5.08375
G1 X43.802 Y71.139 E5.17328
G1 X44.027 Y69.874 E5.24623
G1 X44.367 Y68.335 E5.33575
G1 X44.701 Y67.094 E5.40870
G1 X45.173 Y65.590 E5.49823
G1 X45.614 Y64.384 E5.57117
G1 X46.216 Y62.926 E5.66070
G1 X46.760 Y61.763 E5.73365
G1 X47.487 Y60.364 E5.82317
G1 X48.131 Y59.252 E5.89612
G1 X48.977 Y57.921 E5.98565
G1 X49.715 Y56.870 E6.05859
G1 X50.673 Y55.618 E6.14812
G1 X51.500 Y54.635 E6.22107
G1 X52.564 Y53.472 E6.31059
G1 X53.474 Y52.564 E6.38354
G1 X54.635 Y51.498 E6.47307
G1 X55.674 Y50.628 E6.55003
G1 X56.126 Y50.539 E6.57617
G1 X56.539 Y50.342 F4800.000
G1 X57.971 Y49.234 F4800.000
G1 X58.213 Y48.782 E6.60527 F810.000
G1 X60.363 Y47.489 E6.74775
G1 X61.763 Y46.759 E6.83744
G1 X62.928 Y46.217 E6.91038
G1 X64.384 Y45.612 E6.99991
G1 X65.592 Y45.174 E7.07286
G1 X67.095 Y44.699 E7.16239
G1 X68.336 Y44.368 E7.23533
G1 X69.875 Y44.025 E7.32486
G1 X71.140 Y43.804 E7.39780
G1 X73.054 Y43.550 E7.50740
G1 X73.054 Y43.566 E7.50832
G1 X73.983 Y43.486 E7.56130
G1 X75.557 Y43.417 E7.65075
G1 X76.843 Y43.417 E7.72375
G1 X78.418 Y43.485 E7.81329
G1 X79.698 Y43.598 E7.88623
G1 X81.261 Y43.802 E7.97576
G1 X82.526 Y44.027 E8.04871
G1 X84.065 Y44.367 E8.13823
G1 X85.306 Y44.701 E8.21118
G1 X86.810 Y45.173 E8.30071
G1 X88.017 Y45.614 E8.37366
G1 X89.474 Y46.216 E8.46318
G1 X90.637 Y46.760 E8.53613
G1 X92.040 Y47.489 E8.62587
G1 X94.119 Y48.763 E8.76435
G1 X94.351 Y49.341 E8.79971
G1 X78.268 Y71.477 E10.35344
G1 X77.555 Y71.245 E10.39603
G1 X74.845 Y71.245 E10.54993
G1 X74.132 Y71.477 E10.59252
G1 X58.007 Y49.283 E12.15031
G1 X57.651 Y48.995 F4800.000
G1 F1800.000 E11.15031
G92 E0
G1 X81.331 Y76.708 F4800.000
G1 E1.00000 F1800.000
G1 X81.331 Y75.958 E1.04259 F810.000
G1 X80.494 Y73.380 E1.19650
G1 X80.053 Y72.773 E1.23908
G1 X96.114 Y50.667 E2.79074
G1 X96.686 Y50.593 E2.82350
G1 X97.765 Y51.500 E2.90353
G1 X98.928 Y52.564 E2.99306
G1 X99.836 Y53.474 E3.06600
G1 X100.902 Y54.635 E3.15553
G1 X101.726 Y55.620 E3.22848
G1 X102.687 Y56.870 E3.31800
G1 X103.423 Y57.923 E3.39095
G1 X104.271 Y59.252 E3.48048
