; generated by Slic3r 1.2.0 on 2014-10-24 at 23:52:13

; external perimeters extrusion width = 0.40mm
; perimeters extrusion width = 0.67mm
; infill extrusion width = 0.67mm
; solid infill extrusion width = 0.67mm
; top infill extrusion width = 0.67mm

G21 ; set units to millimeters
M107
M104 S195 ; set temperature
G28 X0 Y0  
G29
M109 S195 ; wait for temperature to be reached
G90 ; use absolute coordinates
G92 E0
M82 ; use absolute distances for extrusion
G1 F1800.000 E-1.00000
G92 E0
G1 Z0.300 F4800.000
G1 X45.734 Y45.003 F4800.000
G1 E1.00000 F1800.000
G1 X46.124 Y44.606 E1.03163 F720.000
G1 X46.784 Y43.996 E1.08266
G1 X48.874 Y42.201 E1.23910
G1 X49.583 Y41.648 E1.29016
G1 X51.816 Y40.033 E1.44663
G1 X52.568 Y39.541 E1.49767
G1 X54.942 Y38.113 E1.65498
G1 X55.719 Y37.693 E1.70518
G1 X58.190 Y36.474 E1.86162
G1 X59.014 Y36.114 E1.91268
G1 X61.593 Y35.101 E2.06999
G1 X62.430 Y34.816 E2.12019
G1 X65.070 Y34.026 E2.27667
G1 X65.942 Y33.809 E2.32770
G1 X68.638 Y33.243 E2.48414
G1 X69.526 Y33.100 E2.53520
G1 X72.260 Y32.761 E2.69169
G1 X73.156 Y32.692 E2.74271
G1 X75.910 Y32.584 E2.89920
G1 X76.809 Y32.590 E2.95022
G1 X79.576 Y32.714 E3.10750 F720.000
G1 X80.456 Y32.794 E3.15772
G1 X83.189 Y33.146 E3.31415
G1 X84.074 Y33.303 E3.36523
G1 X86.768 Y33.882 E3.52169
G1 X87.637 Y34.112 E3.57273
G1 X90.273 Y34.915 E3.72920
G1 X91.120 Y35.217 E3.78024
G1 X93.679 Y36.237 E3.93669
G1 X94.497 Y36.609 E3.98775
G1 X96.962 Y37.840 E4.14420
G1 X97.747 Y38.279 E4.19525
G1 X100.100 Y39.712 E4.35168
G1 X100.845 Y40.215 E4.40276
G1 X103.071 Y41.840 E4.55923
G1 X103.771 Y42.403 E4.61027
G1 X105.852 Y44.209 E4.76673
G1 X106.503 Y44.829 E4.81778
G1 X108.426 Y46.802 E4.97424
G1 X109.023 Y47.475 E5.02528
G1 X110.774 Y49.602 E5.18175
G1 X111.312 Y50.322 E5.23279
G1 X112.879 Y52.588 E5.38925
G1 X113.355 Y53.351 E5.44030
G1 X114.727 Y55.740 E5.59671
G1 X115.138 Y56.540 E5.64780
G1 X116.305 Y59.036 E5.80427
G1 X116.647 Y59.867 E5.85531
G1 X117.601 Y62.452 E6.01177
G1 X117.873 Y63.309 E6.06282
G1 X118.607 Y65.965 E6.21925
G1 X118.806 Y66.842 E6.27032
G1 X119.316 Y69.549 E6.42677
G1 X119.440 Y70.440 E6.47783
G1 X119.722 Y73.181 E6.63429
G1 X119.772 Y74.078 E6.68534
G1 X119.823 Y76.833 E6.84180
G1 X119.797 Y77.732 E6.89285
G1 X119.618 Y80.480 E7.04925
G1 X119.517 Y81.374 E7.10035
G1 X119.108 Y84.098 E7.25673
G1 X118.933 Y84.981 E7.30786
G1 X118.297 Y87.661 E7.46427
G1 X118.049 Y88.526 E7.51537
G1 X117.191 Y91.144 E7.67183
G1 X116.872 Y91.985 E7.72287
G1 X115.798 Y94.521 E7.87926
G1 X115.409 Y95.333 E7.93038
G1 X114.126 Y97.771 E8.08684
G1 X113.671 Y98.546 E8.13789
G1 X112.189 Y100.869 E8.29436
G1 X111.671 Y101.604 E8.34539
G1 X110.000 Y103.794 E8.50185
G1 X109.421 Y104.483 E8.55290
G1 X107.573 Y106.526 E8.70936
G1 X106.939 Y107.163 E8.76041
G1 X104.926 Y109.045 E8.91687
G1 X104.241 Y109.627 E8.96792
G1 X102.078 Y111.333 E9.12438
G1 X101.347 Y111.856 E9.17542
G1 X99.049 Y113.375 E9.33184
G1 X98.276 Y113.835 E9.38293
G1 X95.858 Y115.157 E9.53935
G1 X95.050 Y115.551 E9.59044
G1 X92.530 Y116.665 E9.74691
G1 X91.692 Y116.990 E9.79794
G1 X89.087 Y117.890 E9.95439
G1 X88.225 Y118.143 E10.00545
G1 X85.555 Y118.822 E10.16188
G1 X84.674 Y119.002 E10.21296
G1 X81.956 Y119.455 E10.36942
G1 X81.063 Y119.561 E10.42046
G1 X78.317 Y119.785 E10.57692
G1 X77.419 Y119.816 E10.62797
G1 X74.663 Y119.810 E10.78444
G1 X73.765 Y119.765 E10.83548
G1 X71.020 Y119.528 E10.99194
G1 X70.129 Y119.409 E11.04298
G1 X67.414 Y118.943 E11.19946
G1 X66.536 Y118.749 E11.25049
G1 X63.868 Y118.058 E11.40697
G1 X63.010 Y117.792 E11.45800
G1 X60.410 Y116.879 E11.61445
G1 X59.577 Y116.542 E11.66550
G1 X57.062 Y115.415 E11.82198
G1 X56.260 Y115.010 E11.87301
G1 X53.849 Y113.676 E12.02948
G1 X53.083 Y113.205 E12.08052
G1 X50.780 Y111.666 E12.23781
G1 X50.069 Y111.141 E12.28802
G1 X47.914 Y109.424 E12.44448
G1 X47.238 Y108.832 E12.49553
G1 X45.233 Y106.941 E12.65200
G1 X44.609 Y106.294 E12.70304
G1 X42.771 Y104.242 E12.85951
G1 X42.203 Y103.545 E12.91055
G1 X40.542 Y101.346 E13.06699
G1 X40.035 Y100.604 E13.11805
G1 X38.564 Y98.274 E13.27452
G1 X38.120 Y97.492 E13.32556
G1 X36.850 Y95.047 E13.48203
G1 X36.473 Y94.231 E13.53306
G1 X35.411 Y91.689 E13.68951
G1 X35.104 Y90.844 E13.74057
G1 X34.259 Y88.221 E13.89703
G1 X34.024 Y87.354 E13.94808
G1 X33.401 Y84.670 E14.10455
G1 X33.239 Y83.785 E14.15559
G1 X32.843 Y81.058 E14.31206
G1 X32.756 Y80.164 E14.36309
G1 X32.590 Y77.414 E14.51954
G1 X32.577 Y76.515 E14.57060
G1 X32.642 Y73.760 E14.72705
G1 X32.705 Y72.864 E14.77811
G1 X32.999 Y70.125 E14.93454
G1 X33.137 Y69.236 E14.98561
G1 X33.660 Y66.530 E15.14209
G1 X33.872 Y65.657 E15.19312
G1 X34.619 Y63.005 E15.34958
G1 X34.904 Y62.152 E15.40063
G1 X35.870 Y59.572 E15.55709
G1 X36.225 Y58.746 E15.60813
G1 X37.404 Y56.255 E15.76461
G1 X37.826 Y55.462 E15.81564
G1 X39.210 Y53.079 E15.97211
G1 X39.697 Y52.324 E16.02315
G1 X41.275 Y50.064 E16.17963
G1 X41.824 Y49.353 E16.23065
G1 X43.585 Y47.234 E16.38712
G1 X44.192 Y46.570 E16.43816
G1 X45.692 Y45.046 E16.55961
G1 X46.073 Y45.421 F4800.000
G1 X46.491 Y44.997 E16.59344 F720.000
G1 X47.134 Y44.401 E16.64319
G1 X49.207 Y42.621 E16.79837
G1 X49.898 Y42.081 E16.84815
G1 X52.112 Y40.479 E17.00334
G1 X52.846 Y40.000 E17.05311
G1 X55.200 Y38.582 E17.20914
G1 X55.958 Y38.172 E17.25807
G1 X58.408 Y36.963 E17.41324
G1 X59.211 Y36.612 E17.46303
G1 X61.769 Y35.607 E17.61906
G1 X62.585 Y35.329 E17.66799
G1 X65.203 Y34.545 E17.82319
G1 X66.053 Y34.333 E17.87295
G1 X68.727 Y33.771 E18.02812
G1 X69.593 Y33.631 E18.07790
G1 X72.305 Y33.295 E18.23311
G1 X73.179 Y33.228 E18.28286
G1 X75.910 Y33.119 E18.43808
G1 X76.786 Y33.125 E18.48782
G1 X79.531 Y33.247 E18.64384 F720.000
G1 X80.389 Y33.326 E18.69278
G1 X83.099 Y33.674 E18.84794
G1 X83.963 Y33.827 E18.89774
G1 X86.635 Y34.401 E19.05293
G1 X87.482 Y34.625 E19.10270
G1 X90.097 Y35.421 E19.25789
G1 X90.922 Y35.715 E19.30766
G1 X93.461 Y36.726 E19.46284
G1 X94.259 Y37.089 E19.51262
G1 X96.704 Y38.309 E19.66780
G1 X97.470 Y38.737 E19.71758
G1 X99.804 Y40.158 E19.87273
G1 X100.531 Y40.648 E19.92253
G1 X102.738 Y42.260 E20.07773
G1 X103.421 Y42.809 E20.12749
G1 X105.486 Y44.599 E20.28269
G1 X106.120 Y45.204 E20.33245
G1 X108.028 Y47.161 E20.48765
G1 X108.610 Y47.816 E20.53741
G1 X110.347 Y49.926 E20.69260
G1 X110.872 Y50.628 E20.74237
G1 X112.427 Y52.876 E20.89756
G1 X112.891 Y53.619 E20.94733
G1 X114.252 Y55.988 E21.10247
G1 X114.653 Y56.768 E21.15229
G1 X115.811 Y59.244 E21.30749
G1 X116.145 Y60.054 E21.35725
G1 X117.092 Y62.618 E21.51244
G1 X117.357 Y63.453 E21.56221
G1 X118.086 Y66.087 E21.71738
G1 X118.280 Y66.942 E21.76717
G1 X118.786 Y69.627 E21.92234
G1 X118.908 Y70.496 E21.97213
G1 X119.187 Y73.214 E22.12732
G1 X119.236 Y74.089 E22.17709
G1 X119.287 Y76.822 E22.33228
G1 X119.263 Y77.698 E22.38205
G1 X119.085 Y80.424 E22.53719
G1 X118.987 Y81.296 E22.58701
G1 X118.582 Y83.998 E22.74212
G1 X118.411 Y84.859 E22.79197
G1 X117.781 Y87.517 E22.94711
G1 X117.540 Y88.360 E22.99693
G1 X116.689 Y90.958 E23.15212
G1 X116.378 Y91.777 E23.20189
G1 X115.314 Y94.293 E23.35701
G1 X114.934 Y95.084 E23.40685
G1 X113.663 Y97.504 E23.56204
G1 X113.219 Y98.259 E23.61180
G1 X111.749 Y100.564 E23.76700
G1 X111.244 Y101.280 E23.81676
G1 X109.587 Y103.453 E23.97195
G1 X109.023 Y104.124 E24.02172
G1 X107.190 Y106.151 E24.17691
G1 X106.572 Y106.773 E24.22668
G1 X104.576 Y108.639 E24.38187
G1 X103.908 Y109.207 E24.43164
G1 X101.763 Y110.900 E24.58683
G1 X101.050 Y111.410 E24.63660
G1 X98.771 Y112.917 E24.79175
G1 X98.017 Y113.366 E24.84156
G1 X95.620 Y114.677 E24.99672
G1 X94.832 Y115.061 E25.04652
G1 X92.332 Y116.167 E25.20172
G1 X91.515 Y116.484 E25.25148
G1 X88.933 Y117.377 E25.40666
G1 X88.092 Y117.624 E25.45644
G1 X85.444 Y118.298 E25.61160
G1 X84.584 Y118.474 E25.66140
G1 X81.889 Y118.924 E25.81659
G1 X81.018 Y119.028 E25.86636
G1 X78.295 Y119.250 E26.02154
G1 X77.419 Y119.281 E26.07132
G1 X74.686 Y119.274 E26.22651
G1 X73.810 Y119.232 E26.27628
G1 X71.087 Y118.997 E26.43147
G1 X70.219 Y118.881 E26.48124
G1 X67.525 Y118.419 E26.63644
G1 X66.669 Y118.231 E26.68619
G1 X64.023 Y117.545 E26.84140
G1 X63.186 Y117.286 E26.89116
G1 X60.607 Y116.381 E27.04634
G1 X59.795 Y116.053 E27.09611
G1 X57.300 Y114.935 E27.25132
G1 X56.518 Y114.540 E27.30107
G1 X54.126 Y113.218 E27.45627
G1 X53.380 Y112.759 E27.50603
G1 X51.095 Y111.233 E27.66206
G1 X50.402 Y110.721 E27.71099
G1 X48.264 Y109.019 E27.86618
G1 X47.604 Y108.441 E27.91595
G1 X45.616 Y106.566 E28.07115
G1 X45.007 Y105.935 E28.12091
G1 X43.183 Y103.900 E28.27611
G1 X42.629 Y103.221 E28.32587
G1 X40.982 Y101.041 E28.48105
G1 X40.487 Y100.317 E28.53083
G1 X39.028 Y98.006 E28.68603
G1 X38.595 Y97.244 E28.73579
G1 X37.334 Y94.819 E28.89099
G1 X36.967 Y94.024 E28.94075
G1 X35.913 Y91.502 E29.09593
G1 X35.614 Y90.678 E29.14571
G1 X34.775 Y88.077 E29.30089
G1 X34.545 Y87.231 E29.35067
G1 X33.927 Y84.569 E29.50586
G1 X33.769 Y83.707 E29.55563
G1 X33.376 Y81.002 E29.71083
G1 X33.291 Y80.130 E29.76059
G1 X33.125 Y77.403 E29.91576
G1 X33.113 Y76.526 E29.96554
G1 X33.176 Y73.794 E30.12072
G1 X33.238 Y72.920 E30.17050
G1 X33.529 Y70.203 E30.32566
G1 X33.664 Y69.336 E30.37546
G1 X34.182 Y66.652 E30.53067
G1 X34.388 Y65.801 E30.58042
G1 X35.129 Y63.170 E30.73561
G1 X35.406 Y62.339 E30.78538
G1 X36.364 Y59.779 E30.94057
G1 X36.709 Y58.974 E30.99034
G1 X37.879 Y56.503 E31.14555
G1 X38.290 Y55.730 E31.19530
G1 X39.662 Y53.366 E31.35050
G1 X40.137 Y52.629 E31.40026
G1 X41.702 Y50.388 E31.55547
G1 X42.236 Y49.694 E31.60522
G1 X43.983 Y47.592 E31.76041
G1 X44.574 Y46.945 E31.81018
G1 X46.031 Y45.464 E31.92815
G1 X46.413 Y45.840 F4800.000
G1 X46.858 Y45.387 E31.96418 F720.000
G1 X47.484 Y44.807 E32.01266
G1 X49.539 Y43.040 E32.16656
G1 X50.212 Y42.514 E32.21507
G1 X52.409 Y40.926 E32.36899
G1 X53.123 Y40.458 E32.41748
G1 X55.458 Y39.051 E32.57224
G1 X56.196 Y38.652 E32.61989
G1 X58.626 Y37.452 E32.77380
G1 X59.409 Y37.110 E32.82230
G1 X61.945 Y36.113 E32.97706
G1 X62.739 Y35.842 E33.02471
G1 X65.336 Y35.064 E33.17865
G1 X66.164 Y34.857 E33.22713
G1 X68.817 Y34.299 E33.38103
G1 X69.660 Y34.162 E33.42954
G1 X72.350 Y33.828 E33.58347
G1 X73.201 Y33.763 E33.63195
G1 X75.910 Y33.655 E33.78589
G1 X76.764 Y33.661 E33.83436
G1 X79.486 Y33.781 E33.98910 F720.000
G1 X80.322 Y33.857 E34.03677
G1 X83.010 Y34.202 E34.19066
G1 X83.852 Y34.350 E34.23918
G1 X86.502 Y34.920 E34.39310
G1 X87.327 Y35.138 E34.44159
G1 X89.921 Y35.926 E34.59551
G1 X90.725 Y36.213 E34.64400
G1 X93.243 Y37.216 E34.79791
G1 X94.021 Y37.568 E34.84642
G1 X96.446 Y38.779 E35.00033
G1 X97.192 Y39.195 E35.04883
G1 X99.507 Y40.604 E35.20272
G1 X100.216 Y41.082 E35.25124
G1 X102.405 Y42.679 E35.40516
G1 X103.071 Y43.214 E35.45365
G1 X105.119 Y44.990 E35.60757
G1 X105.738 Y45.579 E35.65606
G1 X107.630 Y47.519 E35.80998
G1 X108.197 Y48.158 E35.85848
G1 X109.921 Y50.250 E36.01240
G1 X110.432 Y50.934 E36.06089
G1 X111.975 Y53.163 E36.21480
G1 X112.427 Y53.887 E36.26330
G1 X113.777 Y56.236 E36.41717
G1 X114.168 Y56.996 E36.46571
G1 X115.317 Y59.451 E36.61964
G1 X115.643 Y60.241 E36.66812
G1 X116.582 Y62.783 E36.82204
G1 X116.841 Y63.597 E36.87054
G1 X117.564 Y66.209 E37.02443
G1 X117.754 Y67.042 E37.07295
G1 X118.256 Y69.706 E37.22685
G1 X118.375 Y70.552 E37.27536
G1 X118.653 Y73.248 E37.42927
G1 X118.701 Y74.101 E37.47777
G1 X118.752 Y76.811 E37.63169
G1 X118.728 Y77.664 E37.68019
G1 X118.552 Y80.368 E37.83405
G1 X118.457 Y81.218 E37.88260
G1 X118.056 Y83.897 E38.03645
G1 X117.890 Y84.736 E38.08501
G1 X117.265 Y87.373 E38.23888
G1 X117.030 Y88.195 E38.28742
G1 X116.187 Y90.771 E38.44134
G1 X115.884 Y91.569 E38.48983
G1 X114.829 Y94.065 E38.64369
G1 X114.460 Y94.836 E38.69224
G1 X113.199 Y97.236 E38.84616
G1 X112.767 Y97.972 E38.89466
G1 X111.309 Y100.258 E39.04858
G1 X110.817 Y100.956 E39.09707
G1 X109.174 Y103.111 E39.25098
G1 X108.625 Y103.766 E39.29948
G1 X106.807 Y105.776 E39.45340
G1 X106.206 Y106.382 E39.50189
G1 X104.226 Y108.234 E39.65581
G1 X103.576 Y108.787 E39.70430
G1 X101.448 Y110.467 E39.85822
G1 X100.754 Y110.964 E39.90672
G1 X98.494 Y112.459 E40.06059
G1 X97.759 Y112.897 E40.10913
G1 X95.382 Y114.197 E40.26301
G1 X94.614 Y114.572 E40.31154
G1 X92.135 Y115.669 E40.46546
G1 X91.339 Y115.978 E40.51395
G1 X88.778 Y116.864 E40.66786
G1 X87.958 Y117.106 E40.71636
G1 X85.332 Y117.774 E40.87026
G1 X84.495 Y117.946 E40.91878
G1 X81.822 Y118.393 E41.07269
G1 X80.974 Y118.494 E41.12119
G1 X78.272 Y118.715 E41.27510
G1 X77.419 Y118.745 E41.32360
G1 X74.708 Y118.739 E41.47752
G1 X73.855 Y118.698 E41.52601
G1 X71.154 Y118.465 E41.67993
G1 X70.308 Y118.353 E41.72842
G1 X67.636 Y117.895 E41.88235
G1 X66.802 Y117.712 E41.93083
G1 X64.178 Y117.032 E42.08477
G1 X63.362 Y116.780 E42.13325
G1 X60.805 Y115.883 E42.28716
G1 X60.013 Y115.563 E42.33566
G1 X57.538 Y114.456 E42.48959
G1 X56.776 Y114.071 E42.53807
G1 X54.404 Y112.760 E42.69199
G1 X53.676 Y112.313 E42.74048
G1 X51.410 Y110.799 E42.89523
G1 X50.734 Y110.301 E42.94289
G1 X48.614 Y108.613 E43.09681
G1 X47.971 Y108.051 E43.14530
G1 X45.999 Y106.191 E43.29923
G1 X45.405 Y105.577 E43.34772
G1 X43.596 Y103.559 E43.50164
G1 X43.056 Y102.897 E43.55013
G1 X41.422 Y100.735 E43.70403
G1 X40.939 Y100.030 E43.75254
G1 X39.492 Y97.738 E43.90647
G1 X39.070 Y96.996 E43.95495
G1 X37.819 Y94.591 E44.10888
G1 X37.460 Y93.816 E44.15736
G1 X36.415 Y91.315 E44.31127
G1 X36.123 Y90.513 E44.35977
G1 X35.291 Y87.933 E44.51369
G1 X35.067 Y87.109 E44.56219
G1 X34.453 Y84.469 E44.71611
G1 X34.299 Y83.629 E44.76460
G1 X33.909 Y80.946 E44.91853
G1 X33.825 Y80.097 E44.96701
G1 X33.661 Y77.391 E45.12091
G1 X33.648 Y76.537 E45.16942
G1 X33.711 Y73.828 E45.32333
G1 X33.770 Y72.975 E45.37184
G1 X34.059 Y70.281 E45.52573
G1 X34.190 Y69.436 E45.57425
G1 X34.703 Y66.775 E45.72818
G1 X34.904 Y65.945 E45.77666
G1 X35.638 Y63.336 E45.93057
G1 X35.908 Y62.525 E45.97907
G1 X36.858 Y59.987 E46.13299
G1 X37.194 Y59.202 E46.18148
G1 X38.353 Y56.751 E46.33541
G1 X38.754 Y55.997 E46.38389
G1 X40.114 Y53.653 E46.53782
G1 X40.577 Y52.935 E46.58631
G1 X42.128 Y50.712 E46.74024
G1 X42.649 Y50.036 E46.78872
G1 X44.381 Y47.951 E46.94264
G1 X44.957 Y47.320 E46.99113
G1 X46.371 Y45.882 E47.10563
G1 F1800.000 E46.10563
G92 E0
G1 X77.303 Y84.872 F4800.000
G1 E1.00000 F1800.000
G1 X79.653 Y84.181 E1.13908 F810.000
G1 X81.315 Y83.243 E1.24747
G1 X82.861 Y81.790 E1.36792
G1 X84.095 Y79.935 E1.49444
G1 X106.516 Y87.220 E2.83313
G1 X106.430 Y88.249 E2.89176
G1 X105.968 Y89.347 E2.95940
G1 X105.297 Y90.773 E3.04887
G1 X104.764 Y91.791 E3.11418
G1 X103.977 Y93.156 E3.20365
G1 X103.360 Y94.127 E3.26896
G1 X102.461 Y95.421 E3.35843
G1 X101.765 Y96.337 E3.42373
G1 X100.762 Y97.551 E3.51320
G1 X99.992 Y98.406 E3.57851
G1 X98.890 Y99.532 E3.66798
G1 X98.051 Y100.318 E3.73329
G1 X96.858 Y101.349 E3.82276
G1 X95.957 Y102.062 E3.88806
G1 X94.682 Y102.989 E3.97753
G1 X93.724 Y103.625 E4.04284
G1 X92.377 Y104.442 E4.13231
G1 X91.369 Y104.995 E4.19761
G1 X89.958 Y105.696 E4.28709
G1 X88.907 Y106.163 E4.35239
G1 X87.442 Y106.744 E4.44186
G1 X86.356 Y107.122 E4.50717
G1 X84.848 Y107.578 E4.59664
G1 X83.733 Y107.863 E4.66194
G1 X82.192 Y108.191 E4.75141
G1 X81.058 Y108.382 E4.81672
G1 X79.495 Y108.581 E4.90619
G1 X78.308 Y108.680 E4.97384
G1 X77.303 Y108.444 E5.03244
G1 X77.303 Y84.932 E6.36756
G1 X77.227 Y84.479 F4800.000
G1 F1800.000 E5.36756
G92 E0
G1 X84.779 Y77.837 F4800.000
G1 E1.00000 F1800.000
G1 X84.848 Y75.389 E1.13908 F810.000
G1 X84.469 Y73.518 E1.24748
G1 X83.566 Y71.599 E1.36792
G1 X82.182 Y69.853 E1.49444
G1 X96.039 Y50.780 E2.83313
G1 X96.991 Y51.180 E2.89176
G1 X97.893 Y51.959 E2.95940
G1 X99.042 Y53.037 E3.04888
G1 X99.846 Y53.859 E3.11418
G1 X100.901 Y55.029 E3.20365
G1 X101.633 Y55.916 E3.26896
G1 X102.586 Y57.170 E3.35843
G1 X103.242 Y58.115 E3.42373
G1 X104.087 Y59.445 E3.51321
G1 X104.661 Y60.442 E3.57851
G1 X105.392 Y61.838 E3.66798
G1 X105.881 Y62.878 E3.73329
G1 X106.492 Y64.331 E3.82276
G1 X106.893 Y65.409 E3.88806
G1 X107.380 Y66.907 E3.97753
G1 X107.689 Y68.015 E4.04284
G1 X108.049 Y69.549 E4.13231
G1 X108.264 Y70.679 E4.19761
G1 X108.495 Y72.237 E4.28709
G1 X108.614 Y73.381 E4.35239
G1 X108.714 Y74.954 E4.44186
G1 X108.737 Y76.103 E4.50717
