; generated by Slic3r 1.2.0 on 2014-10-24 at 22:37:43

; external perimeters extrusion width = 0.40mm
; perimeters extrusion width = 0.67mm
; infill extrusion width = 0.67mm
; solid infill extrusion width = 0.67mm
; top infill extrusion width = 0.67mm

G21 ; set units to millimeters
M107
M104 S195 ; set temperature
G28 X0 Y0  
G29
M109 S195 ; wait for temperature to be reached
G90 ; use absolute coordinates
G92 E0
M82 ; use absolute distances for extrusion
G1 F1800.000 E-1.00000
G92 E0
G1 Z0.300 F4800.000
G1 X48.952 Y49.289 F4800.000
G1 E1.00000 F1800.000
G1 X50.338 Y47.912 E1.11097 F720.000
G1 X51.072 Y47.265 E1.16653
G1 X53.437 Y45.363 E1.33882
G1 X54.235 Y44.797 E1.39439
G1 X56.785 Y43.153 E1.56670
G1 X57.638 Y42.673 E1.62225
G1 X60.346 Y41.304 E1.79456
G1 X61.244 Y40.916 E1.85010
G1 X64.080 Y39.838 E2.02241
G1 X65.014 Y39.546 E2.07796
G1 X67.947 Y38.771 E2.25024
G1 X68.907 Y38.578 E2.30581
G1 X71.905 Y38.113 E2.47811
G1 X72.879 Y38.021 E2.53367
G1 X75.910 Y37.873 E2.70599
G1 X76.888 Y37.883 E2.76152
G1 X79.932 Y38.054 E2.93467 F720.000
G1 X80.889 Y38.165 E2.98938
G1 X83.899 Y38.653 E3.16252
G1 X84.839 Y38.864 E3.21723
G1 X87.768 Y39.659 E3.38956
G1 X88.695 Y39.971 E3.44509
G1 X91.524 Y41.068 E3.61740
G1 X92.413 Y41.476 E3.67294
G1 X95.112 Y42.863 E3.84525
G1 X95.954 Y43.361 E3.90080
G1 X98.494 Y45.022 E4.07312
G1 X99.279 Y45.605 E4.12866
G1 X101.630 Y47.523 E4.30098
G1 X102.350 Y48.185 E4.35651
G1 X104.489 Y50.339 E4.52883
G1 X105.135 Y51.072 E4.58437
G1 X107.037 Y53.437 E4.75669
G1 X107.603 Y54.235 E4.81223
G1 X109.247 Y56.785 E4.98455
G1 X109.727 Y57.637 E5.04008
G1 X111.096 Y60.346 E5.21240
G1 X111.484 Y61.244 E5.26794
G1 X112.562 Y64.080 E5.44026
G1 X112.854 Y65.014 E5.49580
G1 X113.629 Y67.947 E5.66806
G1 X113.822 Y68.906 E5.72365
G1 X114.287 Y71.905 E5.89597
G1 X114.379 Y72.879 E5.95151
G1 X114.527 Y75.925 E6.12465
G1 X114.517 Y76.888 E6.17936
G1 X114.347 Y79.918 E6.35168
G1 X114.235 Y80.889 E6.40722
G1 X113.750 Y83.885 E6.57954
G1 X113.536 Y84.839 E6.63508
G1 X112.741 Y87.768 E6.80740
G1 X112.429 Y88.695 E6.86293
G1 X111.326 Y91.537 E7.03608
G1 X110.924 Y92.413 E7.09079
G1 X109.537 Y95.112 E7.26310
G1 X109.039 Y95.954 E7.31865
G1 X107.378 Y98.493 E7.49096
G1 X106.794 Y99.279 E7.54650
G1 X104.877 Y101.630 E7.71882
G1 X104.214 Y102.350 E7.77436
G1 X102.051 Y104.498 E7.94750
G1 X101.328 Y105.135 E8.00221
G1 X98.963 Y107.037 E8.17453
G1 X98.165 Y107.603 E8.23007
G1 X95.615 Y109.247 E8.40239
G1 X94.762 Y109.727 E8.45793
G1 X92.054 Y111.096 E8.63025
G1 X91.156 Y111.484 E8.68578
G1 X88.319 Y112.562 E8.85810
G1 X87.386 Y112.854 E8.91364
G1 X84.438 Y113.632 E9.08678
G1 X83.493 Y113.822 E9.14149
G1 X80.495 Y114.287 E9.31381
G1 X79.521 Y114.379 E9.36935
G1 X76.490 Y114.527 E9.54167
G1 X75.512 Y114.517 E9.59721
G1 X72.482 Y114.347 E9.76951
G1 X71.511 Y114.235 E9.82506
G1 X68.515 Y113.750 E9.99739
G1 X67.561 Y113.536 E10.05292
G1 X64.632 Y112.741 E10.22524
G1 X63.705 Y112.429 E10.28078
G1 X60.876 Y111.332 E10.45308
G1 X59.987 Y110.924 E10.50863
G1 X57.275 Y109.530 E10.68177
G1 X56.446 Y109.039 E10.73649
G1 X53.895 Y107.369 E10.90963
G1 X53.121 Y106.794 E10.96434
G1 X50.770 Y104.877 E11.13666
G1 X50.050 Y104.214 E11.19220
G1 X47.911 Y102.061 E11.36452
G1 X47.265 Y101.328 E11.42006
G1 X45.363 Y98.963 E11.59234
G1 X44.797 Y98.165 E11.64791
G1 X43.145 Y95.602 E11.82105
G1 X42.673 Y94.762 E11.87577
G1 X41.298 Y92.041 E12.04891
G1 X40.916 Y91.156 E12.10362
G1 X39.839 Y88.320 E12.27591
G1 X39.546 Y87.386 E12.33148
G1 X38.771 Y84.452 E12.50380
G1 X38.578 Y83.493 E12.55934
G1 X38.113 Y80.495 E12.73164
G1 X38.021 Y79.521 E12.78719
G1 X37.873 Y76.490 E12.95951
G1 X37.883 Y75.512 E13.01505
G1 X38.053 Y72.482 E13.18735
G1 X38.165 Y71.511 E13.24290
G1 X38.650 Y68.515 E13.41522
G1 X38.864 Y67.560 E13.47076
G1 X39.659 Y64.632 E13.64307
G1 X39.971 Y63.705 E13.69862
G1 X41.068 Y60.876 E13.87091
G1 X41.476 Y59.987 E13.92647
G1 X42.870 Y57.275 E14.09961
G1 X43.361 Y56.446 E14.15433
G1 X45.022 Y53.907 E14.32663
G1 X45.606 Y53.121 E14.38219
G1 X47.523 Y50.770 E14.55450
G1 X48.186 Y50.050 E14.61004
G1 X48.909 Y49.331 E14.66796
G1 X49.287 Y49.711 F4800.000
G1 X50.697 Y48.310 E14.78084 F720.000
G1 X51.410 Y47.681 E14.83481
G1 X53.752 Y45.797 E15.00550
G1 X54.526 Y45.246 E15.05948
G1 X57.053 Y43.617 E15.23020
G1 X57.881 Y43.150 E15.28416
G1 X60.564 Y41.794 E15.45488
G1 X61.436 Y41.416 E15.50883
G1 X64.246 Y40.348 E15.67954
G1 X65.153 Y40.063 E15.73350
G1 X68.058 Y39.295 E15.90419
G1 X68.990 Y39.107 E15.95817
G1 X71.961 Y38.646 E16.12888
G1 X72.907 Y38.556 E16.18284
G1 X75.910 Y38.409 E16.35357
G1 X76.860 Y38.418 E16.40751
G1 X79.876 Y38.587 E16.57906 F720.000
G1 X80.806 Y38.694 E16.63218
G1 X83.788 Y39.177 E16.80373
G1 X84.701 Y39.381 E16.85685
G1 X87.602 Y40.169 E17.02758
G1 X88.503 Y40.471 E17.08152
G1 X91.306 Y41.558 E17.25225
G1 X92.170 Y41.953 E17.30620
G1 X94.844 Y43.326 E17.47691
G1 X95.662 Y43.810 E17.53087
G1 X98.179 Y45.456 E17.70160
G1 X98.942 Y46.022 E17.75554
G1 X101.272 Y47.921 E17.92627
G1 X101.971 Y48.564 E17.98021
G1 X104.091 Y50.697 E18.15094
G1 X104.719 Y51.409 E18.20489
G1 X106.604 Y53.752 E18.37562
G1 X107.154 Y54.526 E18.42956
G1 X108.783 Y57.053 E18.60029
G1 X109.250 Y57.881 E18.65423
G1 X110.606 Y60.564 E18.82496
G1 X110.984 Y61.436 E18.87890
G1 X112.052 Y64.246 E19.04963
G1 X112.337 Y65.152 E19.10358
G1 X113.105 Y68.058 E19.27425
G1 X113.293 Y68.990 E19.32825
G1 X113.754 Y71.961 E19.49898
G1 X113.844 Y72.907 E19.55292
G1 X113.992 Y75.925 E19.72447
G1 X113.982 Y76.860 E19.77759
G1 X113.815 Y79.862 E19.94832
G1 X113.706 Y80.806 E20.00227
G1 X113.226 Y83.774 E20.17299
G1 X113.019 Y84.701 E20.22694
G1 X112.231 Y87.603 E20.39767
G1 X111.929 Y88.503 E20.45161
G1 X110.836 Y91.320 E20.62316
G1 X110.447 Y92.170 E20.67628
G1 X109.073 Y94.845 E20.84700
G1 X108.590 Y95.662 E20.90095
G1 X106.944 Y98.179 E21.07167
G1 X106.378 Y98.942 E21.12562
G1 X104.479 Y101.272 E21.29635
G1 X103.836 Y101.971 E21.35030
G1 X101.692 Y104.100 E21.52185
G1 X100.991 Y104.719 E21.57497
G1 X98.648 Y106.604 E21.74570
G1 X97.874 Y107.154 E21.79964
G1 X95.347 Y108.783 E21.97037
G1 X94.519 Y109.250 E22.02431
G1 X91.836 Y110.606 E22.19504
G1 X90.964 Y110.984 E22.24899
G1 X88.154 Y112.052 E22.41971
G1 X87.248 Y112.337 E22.47366
G1 X84.327 Y113.108 E22.64521
G1 X83.410 Y113.293 E22.69833
G1 X80.439 Y113.754 E22.86906
G1 X79.493 Y113.844 E22.92300
G1 X76.490 Y113.991 E23.09373
G1 X75.540 Y113.982 E23.14767
G1 X72.538 Y113.815 E23.31839
G1 X71.594 Y113.706 E23.37235
G1 X68.626 Y113.226 E23.54308
G1 X67.699 Y113.019 E23.59702
G1 X64.798 Y112.231 E23.76774
G1 X63.897 Y111.929 E23.82169
G1 X61.094 Y110.842 E23.99240
G1 X60.230 Y110.447 E24.04636
G1 X57.543 Y109.066 E24.21791
G1 X56.738 Y108.590 E24.27103
G1 X54.210 Y106.936 E24.44258
G1 X53.458 Y106.378 E24.49571
G1 X51.128 Y104.479 E24.66643
G1 X50.429 Y103.836 E24.72038
G1 X48.309 Y101.703 E24.89110
G1 X47.681 Y100.990 E24.94505
G1 X45.797 Y98.648 E25.11574
G1 X45.246 Y97.874 E25.16972
G1 X43.609 Y95.334 E25.34127
G1 X43.150 Y94.519 E25.39439
G1 X41.788 Y91.823 E25.56594
G1 X41.416 Y90.964 E25.61907
G1 X40.348 Y88.154 E25.78976
G1 X40.063 Y87.247 E25.84374
G1 X39.295 Y84.341 E26.01446
G1 X39.107 Y83.410 E26.06841
G1 X38.646 Y80.439 E26.23912
G1 X38.556 Y79.493 E26.29308
G1 X38.408 Y76.490 E26.46381
G1 X38.418 Y75.540 E26.51775
G1 X38.585 Y72.538 E26.68847
G1 X38.694 Y71.594 E26.74243
G1 X39.174 Y68.626 E26.91315
G1 X39.381 Y67.699 E26.96710
G1 X40.168 Y64.798 E27.13781
G1 X40.471 Y63.897 E27.19177
G1 X41.558 Y61.094 E27.36247
G1 X41.953 Y60.230 E27.41644
G1 X43.334 Y57.543 E27.58799
G1 X43.810 Y56.737 E27.64111
G1 X45.455 Y54.221 E27.81182
G1 X46.022 Y53.458 E27.86579
G1 X47.921 Y51.128 E28.03651
G1 X48.564 Y50.429 E28.09046
G1 X49.244 Y49.753 E28.14487
G1 X49.621 Y50.133 F4800.000
G1 X51.055 Y48.708 E28.25966 F720.000
G1 X51.747 Y48.097 E28.31204
G1 X54.067 Y46.230 E28.48114
G1 X54.818 Y45.695 E28.53353
G1 X57.321 Y44.080 E28.70265
G1 X58.124 Y43.627 E28.75501
G1 X60.782 Y42.283 E28.92415
G1 X61.628 Y41.916 E28.97650
G1 X64.411 Y40.857 E29.14563
G1 X65.291 Y40.581 E29.19799
G1 X68.170 Y39.819 E29.36709
G1 X69.074 Y39.636 E29.41948
G1 X72.017 Y39.179 E29.58860
G1 X72.935 Y39.091 E29.64097
G1 X75.910 Y38.944 E29.81010
G1 X76.832 Y38.953 E29.86245
G1 X79.820 Y39.119 E30.03241 F720.000
G1 X80.722 Y39.223 E30.08394
G1 X83.676 Y39.701 E30.25390
G1 X84.562 Y39.898 E30.30542
G1 X87.437 Y40.678 E30.47456
G1 X88.311 Y40.971 E30.52691
G1 X91.088 Y42.047 E30.69604
G1 X91.927 Y42.430 E30.74840
G1 X94.577 Y43.790 E30.91752
G1 X95.371 Y44.259 E30.96989
G1 X97.864 Y45.889 E31.13903
G1 X98.604 Y46.438 E31.19138
G1 X100.914 Y48.319 E31.36051
G1 X101.593 Y48.943 E31.41286
G1 X103.692 Y51.055 E31.58200
G1 X104.303 Y51.747 E31.63435
G1 X106.170 Y54.067 E31.80349
G1 X106.705 Y54.818 E31.85584
G1 X108.320 Y57.321 E32.02498
G1 X108.773 Y58.124 E32.07733
G1 X110.117 Y60.782 E32.24646
G1 X110.484 Y61.628 E32.29882
G1 X111.543 Y64.412 E32.46795
G1 X111.819 Y65.291 E32.52031
G1 X112.581 Y68.170 E32.68939
G1 X112.764 Y69.074 E32.74179
G1 X113.221 Y72.017 E32.91093
G1 X113.309 Y72.935 E32.96328
G1 X113.456 Y75.925 E33.13324
G1 X113.447 Y76.832 E33.18477
G1 X113.282 Y79.806 E33.35391
G1 X113.177 Y80.722 E33.40626
G1 X112.702 Y83.662 E33.57539
G1 X112.502 Y84.562 E33.62775
G1 X111.722 Y87.437 E33.79689
G1 X111.429 Y88.311 E33.84923
G1 X110.347 Y91.102 E34.01919
G1 X109.970 Y91.927 E34.07072
G1 X108.610 Y94.577 E34.23985
G1 X108.141 Y95.371 E34.29221
G1 X106.511 Y97.864 E34.46134
G1 X105.962 Y98.604 E34.51370
G1 X104.081 Y100.914 E34.68284
G1 X103.457 Y101.593 E34.73519
G1 X101.334 Y103.702 E34.90514
G1 X100.653 Y104.303 E34.95667
G1 X98.333 Y106.170 E35.12581
G1 X97.582 Y106.705 E35.17816
G1 X95.079 Y108.320 E35.34730
G1 X94.276 Y108.773 E35.39965
G1 X91.618 Y110.117 E35.56879
G1 X90.772 Y110.484 E35.62114
G1 X87.988 Y111.543 E35.79027
G1 X87.109 Y111.819 E35.84263
G1 X84.215 Y112.584 E36.01258
G1 X83.326 Y112.764 E36.06411
G1 X80.383 Y113.221 E36.23325
G1 X79.465 Y113.309 E36.28560
G1 X76.490 Y113.456 E36.45473
G1 X75.568 Y113.447 E36.50709
G1 X72.594 Y113.282 E36.67621
G1 X71.678 Y113.177 E36.72858
G1 X68.738 Y112.702 E36.89772
G1 X67.838 Y112.502 E36.95007
G1 X64.963 Y111.722 E37.11920
G1 X64.089 Y111.429 E37.17156
G1 X61.312 Y110.353 E37.34067
G1 X60.473 Y109.970 E37.39304
G1 X57.811 Y108.602 E37.56300
G1 X57.029 Y108.141 E37.61453
G1 X54.524 Y106.503 E37.78449
G1 X53.796 Y105.962 E37.83602
G1 X51.486 Y104.081 E38.00515
G1 X50.807 Y103.457 E38.05751
G1 X48.708 Y101.345 E38.22664
G1 X48.097 Y100.653 E38.27899
G1 X46.230 Y98.333 E38.44810
G1 X45.695 Y97.582 E38.50048
G1 X44.073 Y95.066 E38.67044
G1 X43.627 Y94.276 E38.72197
G1 X42.277 Y91.605 E38.89193
G1 X41.916 Y90.772 E38.94346
G1 X40.857 Y87.989 E39.11256
G1 X40.581 Y87.109 E39.16495
G1 X39.819 Y84.230 E39.33408
G1 X39.636 Y83.326 E39.38643
G1 X39.179 Y80.383 E39.55556
G1 X39.091 Y79.465 E39.60792
G1 X38.944 Y76.490 E39.77705
G1 X38.953 Y75.568 E39.82941
G1 X39.118 Y72.594 E39.99853
G1 X39.223 Y71.678 E40.05090
G1 X39.698 Y68.738 E40.22003
G1 X39.898 Y67.838 E40.27239
G1 X40.678 Y64.963 E40.44151
G1 X40.971 Y64.089 E40.49387
G1 X42.047 Y61.312 E40.66298
G1 X42.430 Y60.473 E40.71536
G1 X43.798 Y57.811 E40.88531
G1 X44.259 Y57.029 E40.93685
G1 X45.889 Y54.536 E41.10597
G1 X46.438 Y53.795 E41.15834
G1 X48.319 Y51.486 E41.32747
G1 X48.943 Y50.807 E41.37983
G1 X49.579 Y50.175 E41.43074
G1 F1800.000 E40.43074
G92 E0
G1 X80.299 Y72.424 F4800.000
G1 E1.00000 F1800.000
G1 X92.905 Y55.072 E2.21791 F810.000
G1 X94.221 Y54.746 E2.29489
G1 X95.505 Y55.901 E2.39292
G1 X96.466 Y56.860 E2.47005 F810.000
G1 X97.553 Y58.066 E2.56222
G1 X98.377 Y59.084 E2.63662
G1 X99.332 Y60.397 E2.72879
G1 X100.045 Y61.496 E2.80318
G1 X100.857 Y62.901 E2.89535
G1 X101.451 Y64.069 E2.96975
G1 X102.040 Y65.365 E3.05056
G1 X102.581 Y66.775 E3.13633
G1 X103.083 Y68.319 E3.22850
G1 X103.421 Y69.584 E3.30290
G1 X103.760 Y71.172 E3.39507
G1 X103.964 Y72.466 E3.46946
G1 X104.134 Y74.080 E3.56163
G1 X104.202 Y75.389 E3.63603
G1 X104.203 Y77.012 E3.72820
G1 X104.133 Y78.320 E3.80259
G1 X103.965 Y79.934 E3.89476
G1 X103.759 Y81.228 E3.96916
G1 X103.391 Y82.964 E4.06992
G1 X102.133 Y83.473 E4.14697
G1 X81.735 Y76.846 E5.36487
G1 X80.317 Y72.481 E5.62546
G1 F1800.000 E4.62546
G92 E0
G1 X95.768 Y55.599 F4800.000
G1 X91.131 Y53.784 F4800.000
G1 E1.00000 F1800.000
G1 X78.525 Y71.135 E2.21790 F810.000
G1 X73.875 Y71.135 E2.48191
G1 X61.269 Y53.784 E3.69981
G1 X61.365 Y52.431 E3.77680
G1 X62.902 Y51.543 E3.87756
G1 X64.069 Y50.949 E3.95196
G1 X65.552 Y50.288 E4.04413
G1 X66.775 Y49.819 E4.11853
G1 X68.319 Y49.317 E4.21069
G1 X69.584 Y48.979 E4.28509
G1 X71.172 Y48.640 E4.37726
G1 X72.466 Y48.436 E4.45166
G1 X74.080 Y48.266 E4.54382
G1 X75.389 Y48.198 E4.61823
G1 X77.052 Y48.200 E4.71265
G1 X78.320 Y48.267 E4.78477 F810.000
G1 X79.934 Y48.435 E4.87695
G1 X81.228 Y48.641 E4.95134
G1 X82.816 Y48.978 E5.04351
G1 X84.081 Y49.318 E5.11791
G1 X85.625 Y49.818 E5.21008
G1 X86.848 Y50.289 E5.28447
G1 X88.331 Y50.948 E5.37664
G1 X89.498 Y51.544 E5.45104
G1 X91.035 Y52.430 E5.55180
G1 X91.127 Y53.724 E5.62544
G1 F1800.000 E4.62544
G92 E0
G1 X76.899 Y47.830 F4800.000
G1 X62.064 Y58.609 F4800.000
G1 E1.00000 F1800.000
G1 X72.101 Y72.424 E1.96968 F810.000
G1 X70.665 Y76.846 E2.23369
G1 X50.267 Y83.474 E3.45160
G1 X49.010 Y82.964 E3.52858
G1 X48.640 Y81.228 E3.62935
G1 X48.436 Y79.934 E3.70375
G1 X48.266 Y78.320 E3.79591
G1 X48.198 Y77.011 E3.87031
G1 X48.197 Y75.388 E3.96248
G1 X48.267 Y74.080 E4.03688
G1 X48.435 Y72.466 E4.12904
G1 X48.641 Y71.172 E4.20344
G1 X48.978 Y69.584 E4.29561
G1 X49.318 Y68.319 E4.37001
G1 X49.819 Y66.775 E4.46217
G1 X50.289 Y65.552 E4.53657
G1 X50.948 Y64.069 E4.62874
G1 X51.544 Y62.902 E4.70314
G1 X52.355 Y61.496 E4.79530
G1 X53.069 Y60.397 E4.86970
G1 X54.022 Y59.084 E4.96187
G1 X54.848 Y58.066 E5.03627
G1 X55.933 Y56.859 E5.12844
G1 X56.860 Y55.934 E5.20283
G1 X58.178 Y54.745 E5.30360
G1 X59.362 Y55.040 E5.37288
G1 X59.495 Y55.072 E5.38064 F810.000
G1 X62.029 Y58.560 E5.62545
G1 F1800.000 E4.62545
G92 E0
G1 X59.325 Y54.908 F4800.000
G1 X67.532 Y80.169 F4800.000
G1 E1.00000 F1800.000
G1 X71.342 Y78.931 E1.22749 F810.000
G1 X74.892 Y81.510 E1.47664
G1 X75.104 Y81.664 E1.49149 F810.000
G1 X75.104 Y103.112 E2.70940
G1 X74.231 Y104.149 E2.78638
G1 X72.831 Y104.003 E2.86631
G1 X72.831 Y104.023 E2.86744
G1 X71.172 Y103.759 E2.96283
G1 X69.584 Y103.422 E3.05500
G1 X68.319 Y103.082 E3.12939
G1 X66.775 Y102.581 E3.22156
G1 X65.552 Y102.111 E3.29596
G1 X64.069 Y101.452 E3.38813
G1 X62.902 Y100.856 E3.46253
G1 X61.496 Y100.045 E3.55469
G1 X60.397 Y99.331 E3.62909
G1 X59.084 Y98.378 E3.72126
G1 X58.066 Y97.552 E3.79566
G1 X56.859 Y96.467 E3.88782
G1 X55.934 Y95.540 E3.96222
G1 X54.847 Y94.334 E4.05439
G1 X54.023 Y93.315 E4.12879
G1 X53.068 Y92.003 E4.22095
G1 X52.355 Y90.904 E4.29535
G1 X51.543 Y89.498 E4.38752
G1 X50.949 Y88.331 E4.46192
G1 X50.226 Y86.710 E4.56268
G1 X50.944 Y85.559 E4.63972
G1 X67.475 Y80.188 E5.62673
G1 F1800.000 E4.62673
G92 E0
G1 X75.095 Y81.345 F4800.000
G1 X75.795 Y78.576 F4800.000
G1 E1.00000 F1800.000
G1 X74.982 Y78.280 E1.04917 F900.000
G1 X74.363 Y77.760 E1.09507
G1 X73.930 Y77.010 E1.14424
G1 X73.790 Y76.214 E1.19013
G1 X73.940 Y75.361 E1.23930
G1 X74.344 Y74.662 E1.28520
G1 X75.008 Y74.105 E1.33437
G1 X75.767 Y73.829 E1.38026
G1 X76.633 Y73.829 E1.42940
G1 X77.393 Y74.105 E1.47532
G1 X78.056 Y74.662 E1.52450 F900.000
G1 X78.460 Y75.362 E1.57039
G1 X78.610 Y76.215 E1.61956
G1 X78.470 Y77.011 E1.66546
G1 X78.037 Y77.761 E1.71463
G1 X77.417 Y78.280 E1.76053
G1 X76.604 Y78.576 E1.80969
G1 X75.855 Y78.576 E1.85218
G1 X75.890 Y78.040 F4800.000
G1 X75.254 Y77.809 E1.89063 F900.000
G1 X74.779 Y77.411 E1.92580
G1 X74.441 Y76.824 E1.96424
G1 X74.334 Y76.214 E1.99941
G1 X74.451 Y75.548 E2.03786
G1 X74.761 Y75.011 E2.07302
G1 X75.280 Y74.576 E2.11147
G1 X75.862 Y74.364 E2.14663
G1 X76.538 Y74.364 E2.18506 F900.000
G1 X77.121 Y74.576 E2.22025
G1 X77.639 Y75.012 E2.25870
G1 X77.949 Y75.548 E2.29387
G1 X78.066 Y76.215 E2.33231
G1 X77.959 Y76.825 E2.36748
G1 X77.620 Y77.411 E2.40592
