; generated by Slic3r 1.1.7 on 2014-10-25 at 16:12:26

; perimeters extrusion width = 0.40mm
; infill extrusion width = 0.67mm
; solid infill extrusion width = 0.67mm
; top infill extrusion width = 0.67mm

G21 ; set units to millimeters
M107
M104 S195 ; set temperature
G28 X0 Y0  
G29
M109 S195 ; wait for temperature to be reached
G90 ; use absolute coordinates
G92 E0
M82 ; use absolute distances for extrusion
G1 F1800.000 E-1.00000
G92 E0
G1 Z0.300 F4800.000
G1 X66.724 Y51.875 F4800.000
G1 E1.00000 F1800.000
G1 X67.169 Y51.325 E1.04174 F720.000
G1 X67.756 Y50.668 E1.09378
G1 X68.908 Y49.575 E1.18753
G1 X69.457 Y49.131 E1.22928
G1 X70.167 Y48.609 E1.28132
G1 X71.521 Y47.780 E1.37507
G1 X72.954 Y47.097 E1.46883
G1 X73.614 Y46.844 E1.51056
G1 X74.451 Y46.568 E1.56261
G1 X75.994 Y46.198 E1.65636
G1 X77.568 Y45.991 E1.75011
G1 X79.053 Y45.945 E1.83785
G1 X124.596 Y47.725 E4.52967
G1 X127.016 Y48.217 E4.67550 F720.000
G1 X129.154 Y49.452 E4.82133
G1 X130.789 Y51.303 E4.96716
G1 X131.769 Y53.654 E5.11757
G1 X136.159 Y72.630 E6.26791
G1 X136.366 Y74.203 E6.36164
G1 X136.412 Y75.681 E6.44892
G1 X133.885 Y142.203 E10.38057
G1 X133.722 Y143.507 E10.45816
G1 X133.505 Y144.529 E10.51990
G1 X133.010 Y146.054 E10.61461
G1 X132.584 Y147.010 E10.67636
G1 X131.783 Y148.398 E10.77106
G1 X131.168 Y149.244 E10.83279
G1 X130.095 Y150.436 E10.92750
G1 X129.396 Y151.065 E10.98307
G1 X128.021 Y152.078 E11.08392
G1 X127.115 Y152.601 E11.14567
G1 X125.650 Y153.253 E11.24037
G1 X124.656 Y153.576 E11.30212
G1 X123.088 Y153.909 E11.39682
G1 X122.048 Y154.018 E11.45856
G1 X120.444 Y154.018 E11.55327
G1 X119.405 Y153.909 E11.61501
G1 X117.836 Y153.576 E11.70972
G1 X115.900 Y152.876 E11.83129
G1 X74.442 Y133.030 E14.54592
G1 X72.330 Y131.535 E14.69874
G1 X70.329 Y129.534 E14.86585
G1 X68.888 Y127.529 E15.01168
G1 X68.104 Y124.660 E15.18733
G1 X63.634 Y62.296 E18.87999
G1 X63.597 Y61.590 E18.92174
G1 X63.593 Y60.709 E18.97377
G1 X63.630 Y60.003 E19.01552
G1 X63.718 Y59.127 E19.06755
G1 X63.829 Y58.429 E19.10928
G1 X64.008 Y57.566 E19.16133
G1 X64.191 Y56.883 E19.20308
G1 X64.459 Y56.044 E19.25511
G1 X65.067 Y54.577 E19.34887
G1 X65.388 Y53.948 E19.39061
G1 X65.825 Y53.183 E19.44265
G1 X66.690 Y51.924 E19.53286
G1 X67.157 Y52.225 F4800.000
G1 X67.602 Y51.676 E19.57460 F720.000
G1 X68.150 Y51.062 E19.62320
G1 X69.258 Y50.008 E19.71351
G1 X69.807 Y49.564 E19.75525
G1 X70.471 Y49.077 E19.80385
G1 X71.774 Y48.277 E19.89416
G1 X73.154 Y47.617 E19.98447
G1 X73.813 Y47.364 E20.02620
G1 X74.595 Y47.106 E20.07481
G1 X76.082 Y46.748 E20.16512
G1 X77.597 Y46.547 E20.25543
G1 X79.031 Y46.502 E20.34017
G1 X124.575 Y48.281 E23.03198
G1 X126.901 Y48.770 E23.17238 F720.000
G1 X128.937 Y49.997 E23.31278
G1 X130.454 Y51.827 E23.45318
G1 X131.226 Y53.780 E23.57718
G1 X135.609 Y72.717 E24.72517
G1 X135.810 Y74.233 E24.81546
G1 X135.855 Y75.659 E24.89977
G1 X133.328 Y142.182 E28.83141
G1 X133.178 Y143.391 E28.90337
G1 X132.960 Y144.414 E28.96511
G1 X132.501 Y145.828 E29.05294
G1 X132.075 Y146.783 E29.11469
G1 X131.332 Y148.071 E29.20251
G1 X130.717 Y148.916 E29.26425
G1 X129.722 Y150.022 E29.35208
G1 X129.023 Y150.651 E29.40765
G1 X127.742 Y151.595 E29.50162
G1 X126.837 Y152.118 E29.56337
G1 X125.478 Y152.723 E29.65119
G1 X124.484 Y153.046 E29.71294
G1 X123.029 Y153.355 E29.80077
G1 X121.990 Y153.464 E29.86250
G1 X120.503 Y153.464 E29.95034
G1 X119.463 Y153.355 E30.01207
G1 X118.008 Y153.046 E30.09991
G1 X116.141 Y152.374 E30.21713
G1 X74.682 Y132.528 E32.93176
G1 X72.723 Y131.141 E33.07348
G1 X70.723 Y129.140 E33.24058
G1 X69.347 Y127.202 E33.38098
G1 X68.660 Y124.620 E33.53874
G1 X64.190 Y62.267 E37.23076
G1 X64.153 Y61.561 E37.27251
G1 X64.149 Y60.738 E37.32110
G1 X64.186 Y60.032 E37.36285
G1 X64.268 Y59.214 E37.41144
G1 X64.379 Y58.516 E37.45317
G1 X64.546 Y57.710 E37.50178
G1 X64.729 Y57.027 E37.54352
G1 X64.979 Y56.244 E37.59211
G1 X65.563 Y54.830 E37.68243
G1 X65.884 Y54.201 E37.72417
G1 X66.292 Y53.486 E37.77276
G1 X67.123 Y52.275 E37.85954
G1 X67.590 Y52.576 F4800.000
G1 X68.035 Y52.027 E37.90127 F720.000
G1 X68.544 Y51.456 E37.94643
G1 X69.609 Y50.441 E38.03329
G1 X70.158 Y49.997 E38.07504
G1 X70.774 Y49.544 E38.12019
G1 X72.027 Y48.773 E38.20706
G1 X73.353 Y48.138 E38.29393
G1 X74.013 Y47.884 E38.33566
G1 X74.739 Y47.644 E38.38083
G1 X76.169 Y47.298 E38.46769
G1 X77.627 Y47.104 E38.55456
G1 X79.010 Y47.059 E38.63629
G1 X124.553 Y48.838 E41.32811
G1 X126.782 Y49.322 E41.46286 F720.000
G1 X128.711 Y50.541 E41.59761
G1 X130.105 Y52.348 E41.73236
G1 X130.684 Y53.906 E41.83052
G1 X135.059 Y72.804 E42.97617
G1 X135.253 Y74.262 E43.06302
G1 X135.299 Y75.638 E43.14436
G1 X132.633 Y143.275 E47.14208
G1 X132.415 Y144.298 E47.20383
G1 X131.992 Y145.601 E47.28478
G1 X131.566 Y146.557 E47.34653
G1 X130.881 Y147.743 E47.42747
G1 X130.267 Y148.589 E47.48921
G1 X129.350 Y149.608 E47.57016
G1 X128.650 Y150.237 E47.62573
G1 X127.464 Y151.113 E47.71283
G1 X126.558 Y151.636 E47.77457
G1 X125.306 Y152.193 E47.85552
G1 X124.312 Y152.516 E47.91726
G1 X122.971 Y152.801 E47.99822
G1 X121.932 Y152.910 E48.05995
G1 X120.561 Y152.910 E48.14091
G1 X119.521 Y152.801 E48.20264
G1 X118.180 Y152.516 E48.28360
G1 X116.381 Y151.871 E48.39647
G1 X74.923 Y132.025 E51.11110
G1 X73.117 Y130.747 E51.24172
G1 X71.117 Y128.747 E51.40881
G1 X69.810 Y126.877 E51.54356
G1 X69.215 Y124.581 E51.68364
G1 X64.747 Y62.238 E55.37503
G1 X64.710 Y61.532 E55.41678
G1 X64.706 Y60.768 E55.46192
G1 X64.743 Y60.062 E55.50367
G1 X64.818 Y59.301 E55.54882
G1 X64.929 Y58.603 E55.59055
G1 X65.084 Y57.854 E55.63572
G1 X65.267 Y57.172 E55.67746
G1 X65.499 Y56.443 E55.72261
G1 X66.060 Y55.083 E55.80948
G1 X66.381 Y54.454 E55.85121
G1 X66.759 Y53.789 E55.89637
G1 X67.556 Y52.625 E55.97970
G1 F1800.000 E54.97970
G92 E0
G1 X103.603 Y115.822 F4800.000
G1 E1.00000 F1800.000
G1 X102.299 Y115.322 E1.08251 F900.000
G1 X101.627 Y115.142 E1.12357
G1 X100.941 Y115.033 E1.16463
G1 X100.246 Y114.997 E1.20569
G1 X99.552 Y115.033 E1.24674
G1 X98.865 Y115.142 E1.28780
G1 X98.194 Y115.322 E1.32886
G1 X96.890 Y115.822 E1.41137
G1 X96.877 Y78.790 E3.59849
G1 X98.887 Y76.784 E3.76618
G1 X101.606 Y76.784 E3.92676
G1 X103.615 Y78.790 E4.09445
G1 X103.603 Y115.762 E6.27803
G1 X103.046 Y115.012 F4800.000
G1 X102.471 Y114.791 E6.31441 F810.000
G1 X101.743 Y114.596 E6.35891
G1 X100.999 Y114.478 E6.40342
G1 X100.246 Y114.439 E6.44793
G1 X99.494 Y114.478 E6.49243
G1 X98.749 Y114.596 E6.53694
G1 X98.021 Y114.791 E6.58145
G1 X97.446 Y115.012 E6.61783
G1 X97.435 Y79.021 E8.74344
G1 X99.117 Y77.341 E8.88387
G1 X101.375 Y77.341 E9.01722
G1 X103.058 Y79.021 E9.15765
G1 X103.046 Y114.952 E11.27972
G1 X102.949 Y115.400 F4800.000
G1 X102.534 Y116.346 F4800.000
G1 X103.130 Y116.643 E11.31906 F900.000
G1 X103.637 Y116.972 E11.35472
G1 X104.106 Y117.352 E11.39038
G1 X104.533 Y117.779 E11.42604
G1 X104.913 Y118.248 E11.46170
G1 X105.242 Y118.754 E11.49736
G1 X105.516 Y119.292 E11.53302
G1 X105.732 Y119.856 E11.56868
G1 X105.889 Y120.439 E11.60434
G1 X105.983 Y121.035 E11.64000
G1 X105.993 Y121.234 E11.65176
G1 X106.015 Y121.638 E11.67566
G1 X105.983 Y122.241 E11.71132
G1 X105.889 Y122.838 E11.74698
G1 X105.732 Y123.421 E11.78264
G1 X105.516 Y123.985 E11.81830
G1 X105.242 Y124.523 E11.85395
G1 X104.913 Y125.029 E11.88961
G1 X104.533 Y125.498 E11.92527
G1 X104.106 Y125.925 E11.96093
G1 X103.637 Y126.305 E11.99659
G1 X103.130 Y126.634 E12.03225
G1 X102.592 Y126.908 E12.06791
G1 X102.407 Y126.979 E12.07967
G1 X102.029 Y127.124 E12.10357
G1 X101.446 Y127.281 E12.13923
G1 X100.849 Y127.375 E12.17489
G1 X100.246 Y127.407 E12.21055
G1 X99.643 Y127.375 E12.24620
G1 X99.047 Y127.281 E12.28186
G1 X98.464 Y127.124 E12.31752
G1 X97.900 Y126.908 E12.35318
G1 X97.362 Y126.634 E12.38884
G1 X97.023 Y126.413 E12.41274
G1 X96.856 Y126.305 E12.42450
G1 X96.387 Y125.925 E12.46016
G1 X95.960 Y125.498 E12.49582
G1 X95.580 Y125.029 E12.53148
G1 X95.251 Y124.522 E12.56714
G1 X95.067 Y124.162 E12.59104
G1 X94.977 Y123.985 E12.60280
G1 X94.760 Y123.421 E12.63846
G1 X94.604 Y122.838 E12.67412
G1 X94.510 Y122.241 E12.70977
G1 X94.478 Y121.638 E12.74543
G1 X94.510 Y121.035 E12.78109
G1 X94.604 Y120.439 E12.81675
G1 X94.760 Y119.856 E12.85241
G1 X94.977 Y119.292 E12.88807
G1 X95.160 Y118.932 E12.91197
G1 X95.251 Y118.754 E12.92373
G1 X95.580 Y118.248 E12.95939
G1 X95.960 Y117.779 E12.99505
G1 X96.386 Y117.352 E13.03071
G1 X96.856 Y116.972 E13.06637
G1 X97.362 Y116.643 E13.10203
G1 X97.900 Y116.369 E13.13769
G1 X98.464 Y116.152 E13.17335
G1 X99.047 Y115.996 E13.20901
G1 X99.643 Y115.902 E13.24467
G1 X100.246 Y115.870 E13.28032
G1 X100.445 Y115.880 E13.29208
G1 X100.849 Y115.902 E13.31598 F900.000
G1 X101.446 Y115.996 E13.35164
G1 X102.029 Y116.152 E13.38730
G1 X102.478 Y116.325 E13.41571
G1 X102.334 Y116.866 F4800.000
G1 X102.852 Y117.126 E13.44989 F810.000
G1 X103.309 Y117.423 E13.48210
G1 X103.733 Y117.766 E13.51432
G1 X104.118 Y118.152 E13.54653
G1 X104.462 Y118.576 E13.57874
G1 X104.759 Y119.033 E13.61095
G1 X105.006 Y119.519 E13.64316
G1 X105.202 Y120.028 E13.67537
G1 X105.343 Y120.555 E13.70758
G1 X105.428 Y121.094 E13.73979
G1 X105.437 Y121.263 E13.74983
G1 X105.457 Y121.638 E13.77200
G1 X105.428 Y122.183 E13.80421
G1 X105.343 Y122.722 E13.83642
G1 X105.202 Y123.248 E13.86863
G1 X105.006 Y123.758 E13.90085
G1 X104.759 Y124.244 E13.93306
G1 X104.462 Y124.701 E13.96527
G1 X104.118 Y125.125 E13.99748
G1 X103.733 Y125.510 E14.02969
G1 X103.309 Y125.854 E14.06190
G1 X102.851 Y126.151 E14.09411
G1 X102.366 Y126.398 E14.12632
G1 X102.207 Y126.459 E14.13636
G1 X101.856 Y126.594 E14.15853
G1 X101.330 Y126.735 E14.19074
G1 X100.791 Y126.820 E14.22295
G1 X100.246 Y126.849 E14.25516
G1 X99.702 Y126.820 E14.28737
G1 X99.163 Y126.735 E14.31958
G1 X98.636 Y126.594 E14.35179
G1 X98.127 Y126.398 E14.38400
G1 X97.641 Y126.151 E14.41622
G1 X97.326 Y125.946 E14.43839
G1 X97.184 Y125.854 E14.44843
G1 X96.760 Y125.510 E14.48064
G1 X96.374 Y125.125 E14.51285
G1 X96.031 Y124.701 E14.54506
G1 X95.734 Y124.244 E14.57727
G1 X95.563 Y123.909 E14.59945
G1 X95.486 Y123.758 E14.60948
G1 X95.291 Y123.248 E14.64169
G1 X95.150 Y122.722 E14.67390
G1 X95.064 Y122.183 E14.70611
G1 X95.036 Y121.638 E14.73832
G1 X95.064 Y121.094 E14.77053
G1 X95.150 Y120.555 E14.80275
G1 X95.291 Y120.028 E14.83496
G1 X95.486 Y119.519 E14.86717
G1 X95.657 Y119.184 E14.88934
G1 X95.734 Y119.033 E14.89938
G1 X96.031 Y118.576 E14.93159
G1 X96.374 Y118.152 E14.96380
G1 X96.760 Y117.766 E14.99601
G1 X97.184 Y117.423 E15.02822
G1 X97.641 Y117.126 E15.06043
G1 X98.127 Y116.878 E15.09264
G1 X98.636 Y116.683 E15.12485
G1 X99.163 Y116.542 E15.15706
G1 X99.702 Y116.456 E15.18927
G1 X100.077 Y116.437 E15.21145
G1 X100.246 Y116.428 E15.22148 F810.000
G1 X100.791 Y116.456 E15.25370
G1 X101.330 Y116.542 E15.28591
G1 X101.856 Y116.683 E15.31812
G1 X102.278 Y116.845 E15.34481
G1 F1800.000 E14.34481
G92 E0
G1 X99.993 Y116.289 F4800.000
G1 X103.851 Y78.238 F4800.000
G1 E1.00000 F1800.000
G1 X101.836 Y76.227 E1.16811 F900.000
G1 X98.656 Y76.227 E1.35591
G1 X96.642 Y78.238 E1.52402
G1 X96.642 Y77.236 E1.58320
G1 X99.827 Y74.055 E1.84903
G1 X100.666 Y74.055 E1.89859
G1 X103.851 Y77.236 E2.16442
G1 X103.851 Y78.178 E2.22006
G1 X104.408 Y78.238 F4800.000
G1 X104.408 Y116.420 E4.47506 F900.000
G1 X105.182 Y117.194 E4.53974
G1 X105.620 Y117.734 E4.58080
G1 X105.998 Y118.317 E4.62186
G1 X106.314 Y118.937 E4.66292
G1 X106.563 Y119.586 E4.70397
G1 X106.743 Y120.257 E4.74504
G1 X106.852 Y120.944 E4.78609
G1 X106.888 Y121.638 E4.82715
G1 X106.853 Y122.299 E4.86623
G1 X106.743 Y123.019 E4.90926
G1 X106.563 Y123.691 E4.95032
G1 X106.314 Y124.340 E4.99138
G1 X106.013 Y124.929 E5.03045
G1 X105.620 Y125.542 E5.07348
G1 X105.182 Y126.083 E5.11454
G1 X104.690 Y126.574 E5.15560
G1 X104.150 Y127.012 E5.19666
G1 X103.567 Y127.390 E5.23772
G1 X102.978 Y127.691 E5.27679
G1 X102.299 Y127.955 E5.31982
G1 X101.627 Y128.135 E5.36088
G1 X101.162 Y128.209 E5.38872
G1 X100.940 Y128.244 E5.40194
G1 X100.246 Y128.280 E5.44300
G1 X99.552 Y128.244 E5.48406
G1 X98.865 Y128.135 E5.52512
G1 X98.194 Y127.955 E5.56617
G1 X97.545 Y127.706 E5.60723
G1 X96.925 Y127.390 E5.64829
G1 X96.342 Y127.012 E5.68935
G1 X95.802 Y126.574 E5.73041
G1 X95.311 Y126.083 E5.77147
G1 X94.873 Y125.542 E5.81252
G1 X94.494 Y124.959 E5.85358
G1 X94.179 Y124.340 E5.89464
G1 X93.930 Y123.691 E5.93570
G1 X93.750 Y123.019 E5.97676
G1 X93.641 Y122.333 E6.01782
G1 X93.605 Y121.638 E6.05888
G1 X93.641 Y120.944 E6.09994
G1 X93.750 Y120.257 E6.14099
G1 X93.930 Y119.586 E6.18205
G1 X94.179 Y118.937 E6.22311
G1 X94.494 Y118.317 E6.26417
G1 X94.873 Y117.734 E6.30523
G1 X95.310 Y117.194 E6.34629
G1 X96.085 Y116.420 E6.41097
G1 X96.085 Y77.005 E8.73879
G1 X99.596 Y73.498 E9.03188
G1 X100.896 Y73.498 E9.10867 F900.000
G1 X104.408 Y77.005 E9.40176
G1 X104.408 Y78.178 E9.47103
G1 X104.965 Y78.238 F4800.000
G1 X104.965 Y116.189 E11.71241 F810.000
G1 X105.597 Y116.821 E11.76519
G1 X106.071 Y117.407 E11.80969
G1 X106.481 Y118.039 E11.85420
G1 X106.823 Y118.710 E11.89871
G1 X107.093 Y119.414 E11.94321
G1 X107.289 Y120.141 E11.98772
G1 X107.406 Y120.886 E12.03223
G1 X107.443 Y121.576 E12.07303
G1 X107.406 Y122.391 E12.12123
G1 X107.289 Y123.135 E12.16573
G1 X107.093 Y123.863 E12.21024
G1 X106.823 Y124.567 E12.25475
G1 X106.481 Y125.238 E12.29925
G1 X106.071 Y125.870 E12.34376
G1 X105.597 Y126.456 E12.38827
G1 X105.064 Y126.989 E12.43278
G1 X104.478 Y127.463 E12.47728
G1 X103.846 Y127.873 E12.52179
G1 X103.175 Y128.215 E12.56630
G1 X102.471 Y128.486 E12.61080
G1 X101.743 Y128.681 E12.65531
G1 X101.249 Y128.759 E12.68487
G1 X100.999 Y128.798 E12.69982
G1 X100.246 Y128.838 E12.74432
G1 X99.494 Y128.798 E12.78883
G1 X98.749 Y128.681 E12.83334
G1 X98.022 Y128.486 E12.87784
G1 X97.318 Y128.215 E12.92235
G1 X96.646 Y127.873 E12.96686
G1 X96.014 Y127.463 E13.01137
G1 X95.429 Y126.989 E13.05587
G1 X94.896 Y126.456 E13.10038
G1 X94.422 Y125.870 E13.14489
G1 X94.011 Y125.238 E13.18939
G1 X93.669 Y124.567 E13.23390
G1 X93.399 Y123.863 E13.27841
G1 X93.204 Y123.135 E13.32291
G1 X93.086 Y122.391 E13.36742
G1 X93.047 Y121.638 E13.41193
G1 X93.086 Y120.886 E13.45644
G1 X93.204 Y120.141 E13.50094
G1 X93.422 Y119.355 E13.54914
G1 X93.669 Y118.710 E13.58994
G1 X94.011 Y118.039 E13.63445
G1 X94.422 Y117.407 E13.67895
G1 X94.896 Y116.821 E13.72346
G1 X95.528 Y116.189 E13.77624
G1 X95.528 Y76.774 E16.10407
G1 X99.366 Y72.941 E16.42442
G1 X101.127 Y72.941 E16.52844
G1 X102.845 Y74.657 E16.67187
G1 X104.965 Y76.774 E16.84879 F810.000
G1 X104.965 Y78.178 E16.93170
G1 F1800.000 E15.93170
G92 E0
G1 X102.459 Y74.761 F4800.000
G1 X100.480 Y74.439 F4800.000
G1 E1.00000 F1800.000
G1 X101.864 Y75.823 E1.11559 F1080.000
G1 X101.075 Y75.843 E1.16221
G1 X99.842 Y74.609 E1.26524
G1 X99.437 Y75.014 E1.29903
G1 X100.266 Y75.843 E1.36828
G1 X99.457 Y75.843 E1.41606
G1 X99.033 Y75.419 E1.45152
G1 X98.628 Y75.823 E1.48530
G1 X98.648 Y75.843 E1.48697
G1 F1800.000 E0.48697
G92 E0
G1 X100.963 Y115.474 F4800.000
G1 E1.00000 F1800.000
G1 X101.536 Y115.569 E1.01979 F540.000
G1 X102.164 Y115.737 E1.04192
G1 X102.778 Y115.973 E1.06434
G1 X103.357 Y116.231 E1.08594
G1 X103.877 Y116.496 E1.10585
G1 X103.998 Y116.666 E1.11297
G1 X104.404 Y117.033 E1.13162
G1 X104.857 Y117.486 E1.15347
G1 X105.266 Y117.991 E1.17561
G1 X105.624 Y118.543 E1.19802
G1 X105.915 Y119.115 E1.21988
G1 X106.148 Y119.721 E1.24201
G1 X106.316 Y120.348 E1.26414
G1 X106.350 Y120.567 E1.27171
G1 X106.417 Y120.990 E1.28628
G1 X106.451 Y121.638 E1.30841
G1 X106.417 Y122.287 E1.33055
G1 X106.316 Y122.928 E1.35268
G1 X106.258 Y123.143 E1.36025
G1 X106.148 Y123.556 E1.37482
G1 X105.915 Y124.162 E1.39695
G1 X105.620 Y124.741 E1.41909
G1 X105.266 Y125.286 E1.44122
G1 X104.863 Y125.784 E1.46307
G1 X104.398 Y126.250 E1.48549
G1 X103.893 Y126.658 E1.50762
G1 X103.707 Y126.779 E1.51519
G1 X103.349 Y127.012 E1.52976
G1 X102.770 Y127.307 E1.55189
G1 X102.164 Y127.540 E1.57403
G1 X101.536 Y127.708 E1.59616
G1 X101.317 Y127.742 E1.60372
G1 X100.895 Y127.809 E1.61829
G1 X100.246 Y127.843 E1.64043
G1 X99.598 Y127.809 E1.66256
G1 X98.956 Y127.708 E1.68470
G1 X98.543 Y127.597 E1.69927
G1 X98.329 Y127.540 E1.70683
