; generated by Slic3r 1.1.7 on 2014-10-26 at 17:56:46

; perimeters extrusion width = 0.40mm
; infill extrusion width = 0.67mm
; solid infill extrusion width = 0.67mm
; top infill extrusion width = 0.67mm

G21 ; set units to millimeters
M107
M104 S195 ; set temperature
G28 X0 Y0  
G29
M109 S195 ; wait for temperature to be reached
G90 ; use absolute coordinates
G92 E0
M82 ; use absolute distances for extrusion
G1 F1800.000 E-1.00000
G92 E0
G1 Z0.300 F4800.000
G1 X51.921 Y51.921 F4800.000
G1 E1.00000 F1800.000
G1 X52.844 Y50.998 E1.07708 F720.000
G1 X53.443 Y50.459 E1.12467
G1 X56.126 Y48.340 E1.32660
G1 X58.320 Y46.915 E1.48108
G1 X59.016 Y46.513 E1.52858
G1 X61.352 Y45.323 E1.68339
G1 X62.082 Y44.998 E1.73056
G1 X65.288 Y43.812 E1.93248
G1 X68.602 Y42.968 E2.13441
G1 X71.985 Y42.475 E2.33635
G1 X75.401 Y42.338 E2.53828
G1 X78.013 Y42.475 E2.69273
G1 X78.813 Y42.559 E2.74026 F720.000
G1 X81.401 Y42.968 E2.89499
G1 X82.184 Y43.135 E2.94225
G1 X84.714 Y43.813 E3.09695
G1 X85.475 Y44.060 E3.14422
G1 X87.920 Y44.999 E3.29891
G1 X88.652 Y45.325 E3.34620
G1 X91.679 Y46.914 E3.54813
G1 X94.523 Y48.812 E3.75006
G1 X96.558 Y50.460 E3.90471
G1 X97.154 Y50.996 E3.95204
G1 X99.005 Y52.847 E4.10665
G1 X99.541 Y53.443 E4.15402
G1 X101.660 Y56.126 E4.35595
G1 X103.085 Y58.320 E4.51044
G1 X103.487 Y59.017 E4.55793
G1 X104.675 Y61.348 E4.71247
G1 X105.002 Y62.082 E4.75991
G1 X105.939 Y64.524 E4.91438
G1 X106.188 Y65.289 E4.96189
G1 X107.032 Y68.602 E5.16382
G1 X107.441 Y71.186 E5.31836
G1 X107.525 Y71.985 E5.36580
G1 X107.662 Y74.597 E5.52027
G1 X107.662 Y75.401 E5.56778
G1 X107.525 Y78.016 E5.72238
G1 X107.441 Y78.813 E5.76976
G1 X106.865 Y82.184 E5.97169
G1 X106.188 Y84.709 E6.12609
G1 X105.940 Y85.475 E6.17367
G1 X105.003 Y87.916 E6.32806
G1 X104.675 Y88.652 E6.37565
G1 X103.086 Y91.679 E6.57758
G1 X101.188 Y94.523 E6.77951
G1 X99.004 Y97.154 E6.98144
G1 X97.152 Y99.006 E7.13616
G1 X96.557 Y99.541 E7.18342
G1 X93.874 Y101.660 E7.38535
G1 X91.679 Y103.086 E7.53992
G1 X90.983 Y103.487 E7.58733
G1 X88.654 Y104.674 E7.74173
G1 X87.918 Y105.002 E7.78931
G1 X84.711 Y106.188 E7.99124
G1 X81.398 Y107.032 E8.19317
G1 X78.812 Y107.442 E8.34784
G1 X78.015 Y107.525 E8.39515
G1 X74.599 Y107.662 E8.59708
G1 X71.187 Y107.441 E8.79901
G1 X67.816 Y106.865 E9.00094
G1 X65.287 Y106.187 E9.15560
G1 X64.525 Y105.940 E9.20292
G1 X62.083 Y105.002 E9.35740
G1 X61.348 Y104.675 E9.40490
G1 X58.321 Y103.086 E9.60683
G1 X55.477 Y101.188 E9.80876
G1 X53.442 Y99.541 E9.96336
G1 X52.846 Y99.004 E10.01074
G1 X50.459 Y96.557 E10.21267
G1 X48.340 Y93.874 E10.41460
G1 X46.915 Y91.679 E10.56913
G1 X46.513 Y90.984 E10.61657
G1 X45.323 Y88.649 E10.77132
G1 X44.998 Y87.918 E10.81856
G1 X43.812 Y84.711 E11.02049
G1 X42.968 Y81.398 E11.22242
G1 X42.475 Y78.015 E11.42435
G1 X42.338 Y74.599 E11.62628
G1 X42.475 Y71.987 E11.78072
G1 X42.559 Y71.187 E11.82825
G1 X42.968 Y68.599 E11.98298
G1 X43.135 Y67.817 E12.03023
G1 X43.813 Y65.285 E12.18505
G1 X44.060 Y64.525 E12.23222
G1 X44.999 Y62.078 E12.38699
G1 X45.325 Y61.348 E12.43419
G1 X46.914 Y58.321 E12.63613
G1 X48.812 Y55.477 E12.83806
G1 X50.460 Y53.441 E12.99276
G1 X50.996 Y52.846 E13.04003
G1 X51.879 Y51.963 E13.11380
G1 X52.315 Y52.315 F4800.000
G1 X53.238 Y51.392 E13.19088 F720.000
G1 X53.794 Y50.892 E13.23503
G1 X56.430 Y48.807 E13.43352
G1 X58.623 Y47.382 E13.58800
G1 X59.269 Y47.009 E13.63205
G1 X61.604 Y45.819 E13.78684
G1 X62.281 Y45.518 E13.83059
G1 X65.433 Y44.350 E14.02907
G1 X68.689 Y43.518 E14.22756
G1 X72.014 Y43.031 E14.42606
G1 X75.372 Y42.894 E14.62455
G1 X77.984 Y43.031 E14.77899
G1 X78.726 Y43.109 E14.82309 F720.000
G1 X81.313 Y43.519 E14.97779
G1 X82.039 Y43.673 E15.02163
G1 X84.569 Y44.351 E15.17630
G1 X85.275 Y44.580 E15.22016
G1 X87.720 Y45.519 E15.37482
G1 X88.399 Y45.821 E15.41870
G1 X91.375 Y47.382 E15.61718
G1 X94.173 Y49.245 E15.81567
G1 X96.207 Y50.892 E15.97030
G1 X96.760 Y51.390 E16.01421
G1 X98.611 Y53.241 E16.16880
G1 X99.108 Y53.794 E16.21275
G1 X101.193 Y56.430 E16.41123
G1 X102.618 Y58.623 E16.56571
G1 X102.991 Y59.269 E16.60977
G1 X104.179 Y61.601 E16.76429
G1 X104.482 Y62.281 E16.80831
G1 X105.419 Y64.723 E16.96277
G1 X105.650 Y65.433 E17.00684
G1 X106.482 Y68.689 E17.20533
G1 X106.891 Y71.273 E17.35986
G1 X106.969 Y72.014 E17.40387
G1 X107.106 Y74.626 E17.55833
G1 X107.106 Y75.372 E17.60240
G1 X106.969 Y77.986 E17.75699
G1 X106.891 Y78.726 E17.80094
G1 X106.327 Y82.039 E17.99943
G1 X105.650 Y84.565 E18.15383
G1 X105.420 Y85.275 E18.19796
G1 X104.483 Y87.716 E18.35235
G1 X104.179 Y88.399 E18.39650
G1 X102.618 Y91.375 E18.59499
G1 X100.755 Y94.173 E18.79348
G1 X98.610 Y96.760 E18.99197
G1 X96.758 Y98.612 E19.14666
G1 X96.206 Y99.108 E19.19050
G1 X93.570 Y101.193 E19.38899
G1 X91.375 Y102.618 E19.54355
G1 X90.731 Y102.991 E19.58753
G1 X88.401 Y104.178 E19.74192
G1 X87.719 Y104.482 E19.78606
G1 X84.567 Y105.650 E19.98455
G1 X81.311 Y106.482 E20.18304
G1 X78.725 Y106.891 E20.33769
G1 X77.986 Y106.969 E20.38158
G1 X74.628 Y107.106 E20.58006
G1 X71.274 Y106.891 E20.77856
G1 X67.961 Y106.327 E20.97704
G1 X65.431 Y105.649 E21.13168
G1 X64.725 Y105.420 E21.17558
G1 X62.283 Y104.482 E21.33005
G1 X61.601 Y104.179 E21.37411
G1 X58.625 Y102.618 E21.57260
G1 X55.827 Y100.755 E21.77109
G1 X53.793 Y99.108 E21.92568
G1 X53.240 Y98.610 E21.96963
G1 X50.892 Y96.206 E22.16812
G1 X48.807 Y93.570 E22.36661
G1 X47.382 Y91.376 E22.52113
G1 X47.009 Y90.731 E22.56514
G1 X45.820 Y88.396 E22.71986
G1 X45.518 Y87.719 E22.76368
G1 X44.350 Y84.567 E22.96217
G1 X43.518 Y81.311 E23.16065
G1 X43.031 Y77.986 E23.35914
G1 X42.894 Y74.628 E23.55763
G1 X43.031 Y72.016 E23.71208
G1 X43.109 Y71.274 E23.75617
G1 X43.519 Y68.687 E23.91087
G1 X43.673 Y67.961 E23.95470
G1 X44.351 Y65.429 E24.10948
G1 X44.580 Y64.725 E24.15324
G1 X45.519 Y62.279 E24.30799
G1 X45.821 Y61.601 E24.35177
G1 X47.382 Y58.625 E24.55027
G1 X49.245 Y55.827 E24.74876
G1 X50.893 Y53.792 E24.90344
G1 X51.390 Y53.240 E24.94729
G1 X52.273 Y52.357 E25.02106
G1 X52.709 Y52.709 F4800.000
G1 X53.632 Y51.786 E25.09813 F720.000
G1 X54.144 Y51.324 E25.13884
G1 X56.733 Y49.274 E25.33389
G1 X58.927 Y47.850 E25.48836
G1 X59.522 Y47.506 E25.52898
G1 X61.857 Y46.316 E25.68373
G1 X62.481 Y46.038 E25.72407
G1 X65.577 Y44.888 E25.91912
G1 X68.776 Y44.068 E26.11417
G1 X72.043 Y43.587 E26.30922
G1 X75.343 Y43.450 E26.50427
G1 X77.955 Y43.587 E26.65871
G1 X78.639 Y43.659 E26.69936 F720.000
G1 X81.226 Y44.069 E26.85404
G1 X81.895 Y44.211 E26.89446
G1 X84.425 Y44.889 E27.04911
G1 X85.076 Y45.101 E27.08955
G1 X87.520 Y46.039 E27.24419
G1 X88.146 Y46.318 E27.28464
G1 X91.072 Y47.849 E27.47969
G1 X93.822 Y49.678 E27.67474
G1 X95.857 Y51.325 E27.82935
G1 X96.366 Y51.784 E27.86983
G1 X98.217 Y53.634 E28.02440
G1 X98.676 Y54.144 E28.06492
G1 X100.726 Y56.733 E28.25997
G1 X102.150 Y58.927 E28.41444
G1 X102.494 Y59.522 E28.45506
G1 X103.682 Y61.853 E28.60957
G1 X103.962 Y62.481 E28.65015
G1 X104.899 Y64.923 E28.80461
G1 X105.112 Y65.577 E28.84524
G1 X105.932 Y68.776 E29.04029
G1 X106.341 Y71.360 E29.19481
G1 X106.413 Y72.043 E29.23538
G1 X106.550 Y74.655 E29.38984
G1 X106.550 Y75.343 E29.43048
G1 X106.413 Y77.957 E29.58505
G1 X106.341 Y78.639 E29.62557
G1 X105.789 Y81.895 E29.82062
G1 X105.112 Y84.420 E29.97501
G1 X104.899 Y85.076 E30.01571
G1 X103.963 Y87.516 E30.17010
G1 X103.682 Y88.146 E30.21080
G1 X102.151 Y91.072 E30.40585
G1 X100.322 Y93.822 E30.60090
G1 X98.216 Y96.366 E30.79595
G1 X96.364 Y98.218 E30.95061
G1 X95.856 Y98.676 E30.99104
G1 X93.267 Y100.726 E31.18609
G1 X91.072 Y102.151 E31.34063
G1 X90.478 Y102.494 E31.38118
G1 X88.148 Y103.681 E31.53557
G1 X87.519 Y103.962 E31.57627
G1 X84.423 Y105.112 E31.77132
G1 X81.224 Y105.932 E31.96637
G1 X78.638 Y106.341 E32.12099
G1 X77.957 Y106.413 E32.16146
G1 X74.657 Y106.550 E32.35650
G1 X71.361 Y106.341 E32.55155
G1 X68.105 Y105.789 E32.74660
G1 X65.576 Y105.111 E32.90122
G1 X64.924 Y104.899 E32.94169
G1 X62.483 Y103.962 E33.09616
G1 X61.854 Y103.682 E33.13678
G1 X58.928 Y102.151 E33.33183
G1 X56.178 Y100.323 E33.52688
G1 X54.144 Y98.675 E33.68145
G1 X53.634 Y98.216 E33.72197
G1 X51.324 Y95.856 E33.91702
G1 X49.274 Y93.267 E34.11207
G1 X47.849 Y91.073 E34.26658
G1 X47.506 Y90.478 E34.30716
G1 X46.317 Y88.144 E34.46185
G1 X46.038 Y87.519 E34.50225
G1 X44.888 Y84.423 E34.69730
G1 X44.068 Y81.224 E34.89235
G1 X43.587 Y77.957 E35.08740
G1 X43.450 Y74.657 E35.28244
G1 X43.587 Y72.046 E35.43688
G1 X43.659 Y71.361 E35.47754
G1 X44.069 Y68.774 E35.63221
G1 X44.211 Y68.105 E35.67263
G1 X44.889 Y65.574 E35.82738
G1 X45.100 Y64.924 E35.86772
G1 X46.039 Y62.479 E36.02244
G1 X46.317 Y61.854 E36.06281
G1 X47.849 Y58.928 E36.25786
G1 X49.677 Y56.178 E36.45291
G1 X51.325 Y54.143 E36.60757
G1 X51.784 Y53.634 E36.64800
G1 X52.667 Y52.751 E36.72177
G1 F1800.000 E35.72177
G92 E0
G1 X91.655 Y91.654 F4800.000
G1 E1.00000 F1800.000
G1 X90.782 Y92.527 E1.07294 F900.000
G1 X88.863 Y94.081 E1.21874
G1 X86.793 Y95.426 E1.36454
G1 X84.593 Y96.546 E1.51035
G1 X82.288 Y97.431 E1.65615
G1 X79.904 Y98.070 E1.80195
G1 X77.465 Y98.456 E1.94776
G1 X75.000 Y98.585 E2.09356
G1 X72.535 Y98.456 E2.23936
G1 X70.096 Y98.070 E2.38516
G1 X67.712 Y97.431 E2.53097
G1 X65.407 Y96.546 E2.67677
G1 X63.207 Y95.426 E2.82257
G1 X61.137 Y94.081 E2.96838
G1 X59.218 Y92.527 E3.11418
G1 X57.473 Y90.782 E3.25998
G1 X55.919 Y88.863 E3.40578
G1 X54.574 Y86.793 E3.55159
G1 X53.454 Y84.593 E3.69739
G1 X52.569 Y82.288 E3.84319
G1 X51.930 Y79.904 E3.98899
G1 X51.544 Y77.465 E4.13480
G1 X51.415 Y75.000 E4.28060
G1 X51.544 Y72.535 E4.42640
G1 X51.930 Y70.096 E4.57220
G1 X52.569 Y67.712 E4.71800
G1 X53.454 Y65.407 E4.86381
G1 X54.574 Y63.207 E5.00961
G1 X55.919 Y61.137 E5.15542
G1 X57.473 Y59.218 E5.30122
G1 X59.218 Y57.473 E5.44702
G1 X61.137 Y55.919 E5.59283
G1 X63.207 Y54.574 E5.73863
G1 X65.407 Y53.454 E5.88443
G1 X67.712 Y52.569 E6.03023
G1 X70.096 Y51.930 E6.17604
G1 X72.535 Y51.544 E6.32184
G1 X75.000 Y51.415 E6.46765
G1 X77.465 Y51.544 E6.61345
G1 X79.904 Y51.930 E6.75925 F900.000
G1 X82.288 Y52.569 E6.90505
G1 X84.593 Y53.454 E7.05086
G1 X86.793 Y54.574 E7.19666
G1 X88.863 Y55.919 E7.34246
G1 X90.782 Y57.473 E7.48826
G1 X92.527 Y59.218 E7.63407
G1 X94.081 Y61.137 E7.77987
G1 X95.426 Y63.207 E7.92567
G1 X96.546 Y65.407 E8.07148
G1 X97.431 Y67.712 E8.21728
G1 X98.070 Y70.096 E8.36308
G1 X98.456 Y72.535 E8.50888
G1 X98.585 Y75.000 E8.65469
G1 X98.456 Y77.465 E8.80049
G1 X98.070 Y79.904 E8.94629
G1 X97.431 Y82.288 E9.09210
G1 X96.546 Y84.593 E9.23790
G1 X95.426 Y86.793 E9.38370
G1 X94.081 Y88.863 E9.52950
G1 X92.527 Y90.782 E9.67531
G1 X91.697 Y91.612 E9.74463
G1 X92.049 Y92.048 F4800.000
G1 X91.155 Y92.942 E9.81929 F900.000
G1 X89.191 Y94.532 E9.96854
G1 X87.072 Y95.909 E10.11779
G1 X84.820 Y97.056 E10.26704
G1 X82.461 Y97.962 E10.41630
G1 X80.020 Y98.616 E10.56555
G1 X77.524 Y99.011 E10.71480
G1 X75.000 Y99.143 E10.86405
G1 X72.476 Y99.011 E11.01330
G1 X69.980 Y98.616 E11.16255
G1 X67.539 Y97.962 E11.31180
G1 X65.180 Y97.056 E11.46105
G1 X62.928 Y95.909 E11.61031
G1 X60.809 Y94.532 E11.75956
G1 X58.845 Y92.942 E11.90881
G1 X57.058 Y91.155 E12.05806
G1 X55.468 Y89.191 E12.20731
G1 X54.091 Y87.072 E12.35656
G1 X52.944 Y84.820 E12.50581
G1 X52.038 Y82.461 E12.65506
G1 X51.384 Y80.020 E12.80432
G1 X50.989 Y77.524 E12.95357
G1 X50.857 Y75.000 E13.10282
G1 X50.989 Y72.476 E13.25207
G1 X51.384 Y69.980 E13.40132
G1 X52.038 Y67.539 E13.55057
G1 X52.944 Y65.180 E13.69982
G1 X54.091 Y62.928 E13.84908
G1 X55.468 Y60.809 E13.99832
G1 X57.058 Y58.845 E14.14757
G1 X58.845 Y57.058 E14.29683
G1 X60.809 Y55.468 E14.44608
G1 X62.928 Y54.091 E14.59533
G1 X65.180 Y52.944 E14.74458
G1 X67.539 Y52.038 E14.89383
G1 X69.980 Y51.384 E15.04308
G1 X72.476 Y50.989 E15.19233
G1 X75.000 Y50.857 E15.34159 F900.000
G1 X77.524 Y50.989 E15.49084
G1 X80.020 Y51.384 E15.64009
G1 X82.461 Y52.038 E15.78934
G1 X84.820 Y52.944 E15.93860
G1 X87.072 Y54.091 E16.08785
G1 X89.191 Y55.468 E16.23710
G1 X91.155 Y57.058 E16.38635
G1 X92.942 Y58.845 E16.53560
G1 X94.532 Y60.809 E16.68485
G1 X95.909 Y62.928 E16.83410
G1 X97.056 Y65.180 E16.98336
G1 X97.962 Y67.539 E17.13261
G1 X98.616 Y69.980 E17.28186
G1 X99.011 Y72.476 E17.43111
G1 X99.143 Y75.000 E17.58036
G1 X99.011 Y77.524 E17.72961
G1 X98.616 Y80.020 E17.87886
G1 X97.962 Y82.461 E18.02812
G1 X97.056 Y84.820 E18.17737
G1 X95.909 Y87.072 E18.32662
G1 X94.532 Y89.191 E18.47587
G1 X92.942 Y91.155 E18.62512
G1 X92.091 Y92.006 E18.69616
G1 X92.443 Y92.442 F4800.000
G1 X91.528 Y93.356 E18.77255 F810.000
G1 X89.519 Y94.984 E18.92525
G1 X87.351 Y96.392 E19.07795
G1 X85.047 Y97.566 E19.23065
G1 X82.633 Y98.492 E19.38335
G1 X80.136 Y99.161 E19.53605
G1 X77.582 Y99.566 E19.68875
G1 X75.000 Y99.701 E19.84145
G1 X72.418 Y99.566 E19.99415
G1 X69.864 Y99.161 E20.14685
G1 X67.367 Y98.492 E20.29955
G1 X64.953 Y97.566 E20.45225
G1 X62.649 Y96.392 E20.60495
G1 X60.481 Y94.984 E20.75765
G1 X58.472 Y93.357 E20.91035
G1 X56.643 Y91.528 E21.06305
G1 X55.016 Y89.519 E21.21575
G1 X53.608 Y87.351 E21.36845
G1 X52.434 Y85.047 E21.52115
G1 X51.508 Y82.633 E21.67385
G1 X50.839 Y80.136 E21.82655
G1 X50.434 Y77.582 E21.97925
G1 X50.299 Y75.000 E22.13195
G1 X50.434 Y72.418 E22.28465
G1 X50.839 Y69.864 E22.43735
G1 X51.508 Y67.367 E22.59004
G1 X52.434 Y64.953 E22.74274
G1 X53.608 Y62.649 E22.89545
G1 X55.016 Y60.481 E23.04815
G1 X56.643 Y58.472 E23.20084
G1 X58.472 Y56.644 E23.35355
G1 X60.481 Y55.016 E23.50625
G1 X62.649 Y53.608 E23.65894
G1 X64.953 Y52.434 E23.81164
G1 X67.367 Y51.508 E23.96434
G1 X69.864 Y50.839 E24.11704
G1 X72.418 Y50.434 E24.26974
G1 X75.000 Y50.299 E24.42245
G1 X77.582 Y50.434 E24.57515
G1 X80.136 Y50.839 E24.72785 F810.000
G1 X82.633 Y51.508 E24.88055
G1 X85.047 Y52.434 E25.03325
G1 X87.351 Y53.608 E25.18595
G1 X89.519 Y55.016 E25.33865
G1 X91.528 Y56.643 E25.49135
G1 X93.357 Y58.472 E25.64405
G1 X94.984 Y60.481 E25.79675
G1 X96.392 Y62.649 E25.94945
G1 X97.566 Y64.953 E26.10215
G1 X98.492 Y67.367 E26.25485
G1 X99.161 Y69.864 E26.40755
G1 X99.566 Y72.418 E26.56025
G1 X99.701 Y75.000 E26.71295
G1 X99.566 Y77.582 E26.86565
G1 X99.161 Y80.136 E27.01835
G1 X98.492 Y82.633 E27.17105
G1 X97.566 Y85.047 E27.32375
G1 X96.392 Y87.351 E27.47645
G1 X94.984 Y89.519 E27.62915
G1 X93.357 Y91.528 E27.78185
G1 X92.485 Y92.400 E27.85461
G1 F1800.000 E26.85461
G92 E0
G1 X77.932 Y50.628 F4800.000
G1 X82.734 Y53.151 F4800.000
G1 E1.00000 F1800.000
G1 X96.849 Y67.267 E2.17897 F1080.000
G1 X97.227 Y68.433 E2.25142
G1 X81.567 Y52.773 E3.55943
G1 X80.489 Y52.484 E3.62532
G1 X97.516 Y69.511 E5.04745
G1 X97.751 Y70.535 E5.10950
G1 X79.465 Y52.249 E6.63679
G1 X78.528 Y52.101 E6.69284
G1 X97.899 Y71.472 E8.31082
G1 X98.048 Y72.410 E8.36687
G1 X77.590 Y51.952 E10.07553
G1 X76.739 Y51.890 E10.12592
G1 X98.110 Y73.261 E11.91085
G1 X98.154 Y74.093 E11.96009
G1 X75.907 Y51.846 E13.81819
G1 X75.074 Y51.803 E13.86743
G1 X98.197 Y74.926 E15.79871
G1 X98.165 Y75.683 E15.84346
G1 X74.317 Y51.835 E17.83530
G1 X73.568 Y51.874 E17.87963
G1 X98.126 Y76.432 E19.93081
G1 X98.087 Y77.182 E19.97514
G1 X72.818 Y51.913 E22.08564
G1 X72.115 Y51.999 E22.12748
G1 X98.001 Y77.885 E24.28957
G1 X97.893 Y78.566 E24.33029
G1 X71.434 Y52.107 E26.54026
G1 X70.753 Y52.215 E26.58098
G1 X97.785 Y79.247 E28.83881
G1 X97.669 Y79.919 E28.87909
G1 X70.081 Y52.331 E31.18329
G1 X69.459 Y52.498 E31.22133
G1 X97.502 Y80.541 E33.56357
G1 X97.335 Y81.163 E33.60161
G1 X68.837 Y52.665 E35.98189
G1 X68.214 Y52.832 E36.01993
G1 X97.168 Y81.785 E38.43825
G1 X96.982 Y82.388 E38.47549
G1 X67.612 Y53.018 E40.92852
G1 X67.042 Y53.237 E40.96458
G1 X96.763 Y82.958 E43.44695
G1 X96.544 Y83.528 E43.48301
G1 X66.472 Y53.456 E45.99471
G1 X65.902 Y53.675 E46.03077
G1 X96.325 Y84.098 E48.57181
G1 X96.087 Y84.649 E48.60725
G1 X65.351 Y53.913 E51.17440
G1 X64.829 Y54.179 E51.20904
G1 X95.821 Y85.171 E53.79761
G1 X95.555 Y85.694 E53.83225
G1 X64.306 Y54.445 E56.44222
G1 X63.784 Y54.712 E56.47686
G1 X95.288 Y86.216 E59.10825
G1 X95.010 Y86.727 E59.14260
G1 X63.273 Y54.990 E61.79343
G1 X62.794 Y55.300 E61.82711
G1 X94.700 Y87.206 E64.49194
G1 X94.389 Y87.684 E64.52562
G1 X62.316 Y55.611 E67.20446
G1 X61.838 Y55.921 E67.23814
G1 X94.079 Y88.162 E69.93098
