; generated by Slic3r 1.2.0 on 2014-10-26 at 14:38:11

; external perimeters extrusion width = 0.40mm
; perimeters extrusion width = 0.67mm
; infill extrusion width = 0.67mm
; solid infill extrusion width = 0.67mm
; top infill extrusion width = 0.67mm

G21 ; set units to millimeters
M107
M104 S195 ; set temperature
G28 X0 Y0  
G29
M109 S195 ; wait for temperature to be reached
G90 ; use absolute coordinates
G92 E0
M82 ; use absolute distances for extrusion
G1 F1800.000 E-1.00000
G92 E0
G1 Z0.300 F4800.000
G1 X45.237 Y37.652 F4800.000
G1 E1.00000 F1800.000
G1 X46.849 Y35.716 E1.14309 F720.000
G1 X48.230 Y34.335 E1.25399
G1 X49.065 Y33.558 E1.31875
G1 X50.583 Y32.329 E1.42964
G1 X51.495 Y31.644 E1.49441
G1 X54.111 Y29.995 E1.67003
G1 X56.886 Y28.628 E1.84566
G1 X59.111 Y27.774 E1.98103
G1 X106.917 Y10.102 E4.87520
G1 X109.225 Y9.644 E5.00883
G1 X111.605 Y9.555 E5.14409
G1 X113.913 Y9.831 E5.27604 F720.000
G1 X116.177 Y10.470 E5.40967
G1 X118.314 Y11.457 E5.54328
G1 X120.269 Y12.765 E5.67690
G1 X121.997 Y14.363 E5.81052
G1 X123.452 Y16.212 E5.94413
G1 X124.601 Y18.266 E6.07775
G1 X125.414 Y20.473 E6.21135
G1 X125.872 Y22.782 E6.34498
G1 X125.986 Y24.609 E6.44895
G1 X125.350 Y87.782 E10.03636
G1 X125.292 Y88.367 E10.06976
G1 X125.001 Y89.829 E10.15442
G1 X124.831 Y90.392 E10.18783
G1 X124.260 Y91.770 E10.27251
G1 X123.983 Y92.289 E10.30591
G1 X123.154 Y93.529 E10.39059
G1 X122.781 Y93.983 E10.42398
G1 X121.911 Y94.882 E10.49501
G1 X75.451 Y135.536 E14.00064
G1 X73.021 Y137.450 E14.17629
G1 X70.405 Y139.100 E14.35195
G1 X67.630 Y140.467 E14.52760
G1 X64.727 Y141.537 E14.70325
G1 X61.729 Y142.297 E14.87890
G1 X58.667 Y142.740 E15.05455
G1 X55.576 Y142.860 E15.23021
G1 X52.490 Y142.656 E15.40586
G1 X49.441 Y142.131 E15.58152
G1 X46.464 Y141.291 E15.75717
G1 X43.592 Y140.143 E15.93282
G1 X43.285 Y139.987 E15.95240
G1 X40.855 Y138.702 E16.10848
G1 X38.283 Y136.982 E16.28413
G1 X35.906 Y135.003 E16.45978
G1 X33.748 Y132.787 E16.63544
G1 X31.834 Y130.357 E16.81109
G1 X30.184 Y127.740 E16.98674
G1 X28.817 Y124.965 E17.16240
G1 X27.748 Y122.063 E17.33805
G1 X26.987 Y119.064 E17.51370
G1 X26.545 Y116.003 E17.68935
G1 X26.424 Y112.912 E17.86501
G1 X26.628 Y109.825 E18.04066
G1 X27.069 Y107.122 E18.19620
G1 X39.722 Y49.249 E21.56011
G1 X40.244 Y47.300 E21.67469
G1 X40.563 Y46.273 E21.73577
G1 X41.710 Y43.400 E21.91140
G1 X43.151 Y40.664 E22.08702
G1 X44.870 Y38.093 E22.26265
G1 X45.198 Y37.699 E22.29178
G1 X45.610 Y38.041 F4800.000
G1 X47.228 Y36.094 E22.43549 F720.000
G1 X48.608 Y34.714 E22.54638
G1 X49.402 Y33.975 E22.60796
G1 X50.920 Y32.746 E22.71885
G1 X51.786 Y32.094 E22.78043
G1 X54.354 Y30.472 E22.95288
G1 X57.078 Y29.128 E23.12533
G1 X59.298 Y28.277 E23.26035
G1 X107.042 Y10.623 E26.15090
G1 X109.267 Y10.178 E26.27975
G1 X111.563 Y10.089 E26.41024
G1 X113.788 Y10.351 E26.53743 F720.000
G1 X115.972 Y10.965 E26.66628
G1 X118.034 Y11.913 E26.79513
G1 X119.922 Y13.172 E26.92398
G1 X121.589 Y14.711 E27.05283
G1 X122.995 Y16.492 E27.18167
G1 X124.106 Y18.471 E27.31052
G1 X124.893 Y20.598 E27.43935
G1 X125.338 Y22.824 E27.56821
G1 X125.450 Y24.604 E27.66951
G1 X124.817 Y87.729 E31.25423
G1 X124.759 Y88.314 E31.28762
G1 X124.489 Y89.674 E31.36632
G1 X124.318 Y90.237 E31.39973
G1 X123.788 Y91.517 E31.47845
G1 X123.510 Y92.036 E31.51184
G1 X122.740 Y93.189 E31.59056
G1 X121.558 Y94.479 E31.68991
G1 X75.114 Y135.120 E35.19437
G1 X72.730 Y137.001 E35.36684
G1 X70.161 Y138.623 E35.53932
G1 X67.438 Y139.967 E35.71179
G1 X64.589 Y141.019 E35.88426
G1 X61.645 Y141.768 E36.05673
G1 X58.639 Y142.205 E36.22920
G1 X55.604 Y142.325 E36.40168
G1 X52.573 Y142.127 E36.57415
G1 X49.580 Y141.614 E36.74662
G1 X46.656 Y140.790 E36.91909
G1 X43.835 Y139.666 E37.09156
G1 X43.528 Y139.509 E37.11114
G1 X41.146 Y138.253 E37.26404
G1 X38.620 Y136.566 E37.43651
G1 X36.285 Y134.625 E37.60898
G1 X34.164 Y132.450 E37.78146
G1 X32.283 Y130.065 E37.95393
G1 X30.662 Y127.497 E38.12640
G1 X29.317 Y124.773 E38.29887
G1 X28.265 Y121.924 E38.47134
G1 X27.516 Y118.981 E38.64381
G1 X27.080 Y115.975 E38.81629
G1 X26.959 Y112.940 E38.98876
G1 X27.157 Y109.909 E39.16123
G1 X27.592 Y107.236 E39.31501
G1 X40.239 Y49.388 E42.67749
G1 X40.762 Y47.439 E42.79208
G1 X41.063 Y46.465 E42.84997
G1 X42.187 Y43.644 E43.02242
G1 X43.600 Y40.956 E43.19486
G1 X45.287 Y38.430 E43.36731
G1 X45.572 Y38.087 E43.39264
G1 X45.984 Y38.429 F4800.000
G1 X47.606 Y36.473 E43.53694 F720.000
G1 X48.987 Y35.092 E43.64783
G1 X49.739 Y34.391 E43.70623
G1 X51.257 Y33.162 E43.81712
G1 X52.078 Y32.543 E43.87552
G1 X54.597 Y30.950 E44.04478
G1 X57.269 Y29.628 E44.21405
G1 X59.484 Y28.779 E44.34873
G1 X107.167 Y11.143 E47.23565
G1 X109.309 Y10.712 E47.35974
G1 X111.521 Y10.623 E47.48546
G1 X113.663 Y10.872 E47.60787 F720.000
G1 X115.767 Y11.460 E47.73196
G1 X117.754 Y12.370 E47.85604
G1 X119.574 Y13.580 E47.98012
G1 X121.182 Y15.059 E48.10420
G1 X122.539 Y16.772 E48.22827
G1 X123.611 Y18.675 E48.35235
G1 X124.372 Y20.723 E48.47642
G1 X124.804 Y22.866 E48.60051
G1 X124.915 Y24.599 E48.69913
G1 X124.284 Y87.677 E52.28116
G1 X124.226 Y88.262 E52.31455
G1 X123.976 Y89.518 E52.38729
G1 X123.806 Y90.081 E52.42070
G1 X123.315 Y91.265 E52.49345
G1 X123.038 Y91.784 E52.52685
G1 X122.326 Y92.849 E52.59960
G1 X121.205 Y94.075 E52.69395
G1 X74.777 Y134.704 E56.19725
G1 X72.438 Y136.552 E56.36654
G1 X69.918 Y138.145 E56.53584
G1 X67.246 Y139.467 E56.70513
G1 X64.450 Y140.502 E56.87442
G1 X61.561 Y141.239 E57.04371
G1 X58.611 Y141.670 E57.21300
G1 X55.632 Y141.790 E57.38229
G1 X52.657 Y141.598 E57.55158
G1 X49.718 Y141.097 E57.72087
G1 X46.848 Y140.290 E57.89016
G1 X44.078 Y139.189 E58.05945
G1 X43.771 Y139.032 E58.07902
G1 X41.438 Y137.803 E58.22875
G1 X38.957 Y136.150 E58.39804
G1 X36.663 Y134.246 E58.56733
G1 X34.581 Y132.113 E58.73662
G1 X32.732 Y129.773 E58.90591
G1 X31.139 Y127.254 E59.07520
G1 X29.817 Y124.581 E59.24449
G1 X28.782 Y121.786 E59.41378
G1 X28.045 Y118.897 E59.58307
G1 X27.614 Y115.947 E59.75236
G1 X27.494 Y112.968 E59.92165
G1 X27.686 Y109.993 E60.09094
G1 X28.116 Y107.351 E60.24296
G1 X40.757 Y49.526 E63.60402
G1 X41.279 Y47.577 E63.71861
G1 X41.563 Y46.657 E63.77332
G1 X42.664 Y43.887 E63.94258
G1 X44.049 Y41.247 E64.11185
G1 X45.703 Y38.767 E64.28111
G1 X45.945 Y38.475 E64.30267
G1 F1800.000 E63.30267
G92 E0
G1 X54.359 Y111.038 F4800.000
G1 E1.00000 F1800.000
G1 X45.072 Y98.255 E1.89720 F900.000
G1 X45.642 Y96.424 E2.00608
G1 X47.936 Y95.255 E2.15229
G1 X49.867 Y94.514 E2.26976
G1 X51.865 Y93.978 E2.38722
G1 X53.908 Y93.655 E2.50469
G1 X55.974 Y93.547 E2.62217
G1 X58.040 Y93.655 E2.73963
G1 X60.083 Y93.978 E2.85710
G1 X62.082 Y94.514 E2.97457
G1 X64.013 Y95.255 E3.09204
G1 X66.307 Y96.424 E3.23825
G1 X66.877 Y98.255 E3.34713
G1 X57.590 Y111.038 E4.24433
G1 X57.636 Y111.071 E4.24760
G1 X66.923 Y98.289 E5.14480
G1 X68.841 Y98.265 E5.25368
G1 X70.661 Y100.086 E5.39989
G1 X71.963 Y101.693 E5.51736
G1 X73.090 Y103.428 E5.63483
G1 X74.029 Y105.271 E5.75229
G1 X74.770 Y107.203 E5.86976
G1 X75.306 Y109.201 E5.98723
G1 X75.629 Y111.244 E6.10470
G1 X75.738 Y113.310 E6.22217
G1 X75.629 Y115.376 E6.33964
G1 X75.227 Y117.919 E6.48584
G1 X73.661 Y119.027 E6.59473
G1 X58.635 Y114.144 E7.49193
G1 X58.617 Y114.199 E7.49520
G1 X73.644 Y119.081 E8.39240
G1 X74.259 Y120.897 E8.50128
G1 X73.090 Y123.192 E8.64749
G1 X71.963 Y124.926 E8.76496
G1 X70.661 Y126.534 E8.88243
G1 X69.199 Y127.997 E8.99989
G1 X67.591 Y129.299 E9.11736
G1 X65.856 Y130.425 E9.23483
G1 X64.013 Y131.365 E9.35230
G1 X62.082 Y132.106 E9.46977
G1 X60.083 Y132.641 E9.58723
G1 X57.540 Y133.044 E9.73344
G1 X56.003 Y131.898 E9.84233
G1 X56.003 Y116.098 E10.73953
G1 X55.946 Y116.098 E10.74279
G1 X55.946 Y131.898 E11.63999
G1 X54.409 Y133.044 E11.74887
G1 X51.865 Y132.641 E11.89509
G1 X49.867 Y132.106 E12.01256
G1 X47.936 Y131.365 E12.13002
G1 X46.093 Y130.425 E12.24749
G1 X45.171 Y129.827 E12.30988
G1 X45.171 Y129.958 E12.31729
G1 X42.750 Y127.997 E12.49420
G1 X41.287 Y126.534 E12.61167
G1 X39.986 Y124.927 E12.72914
G1 X38.859 Y123.192 E12.84660
G1 X37.690 Y120.897 E12.99281
G1 X38.305 Y119.081 E13.10169
G1 X53.332 Y114.199 E13.99890
G1 X53.314 Y114.144 E14.00216
G1 X38.287 Y119.027 E14.89936
G1 X36.722 Y117.919 E15.00824
G1 X36.319 Y115.376 E15.15445
G1 X36.211 Y113.310 E15.27192
G1 X36.319 Y111.244 E15.38939
G1 X36.643 Y109.201 E15.50686
G1 X37.178 Y107.203 E15.62433
G1 X37.920 Y105.272 E15.74179
G1 X38.859 Y103.428 E15.85926
G1 X39.985 Y101.693 E15.97673
G1 X41.287 Y100.086 E16.09420
G1 X43.108 Y98.265 E16.24040
G1 X45.025 Y98.289 E16.34929
G1 X54.311 Y111.070 E17.24637
G1 X53.878 Y111.384 F4800.000
G1 X53.887 Y111.397 E17.24727 F900.000
G1 X53.162 Y113.630 E17.38061
G1 X38.377 Y118.434 E18.26333
G1 X37.216 Y117.612 E18.34413
G1 X36.853 Y115.320 E18.47592
G1 X36.747 Y113.310 E18.59020
G1 X36.853 Y111.300 E18.70448
G1 X37.168 Y109.312 E18.81876
G1 X37.688 Y107.368 E18.93304
G1 X38.410 Y105.490 E19.04732
G1 X39.323 Y103.696 E19.16160
G1 X40.419 Y102.009 E19.27588
G1 X41.686 Y100.445 E19.39017
G1 X43.033 Y99.098 E19.49832
G1 X43.327 Y98.803 E19.52196 F900.000
G1 X44.750 Y98.821 E19.60276
G1 X53.843 Y111.336 E20.48118
G1 X53.293 Y111.491 F4800.000
G1 X52.736 Y113.205 E20.58352 F810.000
G1 X38.467 Y117.842 E21.43548
G1 X37.710 Y117.305 E21.48820
G1 X37.386 Y115.264 E21.60558
G1 X37.284 Y113.310 E21.71667
G1 X37.386 Y111.356 E21.82777
G1 X37.692 Y109.424 E21.93886
G1 X38.199 Y107.534 E22.04995
G1 X38.900 Y105.708 E22.16104
G1 X39.788 Y103.965 E22.27213
G1 X40.853 Y102.324 E22.38323
G1 X42.084 Y100.803 E22.49432
G1 X43.546 Y99.342 E22.61170
G1 X44.475 Y99.353 E22.66443
G1 X53.258 Y111.443 E23.51298 F810.000
G1 F1800.000 E22.51298
G92 E0
G1 X44.710 Y99.030 F4800.000
G1 X45.748 Y98.275 F4800.000
G1 E1.00000 F1800.000
G1 X45.663 Y98.158 E1.00824 F900.000
G1 X46.086 Y96.799 E1.08904
G1 X48.154 Y95.745 E1.22083
G1 X50.033 Y95.024 E1.33512
G1 X51.977 Y94.503 E1.44940
G1 X53.965 Y94.188 E1.56368
G1 X55.867 Y94.089 E1.67183
G1 X57.984 Y94.188 E1.79221 F900.000
G1 X59.972 Y94.503 E1.90649
G1 X61.916 Y95.024 E2.02077
G1 X63.795 Y95.745 E2.13505
G1 X65.863 Y96.799 E2.26684
G1 X66.286 Y98.158 E2.34765
G1 X57.148 Y110.734 E3.23037
G1 X54.800 Y110.734 E3.36370
G1 X45.784 Y98.324 E4.23477
G1 X46.254 Y98.060 F4800.000
G1 X46.530 Y97.174 E4.28749 F810.000
G1 X48.372 Y96.235 E4.40487
G1 X50.199 Y95.534 E4.51596
G1 X52.088 Y95.028 E4.62706
G1 X54.021 Y94.722 E4.73815
G1 X55.974 Y94.619 E4.84925
G1 X57.848 Y94.717 E4.95580
G1 X59.860 Y95.028 E5.07141 F810.000
G1 X61.750 Y95.534 E5.18250
G1 X63.577 Y96.235 E5.29359
G1 X65.418 Y97.174 E5.41097
G1 X65.694 Y98.060 E5.46369
G1 X56.875 Y110.198 E6.31565
G1 X55.073 Y110.198 E6.41800
G1 X46.290 Y98.109 E7.26655
G1 F1800.000 E6.26655
G92 E0
G1 X57.912 Y94.323 F4800.000
G1 X66.129 Y100.293 F4800.000
G1 E1.00000 F1800.000
G1 X67.199 Y98.821 E1.10330 F900.000
G1 X68.248 Y98.808 E1.16287
G1 X68.622 Y98.803 E1.18410 F900.000
G1 X70.263 Y100.445 E1.31589
G1 X71.529 Y102.009 E1.43017
G1 X72.625 Y103.696 E1.54445
G1 X73.539 Y105.490 E1.65873
G1 X74.260 Y107.368 E1.77301
G1 X74.781 Y109.312 E1.88730
G1 X75.079 Y111.194 E1.99545
G1 X75.201 Y113.310 E2.11582
G1 X75.096 Y115.320 E2.23011
G1 X74.733 Y117.612 E2.36190
G1 X73.571 Y118.434 E2.44270
G1 X58.787 Y113.630 E3.32542
G1 X58.062 Y111.397 E3.45876
G1 X66.094 Y100.341 E4.23477
G1 X66.528 Y100.656 F4800.000
G1 X67.474 Y99.353 E4.32621 F810.000
G1 X68.403 Y99.342 E4.37894
G1 X69.808 Y100.747 E4.49178
G1 X71.095 Y102.324 E4.60739 F810.000
G1 X72.161 Y103.965 E4.71848
G1 X73.049 Y105.708 E4.82957
G1 X73.750 Y107.534 E4.94066
G1 X74.257 Y109.424 E5.05176
G1 X74.563 Y111.356 E5.16285
G1 X74.665 Y113.310 E5.27394
G1 X74.563 Y115.264 E5.38503
G1 X74.239 Y117.305 E5.50241
G1 X73.481 Y117.842 E5.55514
G1 X59.212 Y113.205 E6.40710
G1 X58.655 Y111.491 E6.50944
G1 X66.492 Y100.705 E7.26655
G1 F1800.000 E6.26655
G92 E0
G1 X70.110 Y100.486 F4800.000
G1 X64.817 Y116.777 F4800.000
G1 E1.00000 F1800.000
G1 X73.223 Y119.508 E1.50186 F900.000
G1 X73.679 Y120.855 E1.58266
G1 X72.625 Y122.923 E1.71446
G1 X71.529 Y124.611 E1.82874
G1 X70.263 Y126.175 E1.94302
G1 X68.840 Y127.598 E2.05730
G1 X67.276 Y128.865 E2.17158
G1 X65.588 Y129.961 E2.28586
G1 X63.795 Y130.875 E2.40014
G1 X61.916 Y131.596 E2.51442
G1 X59.972 Y132.117 E2.62870
G1 X57.680 Y132.480 E2.76049
G1 X56.539 Y131.629 E2.84130
G1 X56.539 Y116.084 E3.72402
G1 X58.054 Y114.984 E3.83034
G1 X58.438 Y114.704 E3.85735 F900.000
G1 X64.760 Y116.758 E4.23481
G1 X64.595 Y117.267 F4800.000
G1 X72.192 Y119.736 E4.68844 F810.000
G1 X72.802 Y119.934 E4.72481 F810.000
G1 X73.099 Y120.813 E4.77753
G1 X72.161 Y122.655 E4.89492
G1 X71.095 Y124.296 E5.00601
G1 X69.864 Y125.816 E5.11710
G1 X68.481 Y127.200 E5.22819
G1 X66.960 Y128.431 E5.33928
G1 X65.320 Y129.496 E5.45038
G1 X63.577 Y130.385 E5.56147
G1 X61.750 Y131.086 E5.67256
G1 X59.860 Y131.592 E5.78365
G1 X57.819 Y131.915 E5.90103
G1 X57.074 Y131.360 E5.95376
G1 X57.074 Y116.357 E6.80572
G1 X58.532 Y115.298 E6.90806
G1 X64.538 Y117.249 E7.26661
G1 F1800.000 E6.26661
G92 E0
G1 X72.490 Y119.468 F4800.000
G1 X58.116 Y114.006 F4800.000
G1 E1.00000 F1800.000
G1 X57.925 Y114.436 E1.02674 F900.000
G1 X57.648 Y114.817 E1.05348
G1 X57.298 Y115.132 E1.08022
G1 X56.890 Y115.368 E1.10696
G1 X56.443 Y115.513 E1.13369
G1 X55.974 Y115.562 E1.16043
G1 X55.506 Y115.513 E1.18717
G1 X55.414 Y115.483 E1.19266
G1 X55.058 Y115.368 E1.21391
G1 X54.650 Y115.132 E1.24065
G1 X54.301 Y114.817 E1.26738
G1 X54.024 Y114.436 E1.29412
G1 X53.832 Y114.006 E1.32086
G1 X53.734 Y113.545 E1.34760
G1 X53.734 Y113.074 E1.37434
G1 X53.832 Y112.614 E1.40107
G1 X54.024 Y112.184 E1.42782
G1 X54.301 Y111.803 E1.45456
G1 X54.650 Y111.488 E1.48129
G1 X55.058 Y111.252 E1.50803
G1 X55.506 Y111.107 E1.53477
G1 X55.602 Y111.097 E1.54026
G1 X55.974 Y111.058 E1.56151 F900.000
G1 X56.443 Y111.107 E1.58824
G1 X56.890 Y111.252 E1.61499
G1 X57.298 Y111.488 E1.64172
G1 X57.648 Y111.803 E1.66846
G1 X57.925 Y112.184 E1.69520
G1 X58.117 Y112.614 E1.72194
G1 X58.214 Y113.074 E1.74868
G1 X58.214 Y113.545 E1.77542
G1 X58.129 Y113.947 E1.79875
G1 X57.605 Y113.836 F4800.000
G1 X57.459 Y114.167 E1.81930 F810.000
G1 X57.248 Y114.457 E1.83964
G1 X56.982 Y114.696 E1.85999
G1 X56.671 Y114.876 E1.88034
G1 X56.331 Y114.986 E1.90068
G1 X55.974 Y115.024 E1.92102
G1 X55.618 Y114.986 E1.94137
G1 X55.277 Y114.876 E1.96171
G1 X54.967 Y114.696 E1.98206
G1 X54.701 Y114.457 E2.00240
G1 X54.490 Y114.167 E2.02275
G1 X54.344 Y113.839 E2.04309
G1 X54.270 Y113.489 E2.06344
G1 X54.270 Y113.131 E2.08379
G1 X54.344 Y112.780 E2.10413
G1 X54.490 Y112.453 E2.12447
G1 X54.701 Y112.163 E2.14482
G1 X54.967 Y111.923 E2.16517
G1 X55.277 Y111.744 E2.18551
G1 X55.618 Y111.634 E2.20585
G1 X56.015 Y111.600 E2.22845
G1 X56.331 Y111.634 E2.24650 F810.000
G1 X56.671 Y111.744 E2.26684
G1 X56.982 Y111.923 E2.28719
G1 X57.248 Y112.163 E2.30753
G1 X57.459 Y112.453 E2.32788
G1 X57.604 Y112.780 E2.34822
G1 X57.679 Y113.131 E2.36857
G1 X57.679 Y113.489 E2.38892
G1 X57.618 Y113.777 E2.40564
G1 F1800.000 E1.40564
G92 E0
G1 X55.960 Y111.287 F4800.000
G1 X53.510 Y114.704 F4800.000
G1 E1.00000 F1800.000
G1 X55.410 Y116.084 E1.13334 F900.000
G1 X55.410 Y131.629 E2.01605
G1 X54.269 Y132.480 E2.09686
G1 X51.977 Y132.117 E2.22865
G1 X50.033 Y131.596 E2.34293
G1 X48.154 Y130.875 E2.45721
G1 X46.361 Y129.961 E2.57149
G1 X44.673 Y128.865 E2.68577
G1 X43.109 Y127.598 E2.80005
G1 X41.686 Y126.175 E2.91433
G1 X40.419 Y124.611 E3.02861
G1 X39.323 Y122.923 E3.14289
G1 X38.270 Y120.855 E3.27469
G1 X38.726 Y119.508 E3.35549
G1 X52.639 Y114.987 E4.18621
G1 X53.453 Y114.722 E4.23480 F900.000
G1 X53.416 Y115.298 F4800.000
G1 X54.710 Y116.238 E4.32563 F810.000
G1 X54.874 Y116.357 E4.33715 F810.000
G1 X54.874 Y131.360 E5.18911
G1 X54.130 Y131.915 E5.24183
G1 X52.088 Y131.592 E5.35921
G1 X50.199 Y131.086 E5.47030
G1 X48.372 Y130.385 E5.58140
G1 X46.629 Y129.496 E5.69249
G1 X44.988 Y128.431 E5.80358
G1 X43.468 Y127.200 E5.91467
G1 X42.141 Y125.873 E6.02123
G1 X40.853 Y124.296 E6.13683
G1 X39.788 Y122.655 E6.24792
G1 X38.849 Y120.813 E6.36530
G1 X39.147 Y119.934 E6.41803
G1 X53.359 Y115.316 E7.26658
G1 X54.865 Y116.106 F4800.000
