; generated by Slic3r 1.2.0 on 2014-10-26 at 14:36:36

; external perimeters extrusion width = 0.40mm
; perimeters extrusion width = 0.67mm
; infill extrusion width = 0.67mm
; solid infill extrusion width = 0.67mm
; top infill extrusion width = 0.67mm

G21 ; set units to millimeters
M107
M104 S195 ; set temperature
G28 X0 Y0  
G29
M109 S195 ; wait for temperature to be reached
G90 ; use absolute coordinates
G92 E0
M82 ; use absolute distances for extrusion
G1 F1800.000 E-1.00000
G92 E0
G1 Z0.300 F4800.000
G1 X53.619 Y57.750 F4800.000
G1 E1.00000 F1800.000
G1 X58.596 Y53.206 E1.38272 F720.000
G1 X60.974 Y51.180 E1.56010
G1 X63.496 Y49.452 E1.73370
G1 X66.261 Y47.960 E1.91210
G1 X69.291 Y46.729 E2.09782
G1 X72.389 Y45.841 E2.28085
G1 X75.590 Y45.282 E2.46535
G1 X76.741 Y45.190 E2.53091
G1 X78.750 Y45.295 E2.64517
G1 X80.817 Y45.725 E2.76507 F720.000
G1 X83.890 Y46.685 E2.94789
G1 X86.877 Y47.985 E3.13284
G1 X89.593 Y49.525 E3.31017
G1 X92.145 Y51.354 E3.48843
G1 X94.463 Y53.421 E3.66476
G1 X94.650 Y53.619 E3.68023
G1 X99.217 Y58.622 E4.06489
G1 X101.220 Y60.974 E4.24034
G1 X102.980 Y63.553 E4.41766
G1 X104.472 Y66.335 E4.59690
G1 X105.671 Y69.291 E4.77802
G1 X106.559 Y72.389 E4.96105
G1 X107.108 Y75.474 E5.13895
G1 X107.212 Y76.754 E5.21191
G1 X107.105 Y78.750 E5.32541
G1 X106.675 Y80.818 E5.44531
G1 X105.714 Y83.890 E5.62812
G1 X104.439 Y86.833 E5.81023
G1 X104.271 Y87.140 E5.83010
G1 X102.837 Y89.647 E5.99412
G1 X100.993 Y92.206 E6.17325
G1 X98.908 Y94.530 E6.35049
G1 X97.188 Y96.121 E6.48358
G1 X93.804 Y99.194 E6.74314
G1 X91.467 Y101.191 E6.91769
G1 X88.847 Y102.980 E7.09786
G1 X86.065 Y104.472 E7.27709
G1 X83.109 Y105.671 E7.45822
G1 X80.011 Y106.559 E7.64124
G1 X76.810 Y107.118 E7.82575
G1 X75.659 Y107.210 E7.89131
G1 X73.650 Y107.105 E8.00558
G1 X71.583 Y106.675 E8.12548
G1 X68.477 Y105.701 E8.31030
G1 X65.523 Y104.415 E8.49324
G1 X62.807 Y102.875 E8.67056
G1 X60.255 Y101.046 E8.84882
G1 X57.937 Y98.979 E9.02517
G1 X57.750 Y98.781 E9.04063
G1 X53.183 Y93.778 E9.42528
G1 X51.180 Y91.426 E9.60072
G1 X49.452 Y88.904 E9.77433
G1 X49.303 Y88.640 E9.79154
G1 X47.928 Y86.065 E9.95731
G1 X46.729 Y83.109 E10.13843
G1 X45.862 Y80.119 E10.31523
G1 X45.292 Y76.926 E10.49938
G1 X45.188 Y75.646 E10.57235
G1 X45.295 Y73.650 E10.68583
G1 X45.725 Y71.583 E10.80574
G1 X46.685 Y68.510 E10.98855
G1 X47.961 Y65.568 E11.17066
G1 X49.563 Y62.753 E11.35454
G1 X51.354 Y60.255 E11.52908
G1 X53.421 Y57.937 E11.70543
G1 X53.575 Y57.791 E11.71748
G1 X53.943 Y58.181 F4800.000
G1 X58.951 Y53.607 E12.10261 F720.000
G1 X61.282 Y51.618 E12.27661
G1 X63.759 Y49.918 E12.44723
G1 X66.474 Y48.452 E12.62245
G1 X69.445 Y47.242 E12.80460
G1 X72.488 Y46.367 E12.98439
G1 X75.633 Y45.816 E13.16569
G1 X76.784 Y45.723 E13.23125
G1 X78.652 Y45.821 E13.33746
G1 X80.664 Y46.238 E13.45416 F720.000
G1 X83.685 Y47.180 E13.63387
G1 X86.618 Y48.455 E13.81544
G1 X89.290 Y49.967 E13.98979
G1 X91.797 Y51.761 E14.16487
G1 X94.074 Y53.789 E14.33802
G1 X94.256 Y53.982 E14.35307
G1 X98.814 Y58.975 E14.73694
G1 X100.782 Y61.282 E14.90914
G1 X102.512 Y63.813 E15.08322
G1 X103.978 Y66.543 E15.25922
G1 X105.158 Y69.445 E15.43710
G1 X106.033 Y72.488 E15.61689
G1 X106.574 Y75.525 E15.79205
G1 X106.678 Y76.796 E15.86449
G1 X106.579 Y78.652 E15.96999
G1 X106.162 Y80.664 E16.08668
G1 X105.220 Y83.685 E16.26640
G1 X103.968 Y86.577 E16.44532
G1 X103.803 Y86.881 E16.46497
G1 X102.398 Y89.340 E16.62577
G1 X100.589 Y91.854 E16.80166
G1 X98.545 Y94.136 E16.97565
G1 X96.827 Y95.724 E17.10848
G1 X93.449 Y98.793 E17.36762
G1 X91.156 Y100.755 E17.53898
G1 X88.587 Y102.512 E17.71571
G1 X85.857 Y103.978 E17.89170
G1 X82.955 Y105.158 E18.06959
G1 X79.912 Y106.033 E18.24938
G1 X76.767 Y106.584 E18.43068
G1 X75.616 Y106.677 E18.49624
G1 X73.748 Y106.579 E18.60246
G1 X71.736 Y106.162 E18.71914
G1 X68.684 Y105.207 E18.90073
G1 X65.782 Y103.945 E19.08042
G1 X63.110 Y102.433 E19.25476
G1 X60.603 Y100.639 E19.42985
G1 X58.325 Y98.610 E19.60302
G1 X58.144 Y98.418 E19.61805
G1 X53.586 Y93.425 E20.00192
G1 X51.618 Y91.118 E20.17411
G1 X49.918 Y88.640 E20.34474
G1 X49.772 Y88.381 E20.36166
G1 X48.422 Y85.857 E20.52421
G1 X47.242 Y82.955 E20.70209
G1 X46.387 Y80.012 E20.87609
G1 X45.826 Y76.875 E21.05706
G1 X45.722 Y75.604 E21.12951
G1 X45.821 Y73.748 E21.23500
G1 X46.238 Y71.736 E21.35169
G1 X47.180 Y68.715 E21.53141
G1 X48.432 Y65.823 E21.71034
G1 X50.002 Y63.060 E21.89078
G1 X51.761 Y60.603 E22.06240
G1 X53.899 Y58.222 E22.24410
G1 X54.267 Y58.611 F4800.000
G1 X55.933 Y57.072 E22.37291 F720.000
G1 X59.305 Y54.008 E22.63164
G1 X61.590 Y52.056 E22.80226
G1 X64.023 Y50.385 E22.96990
G1 X66.688 Y48.943 E23.14193
G1 X69.600 Y47.755 E23.32053
G1 X72.587 Y46.894 E23.49707
G1 X75.676 Y46.350 E23.67516
G1 X76.827 Y46.257 E23.74072
G1 X78.553 Y46.348 E23.83889
G1 X80.510 Y46.751 E23.95237 F720.000
G1 X83.480 Y47.675 E24.12899
G1 X86.359 Y48.924 E24.30718
G1 X88.987 Y50.408 E24.47855
G1 X91.449 Y52.169 E24.65045
G1 X93.686 Y54.158 E24.82042
G1 X93.863 Y54.345 E24.83505
G1 X98.411 Y59.328 E25.21813
G1 X100.344 Y61.590 E25.38708
G1 X102.043 Y64.073 E25.55792
G1 X103.485 Y66.752 E25.73067
G1 X104.645 Y69.600 E25.90532
G1 X105.506 Y72.587 E26.08187
G1 X106.041 Y75.576 E26.25428
G1 X106.144 Y76.838 E26.32620
G1 X106.052 Y78.553 E26.42371
G1 X105.649 Y80.510 E26.53719
G1 X104.725 Y83.480 E26.71381
G1 X103.497 Y86.321 E26.88956
G1 X103.334 Y86.622 E26.90897
G1 X101.960 Y89.033 E27.06656
G1 X100.186 Y91.502 E27.23920
G1 X98.181 Y93.743 E27.40995
G1 X96.467 Y95.328 E27.54251
G1 X93.095 Y98.392 E27.80124
G1 X90.845 Y100.319 E27.96941
G1 X88.328 Y102.043 E28.14270
G1 X85.649 Y103.484 E28.31545
G1 X82.800 Y104.645 E28.49010
G1 X79.813 Y105.506 E28.66665
G1 X76.724 Y106.050 E28.84474
G1 X75.573 Y106.143 E28.91030
G1 X73.847 Y106.052 E29.00847
G1 X71.890 Y105.649 E29.12195
G1 X68.891 Y104.713 E29.30030
G1 X66.041 Y103.476 E29.47675
G1 X63.413 Y101.992 E29.64811
G1 X60.951 Y100.231 E29.82001
G1 X58.714 Y98.242 E29.99000
G1 X58.537 Y98.055 E30.00462
G1 X53.989 Y93.073 E30.38769
G1 X52.056 Y90.810 E30.55664
G1 X50.385 Y88.377 E30.72428
G1 X50.241 Y88.122 E30.74091
G1 X48.915 Y85.649 E30.90025
G1 X47.755 Y82.800 E31.07490
G1 X46.912 Y79.906 E31.24610
G1 X46.359 Y76.824 E31.42388
G1 X46.256 Y75.562 E31.49581
G1 X46.348 Y73.847 E31.59331
G1 X46.751 Y71.890 E31.70679
G1 X47.675 Y68.920 E31.88341
G1 X48.903 Y66.079 E32.05916
G1 X50.440 Y63.367 E32.23615
G1 X52.169 Y60.951 E32.40486
G1 X54.223 Y58.653 E32.57991
G1 F1800.000 E31.57991
G92 E0
G1 X59.666 Y64.387 F4800.000
G1 E1.00000 F1800.000
G1 X61.212 Y62.959 E1.11955 F900.000
G1 X63.052 Y61.592 E1.24967
G1 X63.172 Y61.430 E1.26109
G1 X64.595 Y59.886 E1.38034
G1 X66.195 Y58.484 E1.50116
G1 X67.975 Y57.233 E1.62471
G1 X69.898 Y56.169 E1.74947
G1 X71.948 Y55.305 E1.87583
G1 X74.127 Y54.650 E2.00500
G1 X76.391 Y54.225 E2.13581
G1 X77.278 Y54.153 E2.18639
G1 X78.313 Y54.347 E2.24615
G1 X80.520 Y55.007 E2.37698 F900.000
G1 X82.604 Y55.882 E2.50530
G1 X84.567 Y56.965 E2.63259
G1 X86.364 Y58.224 E2.75721
G1 X87.995 Y59.648 E2.88013
G1 X89.434 Y61.205 E3.00056
G1 X90.808 Y63.052 E3.13126
G1 X90.970 Y63.172 E3.14268
G1 X92.511 Y64.592 E3.26171
G1 X93.917 Y66.197 E3.38288
G1 X95.163 Y67.970 E3.50592
G1 X96.229 Y69.895 E3.63089
G1 X97.097 Y71.954 E3.75778
G1 X97.750 Y74.127 E3.88658
G1 X98.177 Y76.401 E4.01799
G1 X98.247 Y77.277 E4.06790
G1 X98.053 Y78.313 E4.12774
G1 X97.393 Y80.520 E4.25857
G1 X96.516 Y82.609 E4.38718
G1 X96.411 Y82.802 E4.39964
G1 X95.441 Y84.558 E4.51358
G1 X94.177 Y86.362 E4.63864
G1 X92.754 Y87.992 E4.76156
G1 X91.188 Y89.439 E4.88260
G1 X89.348 Y90.808 E5.01284
G1 X89.228 Y90.970 E5.02426
G1 X87.805 Y92.514 E5.14350
G1 X86.201 Y93.919 E5.26462
G1 X84.433 Y95.161 E5.38729
G1 X82.505 Y96.229 E5.51246
G1 X80.446 Y97.097 E5.63935
G1 X78.273 Y97.750 E5.76816
G1 X76.009 Y98.175 E5.89896
G1 X75.122 Y98.247 E5.94954
G1 X74.087 Y98.053 E6.00931
G1 X71.883 Y97.394 E6.13992
G1 X69.794 Y96.517 E6.26860
G1 X67.833 Y95.435 E6.39574
G1 X66.036 Y94.176 E6.52036
G1 X64.341 Y92.684 E6.64860
G1 X62.959 Y91.188 E6.76427
G1 X61.592 Y89.348 E6.89440
G1 X61.432 Y89.230 E6.90569
G1 X59.888 Y87.807 E7.02489
G1 X58.483 Y86.203 E7.14601
G1 X57.233 Y84.425 E7.26943
G1 X56.173 Y82.509 E7.39373
G1 X55.303 Y80.446 E7.52091
G1 X54.647 Y78.263 E7.65032
G1 X54.224 Y76.008 E7.78061
G1 X54.153 Y75.123 E7.83104
G1 X54.347 Y74.087 E7.89088
G1 X55.007 Y71.880 E8.02170
G1 X55.884 Y69.791 E8.15032
G1 X56.959 Y67.842 E8.27672
G1 X58.227 Y66.032 E8.40224
G1 X59.625 Y64.431 E8.52291
G1 X59.222 Y64.078 F4800.000
G1 X60.867 Y62.549 E8.65048 F900.000
G1 X62.669 Y61.209 E8.77798
G1 X62.758 Y61.089 E8.78650
G1 X64.219 Y59.503 E8.90894
G1 X65.864 Y58.062 E9.03311
G1 X67.688 Y56.780 E9.15968
G1 X69.661 Y55.688 E9.28773
G1 X71.767 Y54.800 E9.41752
G1 X73.997 Y54.129 E9.54977
G1 X76.316 Y53.693 E9.68376
G1 X77.307 Y53.614 E9.74019 F900.000
G1 X78.440 Y53.826 E9.80563
G1 X80.700 Y54.502 E9.93960
G1 X82.838 Y55.399 E10.07128
G1 X84.847 Y56.508 E10.20159
G1 X85.001 Y56.614 E10.21221
G1 X86.693 Y57.800 E10.32951
G1 X88.366 Y59.261 E10.45565
G1 X89.847 Y60.862 E10.57953
G1 X91.191 Y62.669 E10.70738
G1 X91.311 Y62.758 E10.71589
G1 X92.896 Y64.218 E10.83821
G1 X94.339 Y65.865 E10.96258
G1 X95.617 Y67.685 E11.08884
G1 X96.711 Y69.659 E11.21703
G1 X97.601 Y71.771 E11.34713
G1 X98.271 Y73.997 E11.47916
G1 X98.708 Y76.323 E11.61351
G1 X98.786 Y77.306 E11.66954
G1 X98.574 Y78.440 E11.73503
G1 X97.898 Y80.700 E11.86899
G1 X97.766 Y81.018 E11.88857
G1 X96.999 Y82.841 E12.00085
G1 X95.896 Y84.842 E12.13061
G1 X94.601 Y86.691 E12.25881
G1 X93.140 Y88.365 E12.38494
G1 X91.534 Y89.850 E12.50919
G1 X89.731 Y91.191 E12.63676
G1 X89.642 Y91.311 E12.64527
G1 X88.181 Y92.897 E12.76772
G1 X86.533 Y94.340 E12.89206
G1 X84.717 Y95.616 E13.01809
G1 X82.741 Y96.711 E13.14640
G1 X80.629 Y97.601 E13.27651
G1 X78.403 Y98.271 E13.40854
G1 X76.084 Y98.707 E13.54253
G1 X75.093 Y98.786 E13.59896
G1 X73.960 Y98.574 E13.66441
G1 X71.703 Y97.899 E13.79823
G1 X69.561 Y97.000 E13.93014
G1 X67.553 Y95.892 E14.06035
G1 X65.707 Y94.600 E14.18828
G1 X63.949 Y93.050 E14.32135
G1 X62.549 Y91.533 E14.43861
G1 X61.209 Y89.731 E14.56612
G1 X61.090 Y89.642 E14.57455
G1 X59.504 Y88.182 E14.69697
G1 X58.061 Y86.535 E14.82132
G1 X56.780 Y84.712 E14.94781
G1 X55.690 Y82.743 E15.07559
G1 X54.799 Y80.629 E15.20587
G1 X54.127 Y78.397 E15.33826
G1 X53.693 Y76.083 E15.47194
G1 X53.614 Y75.094 E15.52828
G1 X53.826 Y73.960 E15.59377
G1 X54.502 Y71.700 E15.72773
G1 X55.401 Y69.559 E15.85959
G1 X56.504 Y67.558 E15.98935
G1 X57.802 Y65.705 E16.11783
G1 X59.182 Y64.124 E16.23702
G1 X58.779 Y63.771 F4800.000
G1 X58.984 Y63.558 E16.25377 F810.000
G1 X60.522 Y62.139 E16.37263
G1 X62.286 Y60.826 E16.49750
G1 X63.844 Y59.119 E16.62873
G1 X65.533 Y57.640 E16.75623
G1 X67.400 Y56.328 E16.88582
G1 X69.424 Y55.207 E17.01718
G1 X71.586 Y54.295 E17.15039
G1 X73.867 Y53.608 E17.28571
G1 X76.242 Y53.162 E17.42290
G1 X77.335 Y53.074 E17.48518
G1 X78.566 Y53.305 E17.55630
G1 X80.879 Y53.997 E17.69340 F810.000
G1 X83.072 Y54.917 E17.82844
G1 X85.128 Y56.051 E17.96176
G1 X87.021 Y57.376 E18.09299
G1 X88.738 Y58.874 E18.22235
G1 X90.260 Y60.520 E18.34967
G1 X91.574 Y62.286 E18.47467
G1 X93.280 Y63.844 E18.60586
G1 X94.760 Y65.534 E18.73343
G1 X96.072 Y67.399 E18.86291
G1 X97.193 Y69.424 E18.99431
G1 X98.105 Y71.587 E19.12764
G1 X98.792 Y73.868 E19.26288
G1 X99.238 Y76.244 E19.40019
G1 X99.326 Y77.335 E19.46233
G1 X99.095 Y78.566 E19.53347
G1 X98.403 Y80.879 E19.67056
G1 X97.483 Y83.073 E19.80567
G1 X97.351 Y83.316 E19.82138
G1 X96.350 Y85.126 E19.93879
G1 X95.024 Y87.021 E20.07012
G1 X93.526 Y88.737 E20.19948
G1 X91.879 Y90.261 E20.32693
G1 X90.114 Y91.574 E20.45183
G1 X88.556 Y93.281 E20.58306
G1 X86.866 Y94.761 E20.71062
G1 X85.002 Y96.071 E20.84002
G1 X82.977 Y97.193 E20.97147
G1 X80.813 Y98.105 E21.10479
G1 X78.533 Y98.792 E21.24004
G1 X76.158 Y99.238 E21.37722
G1 X75.065 Y99.326 E21.43951
G1 X73.834 Y99.095 E21.51063
G1 X71.522 Y98.404 E21.64767
G1 X69.327 Y97.483 E21.78280
G1 X67.272 Y96.349 E21.91608
G1 X65.379 Y95.024 E22.04731
G1 X63.662 Y93.526 E22.17668
G1 X63.558 Y93.416 E22.18526
G1 X62.139 Y91.878 E22.30412
G1 X60.826 Y90.114 E22.42900
G1 X59.120 Y88.556 E22.56019
G1 X57.640 Y86.866 E22.68775
G1 X56.328 Y85.000 E22.81731
G1 X55.208 Y82.978 E22.94857
G1 X54.295 Y80.813 E23.08196
G1 X53.608 Y78.530 E23.21733
G1 X53.162 Y76.158 E23.35440
G1 X53.074 Y75.065 E23.41665
G1 X53.305 Y73.834 E23.48779
G1 X53.997 Y71.521 E23.62489
G1 X54.917 Y69.327 E23.75999
G1 X56.049 Y67.274 E23.89312
G1 X57.377 Y65.378 E24.02455
G1 X58.740 Y63.816 E24.14225
G1 F1800.000 E23.14225
G92 E0
G1 X78.759 Y53.655 F4800.000
G1 X81.203 Y55.693 F4800.000
G1 E1.00000 F1800.000
G1 X96.139 Y70.629 E2.19944 F1080.000
G1 X96.694 Y71.946 F4800.000
G1 X79.977 Y55.229 E3.54186 F1080.000
G1 X78.891 Y54.904 E3.60626
G1 X97.044 Y73.058 E5.06410
G1 X97.372 Y74.147 E5.12868
G1 X77.862 Y54.637 E6.69541
G1 X77.008 Y54.545 E6.74420
G1 X97.557 Y75.094 E8.39441
G1 X97.733 Y76.031 E8.44857
G1 X76.315 Y54.614 E10.16853
G1 X75.674 Y54.734 E10.20557
G1 X97.848 Y76.908 E11.98625
G1 X97.807 Y77.628 E12.02720
G1 X75.033 Y54.854 E13.85604
G1 X74.392 Y54.975 E13.89308
G1 X97.683 Y78.266 E15.76347
G1 X97.507 Y78.852 E15.79821
G1 X73.791 Y55.135 E17.70277
G1 X73.206 Y55.311 E17.73749
G1 X97.332 Y79.438 E19.67498
G1 X97.157 Y80.024 E19.70972
G1 X72.620 Y55.487 E21.68014
G1 X72.038 Y55.667 E21.71473
G1 X96.963 Y80.592 E23.71636
G1 X96.738 Y81.128 E23.74939
G1 X71.502 Y55.893 E25.77597
G1 X70.966 Y56.118 E25.80898
G1 X96.513 Y81.665 E27.86049
G1 X96.288 Y82.201 E27.89352
G1 X70.431 Y56.344 E29.96998
G1 X69.909 Y56.584 E30.00259
G1 X96.038 Y82.713 E32.10089
G1 X95.767 Y83.204 E32.13272
G1 X69.419 Y56.855 E34.24865
G1 X68.928 Y57.127 E34.28046
G1 X95.496 Y83.694 E36.41400
G1 X95.226 Y84.185 E36.44583
G1 X68.438 Y57.398 E38.59699
G1 X67.968 Y57.689 E38.62841
G1 X94.927 Y84.648 E40.79343
G1 X94.614 Y85.096 E40.82448
G1 X67.520 Y58.003 E43.00022
G1 X67.073 Y58.317 E43.03126
G1 X94.300 Y85.544 E45.21774
G1 X93.986 Y85.992 E45.24879
G1 X66.626 Y58.632 E47.44599
G1 X66.201 Y58.968 E47.47677
G1 X93.645 Y86.412 E49.68063
G1 X93.290 Y86.818 E49.71128
G1 X65.795 Y59.324 E51.91924
G1 X65.389 Y59.680 E51.94988
G1 X92.935 Y87.225 E54.16193
G1 X92.572 Y87.624 E54.19254
G1 X64.983 Y60.035 E56.40808
G1 X64.605 Y60.418 E56.43866
G1 X92.191 Y88.005 E58.65400
G1 X91.799 Y88.374 E58.68459
G1 X64.240 Y60.815 E60.89773
G1 X63.875 Y61.211 E60.92833
G1 X91.403 Y88.739 E63.13901
G1 X91.007 Y89.105 E63.16962
G1 X63.509 Y61.607 E65.37785
G1 X63.132 Y61.991 E65.40842
G1 X90.576 Y89.436 E67.61238
G1 X90.140 Y89.761 E67.64328
G1 X62.695 Y62.316 E69.84725
G1 X62.258 Y62.640 E69.87815
G1 X89.703 Y90.085 E72.08214
G1 X89.266 Y90.410 E72.11304
G1 X61.821 Y62.965 E74.31704
G1 X61.390 Y63.296 E74.34788
G1 X88.889 Y90.794 E76.55617
G1 X88.524 Y91.191 E76.58677
G1 X60.995 Y63.662 E78.79752
G1 X60.599 Y64.027 E78.82812
G1 X88.159 Y91.587 E81.04132
G1 X87.793 Y91.983 E81.07192
G1 X60.206 Y64.396 E83.28732
G1 X59.825 Y64.777 E83.31790
G1 X87.415 Y92.366 E85.53347
G1 X87.009 Y92.722 E85.56412
G1 X59.463 Y65.176 E87.77619
G1 X59.108 Y65.583 E87.80684
G1 X86.603 Y93.078 E90.01482
G1 X86.197 Y93.433 E90.04547
G1 X58.753 Y65.989 E92.24936
G1 X58.412 Y66.410 E92.28010
G1 X85.772 Y93.770 E94.47729
G1 X85.325 Y94.084 E94.50833
G1 X58.098 Y66.858 E96.69479
G1 X57.785 Y67.306 E96.72584
G1 X84.878 Y94.399 E98.90156
G1 X84.431 Y94.713 E98.93260
G1 X57.471 Y67.754 E101.09759
G1 X57.173 Y68.217 E101.12888
G1 X83.959 Y95.003 E103.27992
G1 X83.469 Y95.274 E103.31174
G1 X56.903 Y68.708 E105.44516
G1 X56.632 Y69.199 E105.47699
G1 X82.979 Y95.546 E107.59279
G1 X82.489 Y95.817 E107.62461
G1 X56.361 Y69.689 E109.72280
G1 X56.111 Y70.201 E109.75514
G1 X81.966 Y96.056 E111.83143
G1 X81.431 Y96.282 E111.86444
G1 X55.886 Y70.738 E113.91580
G1 X55.661 Y71.274 E113.94883
G1 X80.895 Y96.508 E115.97524
G1 X80.359 Y96.734 E116.00826
G1 X55.436 Y71.810 E118.00973
G1 X55.243 Y72.379 E118.04381
G1 X79.777 Y96.913 E120.01408
G1 X79.192 Y97.089 E120.04879
G1 X55.067 Y72.965 E121.98614
