; generated by Slic3r 1.2.0 on 2014-10-26 at 17:55:04

; external perimeters extrusion width = 0.40mm
; perimeters extrusion width = 0.67mm
; infill extrusion width = 0.67mm
; solid infill extrusion width = 0.67mm
; top infill extrusion width = 0.67mm

G21 ; set units to millimeters
M107
M104 S195 ; set temperature
G28 X0 Y0  
G29
M109 S195 ; wait for temperature to be reached
G90 ; use absolute coordinates
G92 E0
M82 ; use absolute distances for extrusion
G1 F1800.000 E-1.00000
G92 E0
G1 Z0.300 F4800.000
G1 X47.490 Y47.879 F4800.000
G1 E1.00000 F1800.000
G1 X48.160 Y47.222 E1.05330 F720.000
G1 X50.393 Y45.211 E1.22394
G1 X51.135 Y44.613 E1.27807
G1 X53.554 Y42.830 E1.44868
G1 X54.352 Y42.308 E1.50284
G1 X56.934 Y40.771 E1.67347
G1 X57.779 Y40.330 E1.72761
G1 X60.513 Y39.048 E1.89908
G1 X61.384 Y38.697 E1.95238
G1 X64.215 Y37.694 E2.12298
G1 X65.131 Y37.425 E2.17714
G1 X68.062 Y36.701 E2.34861
G1 X68.985 Y36.527 E2.40191
G1 X71.973 Y36.094 E2.57338
G1 X72.908 Y36.011 E2.62668
G1 X75.910 Y35.873 E2.79732
G1 X76.863 Y35.882 E2.85145
G1 X79.879 Y36.040 E3.02292 F720.000
G1 X80.812 Y36.141 E3.07622
G1 X83.797 Y36.594 E3.24769
G1 X84.716 Y36.786 E3.30099
G1 X87.628 Y37.525 E3.47158
G1 X88.538 Y37.811 E3.52576
G1 X91.365 Y38.832 E3.69642
G1 X92.242 Y39.205 E3.75053
G1 X94.954 Y40.498 E3.92116
G1 X95.791 Y40.955 E3.97530
G1 X98.376 Y42.516 E4.14677
G1 X99.151 Y43.045 E4.20007
G1 X101.571 Y44.852 E4.37154
G1 X102.290 Y45.454 E4.42484
G1 X104.511 Y47.479 E4.59548
G1 X105.178 Y48.160 E4.64961
G1 X107.189 Y50.393 E4.82025
G1 X107.787 Y51.135 E4.87438
G1 X109.570 Y53.554 E5.04500
G1 X110.092 Y54.352 E5.09915
G1 X111.636 Y56.947 E5.27062
G1 X112.070 Y57.779 E5.32392
G1 X113.347 Y60.500 E5.49457
G1 X113.703 Y61.384 E5.54869
G1 X114.707 Y64.216 E5.71933
G1 X114.975 Y65.131 E5.77346
G1 X115.696 Y68.048 E5.94409
G1 X115.873 Y68.985 E5.99823
G1 X116.305 Y71.959 E6.16886
G1 X116.389 Y72.908 E6.22300
G1 X116.527 Y75.910 E6.39364
G1 X116.518 Y76.863 E6.44777
G1 X116.361 Y79.864 E6.61841
G1 X116.259 Y80.812 E6.67254
G1 X115.809 Y83.783 E6.84318
G1 X115.614 Y84.716 E6.89731
G1 X114.871 Y87.643 E7.06877
G1 X114.589 Y88.538 E7.12207
G1 X113.568 Y91.365 E7.29272
G1 X113.195 Y92.242 E7.34684
G1 X111.902 Y94.955 E7.51749
G1 X111.445 Y95.791 E7.57161
G1 X109.892 Y98.364 E7.74226
G1 X109.355 Y99.151 E7.79638
G1 X107.557 Y101.559 E7.96704
G1 X106.946 Y102.290 E8.02115
G1 X104.921 Y104.511 E8.19180
G1 X104.240 Y105.178 E8.24592
G1 X102.007 Y107.190 E8.41657
G1 X101.265 Y107.787 E8.47069
G1 X98.846 Y109.570 E8.64134
G1 X98.048 Y110.092 E8.69546
G1 X95.466 Y111.629 E8.86609
G1 X94.621 Y112.070 E8.92023
G1 X91.900 Y113.347 E9.09088
G1 X91.016 Y113.703 E9.14500
G1 X88.184 Y114.707 E9.31565
G1 X87.269 Y114.975 E9.36977
G1 X84.352 Y115.696 E9.54042
G1 X83.415 Y115.873 E9.59454
G1 X80.441 Y116.305 E9.76519
G1 X79.492 Y116.389 E9.81931
G1 X76.475 Y116.527 E9.99078
G1 X75.537 Y116.518 E10.04408
G1 X72.521 Y116.360 E10.21555
G1 X71.588 Y116.259 E10.26885
G1 X68.617 Y115.809 E10.43950
G1 X67.684 Y115.614 E10.49362
G1 X64.771 Y114.875 E10.66424
G1 X63.862 Y114.589 E10.71839
G1 X61.035 Y113.568 E10.88903
G1 X60.158 Y113.195 E10.94316
G1 X57.445 Y111.902 E11.11381
G1 X56.609 Y111.445 E11.16793
G1 X54.036 Y109.892 E11.33858
G1 X53.249 Y109.355 E11.39270
G1 X50.829 Y107.548 E11.56417
G1 X50.110 Y106.946 E11.61747
G1 X47.879 Y104.910 E11.78894
G1 X47.222 Y104.240 E11.84224
G1 X45.210 Y102.007 E12.01288
G1 X44.613 Y101.265 E12.06701
G1 X42.830 Y98.846 E12.23765
G1 X42.308 Y98.048 E12.29177
G1 X40.771 Y95.466 E12.46241
G1 X40.330 Y94.621 E12.51654
G1 X39.053 Y91.900 E12.68719
G1 X38.697 Y91.016 E12.74131
G1 X37.693 Y88.184 E12.91196
G1 X37.425 Y87.269 E12.96608
G1 X36.701 Y84.337 E13.13755
G1 X36.527 Y83.415 E13.19085
G1 X36.094 Y80.427 E13.36232
G1 X36.011 Y79.492 E13.41562
G1 X35.873 Y76.490 E13.58626
G1 X35.882 Y75.537 E13.64039
G1 X36.038 Y72.536 E13.81102
G1 X36.141 Y71.588 E13.86516
G1 X36.591 Y68.617 E14.03578
G1 X36.786 Y67.684 E14.08993
G1 X37.525 Y64.771 E14.26055
G1 X37.810 Y63.862 E14.31470
G1 X38.832 Y61.035 E14.48534
G1 X39.205 Y60.158 E14.53947
G1 X40.505 Y57.433 E14.71093
G1 X40.955 Y56.609 E14.76424
G1 X42.516 Y54.024 E14.93570
G1 X43.045 Y53.249 E14.98900
G1 X44.843 Y50.841 E15.15964
G1 X45.454 Y50.110 E15.21377
G1 X47.449 Y47.923 E15.38184
G1 X47.844 Y48.283 F4800.000
G1 X48.519 Y47.619 E15.43564 F720.000
G1 X50.732 Y45.625 E15.60480
G1 X51.454 Y45.043 E15.65743
G1 X53.851 Y43.276 E15.82655
G1 X54.627 Y42.768 E15.87921
G1 X57.187 Y41.244 E16.04836
G1 X58.008 Y40.814 E16.10100
G1 X60.718 Y39.543 E16.27098
G1 X61.564 Y39.201 E16.32278
G1 X64.371 Y38.206 E16.49189
G1 X65.261 Y37.945 E16.54457
G1 X68.167 Y37.227 E16.71454
G1 X69.063 Y37.057 E16.76635
G1 X72.026 Y36.627 E16.93632
G1 X72.934 Y36.546 E16.98813
G1 X75.910 Y36.408 E17.15728
G1 X76.837 Y36.417 E17.20992
G1 X79.826 Y36.573 E17.37990 F720.000
G1 X80.733 Y36.671 E17.43170
G1 X83.693 Y37.119 E17.60168
G1 X84.586 Y37.306 E17.65349
G1 X87.473 Y38.037 E17.82258
G1 X88.358 Y38.315 E17.87527
G1 X91.160 Y39.326 E18.04444
G1 X92.013 Y39.689 E18.09705
G1 X94.702 Y40.970 E18.26620
G1 X95.515 Y41.415 E18.31884
G1 X98.078 Y42.961 E18.48882
G1 X98.832 Y43.475 E18.54062
G1 X101.231 Y45.266 E18.71060
G1 X101.931 Y45.851 E18.76241
G1 X104.132 Y47.858 E18.93156
G1 X104.781 Y48.519 E18.98419
G1 X106.775 Y50.732 E19.15334
G1 X107.357 Y51.454 E19.20598
G1 X109.124 Y53.852 E19.37511
G1 X109.632 Y54.627 E19.42776
G1 X111.163 Y57.200 E19.59774
G1 X111.586 Y58.008 E19.64954
G1 X112.852 Y60.705 E19.81870
G1 X113.199 Y61.564 E19.87133
G1 X114.194 Y64.372 E20.04048
G1 X114.455 Y65.261 E20.09311
G1 X115.170 Y68.153 E20.26226
G1 X115.343 Y69.063 E20.31490
G1 X115.772 Y72.011 E20.48404
G1 X115.854 Y72.934 E20.53668
G1 X115.992 Y75.910 E20.70583
G1 X115.983 Y76.837 E20.75847
G1 X115.828 Y79.812 E20.92762
G1 X115.729 Y80.733 E20.98025
G1 X115.284 Y83.679 E21.14940
G1 X115.094 Y84.586 E21.20204
G1 X114.358 Y87.487 E21.37201
G1 X114.085 Y88.358 E21.42382
G1 X113.074 Y91.160 E21.59297
G1 X112.711 Y92.013 E21.64561
G1 X111.430 Y94.702 E21.81476
G1 X110.985 Y95.515 E21.86739
G1 X109.447 Y98.066 E22.03654
G1 X108.925 Y98.832 E22.08917
G1 X107.143 Y101.220 E22.25834
G1 X106.549 Y101.931 E22.31096
G1 X104.542 Y104.132 E22.48012
G1 X103.881 Y104.781 E22.53274
G1 X101.668 Y106.776 E22.70190
G1 X100.946 Y107.357 E22.75453
G1 X98.548 Y109.124 E22.92368
G1 X97.773 Y109.632 E22.97631
G1 X95.214 Y111.156 E23.14545
G1 X94.392 Y111.586 E23.19810
G1 X91.695 Y112.852 E23.36725
G1 X90.836 Y113.199 E23.41988
G1 X88.028 Y114.194 E23.58904
G1 X87.139 Y114.455 E23.64167
G1 X84.247 Y115.171 E23.81082
G1 X83.337 Y115.343 E23.86345
G1 X80.389 Y115.772 E24.03260
G1 X79.466 Y115.854 E24.08524
G1 X76.475 Y115.992 E24.25521
G1 X75.563 Y115.983 E24.30702
G1 X72.574 Y115.827 E24.47700
G1 X71.667 Y115.729 E24.52880
G1 X68.721 Y115.284 E24.69796
G1 X67.814 Y115.094 E24.75059
G1 X64.927 Y114.362 E24.91972
G1 X64.042 Y114.085 E24.97237
G1 X61.240 Y113.074 E25.14152
G1 X60.387 Y112.711 E25.19416
G1 X57.698 Y111.430 E25.36331
G1 X56.885 Y110.985 E25.41594
G1 X54.334 Y109.447 E25.58510
G1 X53.568 Y108.925 E25.63773
G1 X51.169 Y107.134 E25.80770
G1 X50.469 Y106.549 E25.85951
G1 X48.258 Y104.532 E26.02949
G1 X47.619 Y103.880 E26.08129
G1 X45.625 Y101.668 E26.25045
G1 X45.043 Y100.946 E26.30308
G1 X43.275 Y98.548 E26.47223
G1 X42.768 Y97.773 E26.52486
G1 X41.244 Y95.213 E26.69401
G1 X40.814 Y94.392 E26.74665
G1 X39.548 Y91.695 E26.91580
G1 X39.201 Y90.836 E26.96843
G1 X38.206 Y88.028 E27.13759
G1 X37.945 Y87.139 E27.19022
G1 X37.227 Y84.233 E27.36019
G1 X37.057 Y83.337 E27.41200
G1 X36.627 Y80.374 E27.58198
G1 X36.546 Y79.466 E27.63378
G1 X36.408 Y76.490 E27.80293
G1 X36.417 Y75.563 E27.85556
G1 X36.572 Y72.588 E28.02471
G1 X36.671 Y71.667 E28.07735
G1 X37.116 Y68.722 E28.24648
G1 X37.306 Y67.814 E28.29913
G1 X38.038 Y64.927 E28.46827
G1 X38.315 Y64.042 E28.52092
G1 X39.326 Y61.240 E28.69007
G1 X39.689 Y60.387 E28.74270
G1 X40.977 Y57.685 E28.91268
G1 X41.415 Y56.885 E28.96449
G1 X42.961 Y54.322 E29.13446
G1 X43.475 Y53.568 E29.18627
G1 X45.257 Y51.181 E29.35542
G1 X45.851 Y50.470 E29.40805
G1 X47.804 Y48.328 E29.57263
G1 X48.199 Y48.688 F4800.000
G1 X48.879 Y48.016 E29.62693 F720.000
G1 X51.072 Y46.039 E29.79459
G1 X51.773 Y45.473 E29.84573
G1 X54.149 Y43.721 E30.01336
G1 X54.903 Y43.227 E30.06453
G1 X57.439 Y41.716 E30.23218
G1 X58.237 Y41.298 E30.28333
G1 X60.923 Y40.038 E30.45182
G1 X61.745 Y39.706 E30.50213
G1 X64.527 Y38.719 E30.66975
G1 X65.391 Y38.465 E30.72093
G1 X68.271 Y37.752 E30.88941
G1 X69.142 Y37.587 E30.93973
G1 X72.078 Y37.160 E31.10821
G1 X72.961 Y37.081 E31.15853
G1 X75.910 Y36.944 E31.32618
G1 X76.811 Y36.952 E31.37732
G1 X79.774 Y37.106 E31.54581 F720.000
G1 X80.655 Y37.201 E31.59613
G1 X83.588 Y37.645 E31.76460
G1 X84.456 Y37.825 E31.81492
G1 X87.317 Y38.550 E31.98253
G1 X88.177 Y38.819 E32.03372
G1 X90.955 Y39.821 E32.20139
G1 X91.784 Y40.173 E32.25252
G1 X94.449 Y41.443 E32.42017
G1 X95.240 Y41.874 E32.47132
G1 X97.781 Y43.407 E32.63980
G1 X98.513 Y43.906 E32.69012
G1 X100.891 Y45.680 E32.85860
G1 X101.571 Y46.248 E32.90892
G1 X103.753 Y48.237 E33.07657
G1 X104.384 Y48.879 E33.12772
G1 X106.361 Y51.072 E33.29538
G1 X106.927 Y51.773 E33.34652
G1 X108.679 Y54.149 E33.51416
G1 X109.173 Y54.903 E33.56532
G1 X110.691 Y57.452 E33.73380
G1 X111.102 Y58.237 E33.78411
G1 X112.357 Y60.910 E33.95178
G1 X112.694 Y61.745 E34.00291
G1 X113.682 Y64.527 E34.17058
G1 X113.935 Y65.391 E34.22171
G1 X114.645 Y68.257 E34.38937
G1 X114.813 Y69.142 E34.44052
G1 X115.239 Y72.064 E34.60817
G1 X115.319 Y72.961 E34.65931
G1 X115.456 Y75.910 E34.82697
G1 X115.448 Y76.811 E34.87811
G1 X115.295 Y79.759 E35.04577
G1 X115.199 Y80.655 E35.09691
G1 X114.758 Y83.574 E35.26457
G1 X114.575 Y84.456 E35.31571
G1 X113.846 Y87.332 E35.48419
G1 X113.581 Y88.178 E35.53451
G1 X112.579 Y90.955 E35.70217
G1 X112.227 Y91.784 E35.75331
G1 X110.957 Y94.450 E35.92097
G1 X110.526 Y95.240 E35.97211
G1 X109.001 Y97.768 E36.13977
G1 X108.494 Y98.513 E36.19091
G1 X106.729 Y100.880 E36.35858
G1 X106.152 Y101.571 E36.40971
G1 X104.163 Y103.753 E36.57737
G1 X103.521 Y104.384 E36.62851
G1 X101.328 Y106.361 E36.79617
G1 X100.627 Y106.927 E36.84731
G1 X98.251 Y108.679 E37.01497
G1 X97.497 Y109.173 E37.06611
G1 X94.961 Y110.684 E37.23375
G1 X94.163 Y111.102 E37.28491
G1 X91.490 Y112.357 E37.45256
G1 X90.655 Y112.694 E37.50371
G1 X87.873 Y113.682 E37.67137
G1 X87.009 Y113.935 E37.72250
G1 X84.143 Y114.645 E37.89016
G1 X83.258 Y114.813 E37.94130
G1 X80.336 Y115.239 E38.10896
G1 X79.439 Y115.319 E38.16010
G1 X76.475 Y115.456 E38.32859
G1 X75.589 Y115.448 E38.37890
G1 X72.626 Y115.294 E38.54739
G1 X71.745 Y115.199 E38.59770
G1 X68.826 Y114.758 E38.76536
G1 X67.944 Y114.575 E38.81650
G1 X65.082 Y113.850 E38.98414
G1 X64.222 Y113.581 E39.03530
G1 X61.445 Y112.579 E39.20296
G1 X60.616 Y112.227 E39.25410
G1 X57.950 Y110.957 E39.42176
G1 X57.160 Y110.526 E39.47290
G1 X54.631 Y109.001 E39.64056
G1 X53.887 Y108.494 E39.69170
G1 X51.509 Y106.720 E39.86018
G1 X50.829 Y106.152 E39.91050
G1 X48.636 Y104.153 E40.07898
G1 X48.016 Y103.521 E40.12930
G1 X46.039 Y101.328 E40.29695
G1 X45.473 Y100.627 E40.34809
G1 X43.721 Y98.250 E40.51576
G1 X43.227 Y97.497 E40.56689
G1 X41.716 Y94.961 E40.73455
G1 X41.298 Y94.163 E40.78569
G1 X40.043 Y91.490 E40.95335
G1 X39.706 Y90.655 E41.00449
G1 X38.718 Y87.873 E41.17215
G1 X38.465 Y87.009 E41.22329
G1 X37.752 Y84.128 E41.39178
G1 X37.587 Y83.258 E41.44209
G1 X37.160 Y80.322 E41.61058
G1 X37.081 Y79.439 E41.66089
G1 X36.944 Y76.490 E41.82854
G1 X36.952 Y75.589 E41.87968
G1 X37.105 Y72.641 E42.04734
G1 X37.201 Y71.745 E42.09848
G1 X37.642 Y68.826 E42.26613
G1 X37.825 Y67.944 E42.31728
G1 X38.550 Y65.082 E42.48492
G1 X38.819 Y64.223 E42.53608
G1 X39.821 Y61.445 E42.70374
G1 X40.173 Y60.616 E42.75488
G1 X41.449 Y57.938 E42.92336
G1 X41.874 Y57.160 E42.97368
G1 X43.407 Y54.620 E43.14216
G1 X43.906 Y53.887 E43.19248
G1 X45.671 Y51.520 E43.36013
G1 X46.248 Y50.829 E43.41128
G1 X48.159 Y48.732 E43.57236
G1 F1800.000 E42.57236
G92 E0
G1 X52.394 Y72.084 F4800.000
G1 E1.00000 F1800.000
G1 X50.916 Y72.444 E1.08638 F810.000
G1 X49.571 Y76.047 E1.30474
G1 X49.452 Y77.755 E1.40196
G1 X49.452 Y79.500 E1.50104
G1 X49.574 Y81.240 E1.60013
G1 X49.817 Y82.968 E1.69922
G1 X50.179 Y84.675 E1.79830
G1 X50.660 Y86.352 E1.89739
G1 X51.231 Y87.919 E1.99206
G1 X51.967 Y89.586 E2.09555
G1 X52.786 Y91.127 E2.19464
G1 X53.711 Y92.607 E2.29373
G1 X54.737 Y94.018 E2.39282
G1 X55.858 Y95.355 E2.49190
G1 X57.070 Y96.610 E2.59099
G1 X58.589 Y97.977 E2.70700
G1 X57.844 Y98.878 E2.77336
G1 X57.033 Y98.249 E2.83164
G1 X56.138 Y97.438 E2.90021
G1 X54.961 Y96.261 E2.99473
G1 X54.153 Y95.370 E3.06306
G1 X53.097 Y94.083 E3.15758
G1 X52.381 Y93.116 E3.22591
G1 X51.456 Y91.733 E3.32043
G1 X50.837 Y90.700 E3.38877
G1 X49.819 Y88.797 E3.51133
G1 X49.846 Y88.797 E3.51287
G1 X49.538 Y88.144 E3.55384
G1 X48.901 Y86.607 E3.64836
G1 X48.496 Y85.474 E3.71669
G1 X48.012 Y83.881 E3.81121
G1 X47.720 Y82.713 E3.87955
G1 X47.395 Y81.081 E3.97406
G1 X47.219 Y79.890 E4.04240
G1 X47.055 Y78.234 E4.13692
G1 X46.996 Y77.032 E4.20523
G1 X46.996 Y75.368 E4.29977
G1 X47.056 Y74.166 E4.36810
G1 X47.219 Y72.509 E4.46262
G1 X47.395 Y71.319 E4.53095
G1 X47.721 Y69.683 E4.62569
G1 X48.007 Y68.652 E4.68645
G1 X49.553 Y69.049 E4.77712
G1 X50.088 Y68.872 E4.80909
G1 X70.246 Y75.422 E6.01266
G1 X70.737 Y76.095 E6.05998
G1 X70.773 Y76.770 E6.09837
G1 X70.862 Y77.335 E6.13081
G1 X71.010 Y77.886 E6.16324
G1 X71.215 Y78.420 E6.19568
G1 X71.474 Y78.929 E6.22812
G1 X71.842 Y79.496 E6.26651
G1 X71.840 Y80.329 E6.31383
G1 X59.384 Y97.474 E7.51720
G1 X58.619 Y97.736 E7.56315
G1 X57.209 Y96.467 E7.67088
G1 X56.007 Y95.222 E7.76917
G1 X54.894 Y93.896 E7.86747
G1 X53.876 Y92.495 E7.96576
G1 X52.959 Y91.027 E8.06406
G1 X52.107 Y89.411 E8.16779
G1 X51.442 Y87.917 E8.26064
G1 X50.850 Y86.291 E8.35893
G1 X50.373 Y84.627 E8.45723
G1 X50.013 Y82.934 E8.55553
G1 X49.772 Y81.219 E8.65382
G1 X49.648 Y79.438 E8.75522
G1 X52.373 Y72.140 E9.19757
G1 X52.056 Y72.298 F4800.000
G1 F1800.000 E8.19757
G92 E0
G1 X93.040 Y93.523 F4800.000
G1 E1.00000 F1800.000
G1 X94.448 Y94.100 E1.08638 F810.000
G1 X97.653 Y91.976 E1.30474
G1 X98.753 Y90.664 E1.40195
G1 X99.779 Y89.253 E1.50104
G1 X100.704 Y87.773 E1.60013
G1 X101.523 Y86.232 E1.69922
G1 X102.233 Y84.638 E1.79830
G1 X102.829 Y82.998 E1.89739
G1 X103.289 Y81.396 E1.99206
G1 X103.673 Y79.614 E2.09555
G1 X103.916 Y77.886 E2.19464
G1 X104.038 Y76.145 E2.29373
G1 X104.038 Y74.478 E2.38840
G1 X103.916 Y72.660 E2.49189
G1 X103.673 Y70.932 E2.59098
G1 X103.248 Y68.933 E2.70699
G1 X104.381 Y68.642 E2.77342
G1 X104.679 Y69.682 E2.83483
G1 X105.005 Y71.319 E2.92963
G1 X105.181 Y72.509 E2.99797
G1 X105.345 Y74.166 E3.09248
G1 X105.403 Y75.368 E3.16082
G1 X105.404 Y77.032 E3.25534
G1 X105.344 Y78.234 E3.32367
G1 X105.181 Y79.891 E3.41819
G1 X105.005 Y81.081 E3.48652
G1 X104.680 Y82.714 E3.58104
G1 X104.387 Y83.881 E3.64938
G1 X103.904 Y85.474 E3.74390
G1 X103.499 Y86.607 E3.81223
G1 X102.862 Y88.145 E3.90675
G1 X102.347 Y89.233 E3.97508
G1 X101.563 Y90.701 E4.06960
G1 X100.944 Y91.733 E4.13794
G1 X100.019 Y93.117 E4.23245
G1 X99.302 Y94.083 E4.30079
G1 X98.247 Y95.370 E4.39531
G1 X97.438 Y96.262 E4.46364
G1 X96.261 Y97.439 E4.55816
G1 X95.298 Y98.311 E4.63197
G1 X94.571 Y98.878 E4.68429
G1 X93.554 Y97.648 E4.77492
G1 X93.018 Y97.476 E4.80689
G1 X80.560 Y80.329 E6.01046
G1 X80.558 Y79.496 E6.05777
G1 X80.926 Y78.929 E6.09617
G1 X81.185 Y78.420 E6.12860
G1 X81.390 Y77.886 E6.16104
G1 X81.538 Y77.335 E6.19348
G1 X81.627 Y76.770 E6.22591
G1 X81.663 Y76.095 E6.26431
G1 X82.154 Y75.422 E6.31163
G1 X102.309 Y68.873 E7.51500
G1 X103.082 Y69.111 E7.56095
G1 X103.477 Y70.966 E7.66867
G1 X103.717 Y72.681 E7.76697
G1 X103.838 Y74.407 E7.86526
G1 X103.838 Y76.138 E7.96356
G1 X103.717 Y77.865 E8.06186
G1 X103.457 Y79.673 E8.16559
G1 X103.117 Y81.273 E8.25843
G1 X102.640 Y82.937 E8.35673
G1 X102.048 Y84.563 E8.45503
G1 X101.343 Y86.145 E8.55332
G1 X100.531 Y87.673 E8.65162
G1 X99.585 Y89.187 E8.75301
G1 X93.090 Y93.490 E9.19537
