; generated by Slic3r 1.2.0 on 2014-10-26 at 14:39:04

; external perimeters extrusion width = 0.40mm
; perimeters extrusion width = 0.67mm
; infill extrusion width = 0.67mm
; solid infill extrusion width = 0.67mm
; top infill extrusion width = 0.67mm

G21 ; set units to millimeters
M107
M104 S195 ; set temperature
G28 X0 Y0  
G29
M109 S195 ; wait for temperature to be reached
G90 ; use absolute coordinates
G92 E0
M82 ; use absolute distances for extrusion
G1 F1800.000 E-1.00000
G92 E0
G1 Z0.300 F4800.000
G1 X52.716 Y52.711 F4800.000
G1 E1.00000 F1800.000
G1 X54.458 Y51.090 E1.13514 F720.000
G1 X61.124 Y46.604 E1.59138
G1 X63.282 Y45.601 E1.72652
G1 X71.007 Y43.394 E2.18275
G1 X73.370 Y43.106 E2.31790
G1 X81.399 Y43.395 E2.77413
G1 X83.735 Y43.852 E2.90928 F720.000
G1 X91.282 Y46.607 E3.36551
G1 X93.362 Y47.763 E3.50065
G1 X99.689 Y52.716 E3.95689
G1 X101.310 Y54.458 E4.09203
G1 X105.796 Y61.124 E4.54826
G1 X106.799 Y63.282 E4.68341
G1 X109.006 Y71.007 E5.13964
G1 X109.294 Y73.370 E5.27479
G1 X109.005 Y81.399 E5.73102
G1 X108.548 Y83.735 E5.86616
G1 X105.793 Y91.282 E6.32240
G1 X104.637 Y93.362 E6.45754
G1 X99.684 Y99.689 E6.91378
G1 X97.941 Y101.310 E7.04892
G1 X91.276 Y105.796 E7.50515
G1 X89.118 Y106.799 E7.64030
G1 X81.393 Y109.006 E8.09653
G1 X79.030 Y109.294 E8.23168
G1 X71.001 Y109.005 E8.68791
G1 X68.665 Y108.548 E8.82306
G1 X61.118 Y105.793 E9.27929
G1 X59.038 Y104.637 E9.41442
G1 X52.712 Y99.684 E9.87065
G1 X51.090 Y97.942 E10.00580
G1 X46.604 Y91.276 E10.46203
G1 X45.601 Y89.118 E10.59718
G1 X43.394 Y81.393 E11.05341
G1 X43.106 Y79.030 E11.18856
G1 X43.395 Y71.001 E11.64479
G1 X43.852 Y68.665 E11.77993
G1 X46.607 Y61.118 E12.23617
G1 X47.763 Y59.038 E12.37131
G1 X52.679 Y52.759 E12.82414
G1 X53.101 Y53.089 F4800.000
G1 X54.758 Y51.534 E12.95313 F720.000
G1 X61.423 Y47.049 E13.40937
G1 X63.429 Y46.116 E13.53499
G1 X71.155 Y43.909 E13.99123
G1 X73.351 Y43.642 E14.11686
G1 X81.380 Y43.930 E14.57309
G1 X83.551 Y44.355 E14.69872 F720.000
G1 X91.098 Y47.110 E15.15495
G1 X93.032 Y48.185 E15.28058
G1 X99.358 Y53.138 E15.73681
G1 X100.866 Y54.758 E15.86244
G1 X105.351 Y61.423 E16.31867
G1 X106.284 Y63.429 E16.44430
G1 X108.491 Y71.155 E16.90054
G1 X108.758 Y73.351 E17.02616
G1 X108.470 Y81.380 E17.48240
G1 X108.045 Y83.551 E17.60803
G1 X105.290 Y91.098 E18.06426
G1 X104.215 Y93.032 E18.18989
G1 X99.262 Y99.358 E18.64612
G1 X97.642 Y100.866 E18.77175
G1 X90.977 Y105.351 E19.22798
G1 X88.971 Y106.284 E19.35361
G1 X81.245 Y108.491 E19.80984
G1 X79.049 Y108.758 E19.93547
G1 X71.020 Y108.470 E20.39171
G1 X68.849 Y108.045 E20.51734
G1 X61.302 Y105.290 E20.97357
G1 X59.368 Y104.215 E21.09919
G1 X53.042 Y99.262 E21.55542
G1 X51.535 Y97.642 E21.68105
G1 X47.049 Y90.977 E22.13728
G1 X46.116 Y88.971 E22.26291
G1 X43.909 Y81.245 E22.71915
G1 X43.642 Y79.049 E22.84478
G1 X43.930 Y71.020 E23.30101
G1 X44.355 Y68.849 E23.42664
G1 X47.110 Y61.302 E23.88287
G1 X48.185 Y59.368 E24.00850
G1 X53.064 Y53.136 E24.45792
G1 X53.486 Y53.466 F4800.000
G1 X53.560 Y53.372 E24.46473 F720.000
G1 X55.057 Y51.979 E24.58084
G1 X61.722 Y47.493 E25.03708
G1 X63.576 Y46.631 E25.15319
G1 X71.302 Y44.424 E25.60942
G1 X73.331 Y44.177 E25.72554
G1 X81.361 Y44.466 E26.18177
G1 X83.368 Y44.858 E26.29788 F720.000
G1 X90.915 Y47.613 E26.75411
G1 X92.702 Y48.607 E26.87023
G1 X99.028 Y53.560 E27.32646
G1 X100.421 Y55.057 E27.44257
G1 X104.907 Y61.722 E27.89881
G1 X105.769 Y63.576 E28.01492
G1 X107.976 Y71.302 E28.47115
G1 X108.223 Y73.331 E28.58726
G1 X107.934 Y81.361 E29.04350
G1 X107.542 Y83.368 E29.15961
G1 X104.786 Y90.915 E29.61584
G1 X103.793 Y92.702 E29.73196
G1 X98.840 Y99.028 E30.18819
G1 X97.343 Y100.421 E30.30430
G1 X90.678 Y104.907 E30.76054
G1 X88.824 Y105.769 E30.87665
G1 X81.098 Y107.976 E31.33288
G1 X79.068 Y108.223 E31.44899
G1 X71.039 Y107.934 E31.90523
G1 X69.032 Y107.542 E32.02134
G1 X61.485 Y104.786 E32.47757
G1 X59.698 Y103.793 E32.59368
G1 X53.372 Y98.840 E33.04991
G1 X51.979 Y97.343 E33.16602
G1 X47.493 Y90.678 E33.62226
G1 X46.631 Y88.824 E33.73837
G1 X44.424 Y81.098 E34.19460
G1 X44.177 Y79.069 E34.31072
G1 X44.466 Y71.039 E34.76695
G1 X44.858 Y69.032 E34.88306
G1 X47.613 Y61.485 E35.33930
G1 X48.607 Y59.698 E35.45541
G1 X53.449 Y53.514 E35.90142
G1 F1800.000 E34.90142
G92 E0
G1 X71.134 Y74.584 F4800.000
G1 E1.00000 F1800.000
G1 X71.152 Y74.530 E1.00326 F900.000
G1 X61.197 Y71.295 E1.59765
G1 X57.671 Y67.213 E1.90391
G1 X58.400 Y65.913 E1.98855
G1 X58.958 Y65.003 E2.04916
G1 X59.567 Y64.116 E2.11028
G1 X60.222 Y63.262 E2.17140
G1 X60.921 Y62.443 E2.23252
G1 X61.662 Y61.662 E2.29364
G1 X62.443 Y60.922 E2.35476
G1 X63.262 Y60.222 E2.41588
G1 X64.116 Y59.567 E2.47701
G1 X65.003 Y58.958 E2.53813
G1 X65.920 Y58.395 E2.59925
G1 X66.866 Y57.882 E2.66037
G1 X67.838 Y57.418 E2.72149
G1 X68.832 Y57.006 E2.78261
G1 X69.847 Y56.647 E2.84373
G1 X70.879 Y56.341 E2.90485
G1 X71.917 Y56.092 E2.96546
G1 X73.379 Y55.801 E3.05010
G1 X76.171 Y60.415 E3.35636
G1 X76.171 Y70.883 E3.95075
G1 X76.229 Y70.883 E3.95401
G1 X76.229 Y60.415 E4.54840
G1 X78.793 Y56.178 E4.82964
G1 X78.793 Y55.686 E4.85757
G1 X81.521 Y56.341 E5.01688
G1 X82.553 Y56.647 E5.07800
G1 X83.568 Y57.006 E5.13912
G1 X84.562 Y57.418 E5.20024
G1 X85.534 Y57.882 E5.26136
G1 X86.480 Y58.395 E5.32248
G1 X87.397 Y58.958 E5.38360
G1 X88.284 Y59.567 E5.44472
G1 X89.138 Y60.222 E5.50584
G1 X89.957 Y60.921 E5.56696
G1 X90.738 Y61.662 E5.62808
G1 X91.478 Y62.443 E5.68920
G1 X92.177 Y63.262 E5.75032
G1 X92.833 Y64.116 E5.81144
G1 X93.442 Y65.003 E5.87256
G1 X94.000 Y65.913 E5.93317
G1 X94.728 Y67.213 E6.01782
G1 X91.203 Y71.295 E6.32408
G1 X81.248 Y74.530 E6.91847
G1 X81.266 Y74.584 E6.92173
G1 X91.221 Y71.350 E7.51611
G1 X96.472 Y72.580 E7.82238
G1 X96.647 Y74.060 E7.90702
G1 X96.731 Y75.124 E7.96763
G1 X96.759 Y76.200 E8.02875
G1 X96.731 Y77.276 E8.08987
G1 X96.647 Y78.349 E8.15099
G1 X96.506 Y79.416 E8.21211
G1 X96.310 Y80.474 E8.27323
G1 X96.059 Y81.521 E8.33435
G1 X95.753 Y82.553 E8.39548
G1 X95.394 Y83.568 E8.45659
G1 X94.982 Y84.562 E8.51771
G1 X94.518 Y85.534 E8.57884
G1 X94.005 Y86.480 E8.63996
G1 X93.442 Y87.397 E8.70108
G1 X92.833 Y88.284 E8.76220
G1 X92.178 Y89.138 E8.82332
G1 X91.484 Y89.950 E8.88393
G1 X90.473 Y91.045 E8.96857
G1 X85.501 Y88.953 E9.27483
G1 X79.349 Y80.485 E9.86922
G1 X79.302 Y80.519 E9.87248
G1 X85.455 Y88.987 E10.46687
G1 X85.908 Y94.361 E10.77313
G1 X84.554 Y94.985 E10.85777
G1 X83.568 Y95.394 E10.91838
G1 X82.553 Y95.753 E10.97950
G1 X81.521 Y96.059 E11.04062
G1 X80.474 Y96.310 E11.10175
G1 X79.343 Y96.516 E11.16704
G1 X78.349 Y96.647 E11.22398
G1 X77.276 Y96.731 E11.28510
G1 X76.200 Y96.759 E11.34622
G1 X75.124 Y96.731 E11.40734
G1 X73.978 Y96.637 E11.47264
G1 X72.984 Y96.506 E11.52958
G1 X71.925 Y96.310 E11.59070
G1 X70.879 Y96.059 E11.65182
G1 X69.847 Y95.753 E11.71294
G1 X68.832 Y95.394 E11.77406
G1 X67.846 Y94.985 E11.83468
G1 X66.492 Y94.361 E11.91932
G1 X66.945 Y88.987 E12.22558
G1 X73.098 Y80.519 E12.81996
G1 X73.051 Y80.485 E12.82322
G1 X66.899 Y88.953 E13.41761
G1 X61.927 Y91.045 E13.72387
G1 X60.916 Y89.950 E13.80852
G1 X60.222 Y89.138 E13.86913
G1 X59.567 Y88.284 E13.93025
G1 X58.958 Y87.397 E13.99137
G1 X58.395 Y86.480 E14.05249
G1 X57.850 Y85.467 E14.11778
G1 X57.418 Y84.562 E14.17472
G1 X57.006 Y83.568 E14.23585
G1 X56.647 Y82.553 E14.29696
G1 X56.341 Y81.521 E14.35809
G1 X56.066 Y80.343 E14.42678
G1 X55.894 Y79.416 E14.48032
G1 X55.753 Y78.349 E14.54144
G1 X55.669 Y77.276 E14.60256
G1 X55.641 Y76.200 E14.66368
G1 X55.669 Y75.124 E14.72480
G1 X55.753 Y74.060 E14.78541
G1 X55.928 Y72.580 E14.87005
G1 X61.179 Y71.350 E15.17631
G1 X71.077 Y74.566 E15.76729
G1 F1800.000 E14.76729
G92 E0
G1 X56.416 Y73.016 F4800.000
G1 E1.00000 F1800.000
G1 X61.156 Y71.905 E1.27645 F900.000
G1 X70.823 Y75.046 E1.85367
G1 X71.283 Y75.986 E1.91307
G1 X71.321 Y76.713 E1.95439
G1 X71.401 Y77.220 E1.98355
G1 X71.534 Y77.716 E2.01271
G1 X71.718 Y78.195 E2.04187
G1 X71.951 Y78.653 E2.07103
G1 X72.348 Y79.263 E2.11236
G1 X72.528 Y80.294 E2.17176
G1 X66.553 Y88.517 E2.74897
G1 X62.066 Y90.405 E3.02543
G1 X61.316 Y89.594 E3.08815
G1 X60.639 Y88.801 E3.14737
G1 X60.001 Y87.970 E3.20689
G1 X59.407 Y87.106 E3.26642
G1 X58.859 Y86.212 E3.32595
G1 X58.359 Y85.290 E3.38548
G1 X57.908 Y84.344 E3.44500
G1 X57.506 Y83.376 E3.50453
G1 X57.157 Y82.388 E3.56406
G1 X56.859 Y81.382 E3.62359
G1 X56.614 Y80.363 E3.68312
G1 X56.423 Y79.332 E3.74264
G1 X56.286 Y78.293 E3.80217
G1 X56.204 Y77.248 E3.86170
G1 X56.177 Y76.200 E3.92123
G1 X56.204 Y75.152 E3.98075
G1 X56.286 Y74.112 E4.03997
G1 X56.409 Y73.075 E4.09928
G1 X56.903 Y73.451 F4800.000
G1 X61.132 Y72.461 E4.34593 F810.000
G1 X70.442 Y75.486 E4.90177
G1 X70.754 Y76.123 E4.94207
G1 X70.787 Y76.769 E4.97878
G1 X70.876 Y77.332 E5.01113
G1 X71.024 Y77.882 E5.04348
G1 X71.228 Y78.414 E5.07583
G1 X71.487 Y78.921 E5.10817
G1 X71.839 Y79.463 E5.14489
G1 X71.961 Y80.163 E5.18519
G1 X66.208 Y88.082 E5.74103
G1 X62.204 Y89.766 E5.98767
G1 X61.717 Y89.238 E6.02847
G1 X61.055 Y88.464 E6.08630
G1 X60.434 Y87.655 E6.14423
G1 X59.856 Y86.814 E6.20216
G1 X59.323 Y85.944 E6.26010
G1 X58.836 Y85.047 E6.31803
G1 X58.397 Y84.126 E6.37597
G1 X58.007 Y83.184 E6.43390
G1 X57.666 Y82.222 E6.49184
G1 X57.376 Y81.244 E6.54977
G1 X57.138 Y80.252 E6.60771
G1 X56.952 Y79.249 E6.66564
G1 X56.819 Y78.237 E6.72358
G1 X56.739 Y77.220 E6.78151
G1 X56.712 Y76.200 E6.83945
G1 X56.739 Y75.180 E6.89738
G1 X56.819 Y74.165 E6.95521
G1 X56.896 Y73.511 E6.99260
G1 X56.858 Y73.054 F4800.000
G1 F1800.000 E5.99260
G92 E0
G1 X58.322 Y67.147 F4800.000
G1 E1.00000 F1800.000
G1 X58.862 Y66.184 E1.06272 F900.000
G1 X59.407 Y65.294 E1.12194
G1 X60.001 Y64.431 E1.18147
G1 X60.639 Y63.599 E1.24099
G1 X61.320 Y62.802 E1.30052
G1 X62.041 Y62.041 E1.36005
G1 X62.802 Y61.320 E1.41958
G1 X63.599 Y60.639 E1.47910
G1 X64.430 Y60.001 E1.53863
G1 X65.294 Y59.407 E1.59816
G1 X66.188 Y58.859 E1.65769
G1 X67.109 Y58.359 E1.71721
G1 X68.056 Y57.908 E1.77674
G1 X69.024 Y57.507 E1.83627
G1 X70.012 Y57.157 E1.89580
G1 X71.017 Y56.859 E1.95532
G1 X72.032 Y56.615 E2.01454
G1 X73.115 Y56.400 E2.07726
G1 X75.636 Y60.565 E2.35371
G1 X75.636 Y70.730 E2.93093
G1 X74.884 Y71.457 E2.99033
G1 X74.205 Y71.718 E3.03165
G1 X73.747 Y71.951 E3.06082
G1 X73.316 Y72.231 E3.08998
G1 X72.917 Y72.554 E3.11914
G1 X72.554 Y72.917 E3.14830
G1 X72.096 Y73.483 E3.18962
G1 X71.172 Y73.973 E3.24902
G1 X61.505 Y70.832 E3.82624
G1 X58.362 Y67.193 E4.09928
G1 X58.973 Y67.081 F4800.000
G1 X59.324 Y66.455 E4.14008 F810.000
G1 X59.856 Y65.586 E4.19791
G1 X60.434 Y64.745 E4.25584
G1 X61.055 Y63.936 E4.31378
G1 X61.718 Y63.160 E4.37171
G1 X62.420 Y62.420 E4.42965
G1 X63.160 Y61.718 E4.48758
G1 X63.936 Y61.055 E4.54552
G1 X64.745 Y60.434 E4.60345
G1 X65.586 Y59.856 E4.66139
G1 X66.456 Y59.323 E4.71932
G1 X67.353 Y58.836 E4.77725
G1 X68.274 Y58.397 E4.83519
G1 X69.216 Y58.007 E4.89312
G1 X70.178 Y57.666 E4.95106
G1 X71.156 Y57.376 E5.00899
G1 X72.146 Y57.139 E5.06682
G1 X72.851 Y56.998 E5.10762
G1 X75.100 Y60.714 E5.35426
G1 X75.100 Y70.503 E5.91010
G1 X74.590 Y70.996 E5.95040
G1 X73.986 Y71.228 E5.98711
G1 X73.479 Y71.487 E6.01946
G1 X73.001 Y71.797 E6.05181
G1 X72.558 Y72.155 E6.08416
G1 X72.155 Y72.558 E6.11651
G1 X71.749 Y73.061 E6.15322
G1 X71.122 Y73.393 E6.19352
G1 X61.812 Y70.369 E6.74936
G1 X59.012 Y67.127 E6.99260
G1 X58.649 Y66.847 F4800.000
G1 F1800.000 E5.99260
G92 E0
G1 X79.285 Y56.400 F4800.000
G1 E1.00000 F1800.000
G1 X79.329 Y56.409 E1.00253 F900.000
G1 X79.329 Y56.366 E1.00496
G1 X81.382 Y56.859 E1.12489
G1 X82.388 Y57.157 E1.18442
G1 X83.376 Y57.506 E1.24394
G1 X84.344 Y57.908 E1.30347
G1 X85.290 Y58.359 E1.36300
G1 X86.212 Y58.859 E1.42253
G1 X87.105 Y59.407 E1.48205
G1 X87.969 Y60.001 E1.54158
G1 X88.801 Y60.639 E1.60111
G1 X89.598 Y61.320 E1.66064
G1 X90.359 Y62.041 E1.72016
G1 X91.080 Y62.802 E1.77969
G1 X91.761 Y63.599 E1.83922
G1 X92.399 Y64.430 E1.89875
G1 X92.993 Y65.294 E1.95827
G1 X93.538 Y66.184 E2.01749
G1 X94.078 Y67.147 E2.08021
G1 X90.895 Y70.832 E2.35667
G1 X81.228 Y73.973 E2.93389
G1 X80.304 Y73.483 E2.99328
G1 X79.846 Y72.917 E3.03461
G1 X79.483 Y72.554 E3.06377
G1 X79.084 Y72.231 E3.09293
G1 X78.653 Y71.951 E3.12209
G1 X78.195 Y71.718 E3.15125
G1 X77.516 Y71.457 E3.19257
G1 X76.764 Y70.730 E3.25197
G1 X76.764 Y60.565 E3.82919
G1 X79.254 Y56.451 E4.10223
G1 X79.549 Y56.998 F4800.000
G1 X79.864 Y57.061 E4.12050 F810.000
G1 X79.864 Y57.045 E4.12141
G1 X81.244 Y57.376 E4.20196
G1 X82.222 Y57.666 E4.25990
G1 X83.184 Y58.007 E4.31783
G1 X84.126 Y58.397 E4.37577
G1 X85.047 Y58.836 E4.43370
G1 X85.944 Y59.323 E4.49164
G1 X86.814 Y59.856 E4.54957
G1 X87.654 Y60.434 E4.60751
G1 X88.464 Y61.055 E4.66544
G1 X89.240 Y61.718 E4.72338
G1 X89.980 Y62.420 E4.78131
G1 X90.682 Y63.160 E4.83924
G1 X91.345 Y63.936 E4.89718
G1 X91.966 Y64.745 E4.95511
G1 X92.544 Y65.586 E5.01305
G1 X93.076 Y66.454 E5.07087
G1 X93.427 Y67.081 E5.11167
G1 X90.588 Y70.369 E5.35832
G1 X81.278 Y73.393 E5.91415
G1 X80.651 Y73.061 E5.95445
G1 X80.244 Y72.558 E5.99117
G1 X79.842 Y72.155 E6.02352
G1 X79.399 Y71.797 E6.05587
G1 X78.921 Y71.487 E6.08822
G1 X78.414 Y71.228 E6.12056
G1 X77.810 Y70.996 E6.15728
G1 X77.300 Y70.503 E6.19758
G1 X77.300 Y60.714 E6.75342
G1 X79.518 Y57.050 E6.99665
G1 X79.648 Y56.692 F4800.000
G1 F1800.000 E5.99665
G92 E0
G1 X95.984 Y73.015 F4800.000
G1 E1.00000 F1800.000
G1 X96.114 Y74.112 E1.06272 F900.000
G1 X96.196 Y75.152 E1.12194
G1 X96.223 Y76.200 E1.18147
G1 X96.196 Y77.248 E1.24100
G1 X96.114 Y78.293 E1.30052
G1 X95.977 Y79.332 E1.36005
G1 X95.786 Y80.363 E1.41958
G1 X95.541 Y81.382 E1.47911
G1 X95.243 Y82.388 E1.53863
G1 X94.894 Y83.376 E1.59816
G1 X94.492 Y84.344 E1.65769
G1 X94.041 Y85.290 E1.71722
G1 X93.541 Y86.212 E1.77674
G1 X92.993 Y87.106 E1.83627
G1 X92.399 Y87.969 E1.89580
G1 X91.761 Y88.801 E1.95533
G1 X91.084 Y89.594 E2.01455
G1 X90.334 Y90.405 E2.07727
G1 X85.847 Y88.517 E2.35372
G1 X79.872 Y80.294 E2.93094
G1 X80.052 Y79.263 E2.99034
G1 X80.449 Y78.653 E3.03166
G1 X80.682 Y78.195 E3.06082
G1 X80.866 Y77.716 E3.08998
G1 X80.999 Y77.220 E3.11914
G1 X81.079 Y76.713 E3.14830
G1 X81.117 Y75.986 E3.18962
G1 X81.577 Y75.046 E3.24902
G1 X91.244 Y71.905 E3.82624
G1 X95.926 Y73.002 E4.09928
G1 X95.497 Y73.451 F4800.000
G1 X95.581 Y74.165 E4.14009 F810.000
G1 X95.661 Y75.180 E4.19791
G1 X95.688 Y76.200 E4.25584
G1 X95.661 Y77.220 E4.31378
G1 X95.581 Y78.237 E4.37171
G1 X95.448 Y79.248 E4.42965
G1 X95.262 Y80.252 E4.48758
G1 X95.024 Y81.244 E4.54552
G1 X94.734 Y82.222 E4.60345
G1 X94.393 Y83.184 E4.66139
G1 X94.003 Y84.126 E4.71932
G1 X93.564 Y85.047 E4.77726
G1 X93.077 Y85.944 E4.83519
G1 X92.544 Y86.814 E4.89313
G1 X91.966 Y87.655 E4.95106
G1 X91.345 Y88.464 E5.00900
G1 X90.683 Y89.238 E5.06682
G1 X90.196 Y89.766 E5.10762
G1 X86.192 Y88.082 E5.35426
G1 X80.439 Y80.162 E5.91010
G1 X80.561 Y79.463 E5.95040
G1 X80.913 Y78.921 E5.98712
G1 X81.172 Y78.414 E6.01947
G1 X81.376 Y77.882 E6.05182
G1 X81.524 Y77.332 E6.08416
G1 X81.613 Y76.769 E6.11651
G1 X81.646 Y76.123 E6.15323
G1 X81.958 Y75.486 E6.19353
G1 X91.268 Y72.461 E6.74937
G1 X95.438 Y73.438 E6.99260
G1 X95.897 Y73.451 F4800.000
G1 F1800.000 E5.99260
G92 E0
G1 X80.956 Y75.700 F4800.000
G1 E1.00000 F1800.000
G1 X80.982 Y76.200 E1.02842 F900.000
G1 X80.956 Y76.700 E1.05684
G1 X80.878 Y77.194 E1.08528
G1 X80.748 Y77.678 E1.11369
G1 X80.569 Y78.145 E1.14212
G1 X80.342 Y78.591 E1.17054
G1 X80.069 Y79.011 E1.19897
G1 X79.754 Y79.400 E1.22739
G1 X79.400 Y79.754 E1.25582
G1 X79.011 Y80.069 E1.28425
G1 X78.591 Y80.342 E1.31267
G1 X78.145 Y80.569 E1.34110
G1 X77.678 Y80.748 E1.36952
G1 X77.194 Y80.878 E1.39794
G1 X76.700 Y80.956 E1.42637
G1 X76.149 Y80.980 E1.45766
G1 X75.700 Y80.956 E1.48320
G1 X75.206 Y80.878 E1.51163
G1 X74.722 Y80.748 E1.54005
G1 X74.210 Y80.546 E1.57134
G1 X73.809 Y80.342 E1.59689
G1 X73.389 Y80.069 E1.62531
G1 X73.000 Y79.754 E1.65374
G1 X72.646 Y79.400 E1.68216
G1 X72.331 Y79.011 E1.71059
G1 X72.058 Y78.591 E1.73902
G1 X71.831 Y78.145 E1.76744
G1 X71.639 Y77.629 E1.79872
G1 X71.522 Y77.194 E1.82428
G1 X71.444 Y76.700 E1.85270
G1 X71.418 Y76.200 E1.88112
G1 X71.452 Y75.650 E1.91241
G1 X71.522 Y75.206 E1.93796
