; generated by Slic3r 1.2.0 on 2014-10-26 at 17:54:51

; external perimeters extrusion width = 0.40mm
; perimeters extrusion width = 0.67mm
; infill extrusion width = 0.67mm
; solid infill extrusion width = 0.67mm
; top infill extrusion width = 0.67mm

G21 ; set units to millimeters
M107
M104 S195 ; set temperature
G28 X0 Y0  
G29
M109 S195 ; wait for temperature to be reached
G90 ; use absolute coordinates
G92 E0
M82 ; use absolute distances for extrusion
G1 F1800.000 E-1.00000
G92 E0
G1 Z0.300 F4800.000
G1 X51.811 Y50.809 F4800.000
G1 E1.00000 F1800.000
G1 X52.124 Y50.489 E1.02540 F720.000
G1 X52.867 Y49.821 E1.08214
G1 X55.099 Y47.998 E1.24575
G1 X55.911 Y47.416 E1.30249
G1 X58.329 Y45.849 E1.46612
G1 X58.819 Y45.566 E1.49825
G1 X61.776 Y44.069 E1.68647
G1 X62.696 Y43.678 E1.74321
G1 X65.399 Y42.679 E1.90683
G1 X65.938 Y42.510 E1.93894
G1 X69.152 Y41.695 E2.12719
G1 X69.707 Y41.587 E2.15932
G1 X72.990 Y41.131 E2.34754
G1 X73.554 Y41.084 E2.37966
G1 X76.867 Y40.992 E2.56789
G1 X77.866 Y41.031 E2.62462
G1 X80.736 Y41.281 E2.78825 F720.000
G1 X81.297 Y41.358 E2.82038
G1 X84.550 Y41.993 E3.00860
G1 X85.516 Y42.249 E3.06534
G1 X88.262 Y43.121 E3.22896
G1 X89.194 Y43.482 E3.28569
G1 X91.828 Y44.650 E3.44932
G1 X92.714 Y45.111 E3.50605
G1 X95.204 Y46.562 E3.66968
G1 X96.034 Y47.118 E3.72641
G1 X98.349 Y48.834 E3.89003
G1 X98.786 Y49.193 E3.92214
G1 X101.225 Y51.438 E4.11039
G1 X101.913 Y52.162 E4.16712
G1 X103.797 Y54.343 E4.33075
G1 X104.402 Y55.138 E4.38748
G1 X106.034 Y57.513 E4.55111
G1 X106.330 Y57.994 E4.58322
G1 X107.909 Y60.910 E4.77146
G1 X108.325 Y61.818 E4.82819
G1 X109.398 Y64.492 E4.99182
G1 X109.712 Y65.441 E5.04855
G1 X110.485 Y68.217 E5.21218
G1 X110.692 Y69.194 E5.26891
G1 X111.155 Y72.038 E5.43254
G1 X111.253 Y73.032 E5.48927
G1 X111.400 Y75.910 E5.65290
G1 X111.389 Y76.909 E5.70963
G1 X111.219 Y79.785 E5.87324
G1 X111.156 Y80.348 E5.90539
G1 X110.611 Y83.617 E6.09360
G1 X110.382 Y84.590 E6.15034
G1 X109.587 Y87.359 E6.31396
G1 X109.251 Y88.301 E6.37070
G1 X108.156 Y90.966 E6.53432
G1 X107.719 Y91.864 E6.59106
G1 X106.338 Y94.393 E6.75468
G1 X105.805 Y95.238 E6.81142
G1 X104.154 Y97.599 E6.97504
G1 X103.531 Y98.381 E7.03178
G1 X101.630 Y100.546 E7.19540
G1 X100.925 Y101.254 E7.25214
G1 X98.797 Y103.197 E7.41575
G1 X98.018 Y103.824 E7.47250
G1 X95.690 Y105.521 E7.63612
G1 X94.847 Y106.057 E7.69285
G1 X92.346 Y107.488 E7.85647
G1 X91.449 Y107.929 E7.91321
G1 X88.806 Y109.076 E8.07683
G1 X87.866 Y109.415 E8.13357
G1 X85.113 Y110.265 E8.29719
G1 X84.141 Y110.499 E8.35393
G1 X81.311 Y111.040 E8.51755
G1 X80.320 Y111.165 E8.57429
G1 X77.447 Y111.392 E8.73791
G1 X76.448 Y111.408 E8.79465
G1 X73.568 Y111.317 E8.95827
G1 X72.574 Y111.223 E9.01501
G1 X69.721 Y110.816 E9.17863
G1 X69.166 Y110.707 E9.21076
G1 X65.952 Y109.894 E9.39898
G1 X65.412 Y109.725 E9.43114
G1 X62.308 Y108.564 E9.61933
G1 X61.397 Y108.152 E9.67607
G1 X58.832 Y106.841 E9.83970
G1 X57.972 Y106.331 E9.89643
G1 X55.566 Y104.745 E10.06005
G1 X55.110 Y104.410 E10.09221
G1 X52.551 Y102.304 E10.28041
G1 X51.824 Y101.619 E10.33714
G1 X49.823 Y99.545 E10.50077
G1 X49.176 Y98.784 E10.55750
G1 X47.415 Y96.503 E10.72112
G1 X46.855 Y95.676 E10.77786
G1 X45.356 Y93.215 E10.94149
G1 X45.087 Y92.717 E10.97360
G1 X43.671 Y89.720 E11.16184
G1 X43.306 Y88.790 E11.21857
G1 X42.381 Y86.061 E11.38220
G1 X42.227 Y85.516 E11.41434
G1 X41.502 Y82.282 E11.60255
G1 X41.349 Y81.295 E11.65929
G1 X41.043 Y78.429 E11.82291
G1 X41.000 Y77.431 E11.87965
G1 X41.011 Y74.550 E12.04327
G1 X41.078 Y73.553 E12.10000
G1 X41.406 Y70.690 E12.26363
G1 X41.499 Y70.132 E12.29574
G1 X42.223 Y66.897 E12.48398
G1 X42.506 Y65.939 E12.54072
G1 X43.453 Y63.218 E12.70434
G1 X43.840 Y62.296 E12.76108
G1 X45.080 Y59.695 E12.92470
G1 X45.349 Y59.197 E12.95685
G1 X47.084 Y56.374 E13.14505
G1 X47.663 Y55.559 E13.20179
G1 X49.442 Y53.292 E13.36541
G1 X50.107 Y52.547 E13.42215
G1 X51.769 Y50.851 E13.55696
G1 X52.151 Y51.226 F4800.000
G1 X52.487 Y50.883 E13.58421 F720.000
G1 X53.208 Y50.234 E13.63927
G1 X55.416 Y48.430 E13.80121
G1 X56.204 Y47.864 E13.85628
G1 X58.597 Y46.313 E14.01823
G1 X59.087 Y46.030 E14.05036
G1 X61.992 Y44.560 E14.23523
G1 X62.884 Y44.180 E14.29029
G1 X65.558 Y43.190 E14.45223
G1 X66.098 Y43.021 E14.48434
G1 X69.254 Y42.221 E14.66924
G1 X69.810 Y42.113 E14.70137
G1 X73.034 Y41.665 E14.88624
G1 X73.598 Y41.618 E14.91836
G1 X76.853 Y41.528 E15.10324
G1 X77.821 Y41.565 E15.15830
G1 X80.663 Y41.811 E15.32025 F720.000
G1 X81.223 Y41.889 E15.35238
G1 X84.419 Y42.512 E15.53725
G1 X85.356 Y42.761 E15.59231
G1 X88.075 Y43.622 E15.75426
G1 X88.979 Y43.972 E15.80932
G1 X91.586 Y45.128 E15.97127
G1 X92.447 Y45.575 E16.02632
G1 X94.911 Y47.010 E16.18827
G1 X95.717 Y47.550 E16.24333
G1 X98.009 Y49.247 E16.40528
G1 X98.445 Y49.607 E16.43739
G1 X100.841 Y51.811 E16.62228
G1 X101.509 Y52.514 E16.67734
G1 X103.374 Y54.672 E16.83929
G1 X103.961 Y55.443 E16.89435
G1 X105.578 Y57.793 E17.05630
G1 X105.874 Y58.275 E17.08841
G1 X107.424 Y61.138 E17.27330
G1 X107.828 Y62.019 E17.32836
G1 X108.892 Y64.666 E17.49031
G1 X109.196 Y65.586 E17.54536
G1 X109.962 Y68.334 E17.70732
G1 X110.163 Y69.282 E17.76237
G1 X110.622 Y72.097 E17.92432
G1 X110.718 Y73.062 E17.97938
G1 X110.865 Y75.910 E18.14133
G1 X110.854 Y76.879 E18.19638
G1 X110.686 Y79.726 E18.35832
G1 X110.624 Y80.289 E18.39047
G1 X110.089 Y83.500 E18.57533
G1 X109.866 Y84.444 E18.63039
G1 X109.080 Y87.185 E18.79233
G1 X108.755 Y88.099 E18.84740
G1 X107.672 Y90.737 E19.00934
G1 X107.248 Y91.610 E19.06441
G1 X105.882 Y94.113 E19.22635
G1 X105.365 Y94.933 E19.28142
G1 X103.731 Y97.270 E19.44336
G1 X103.127 Y98.029 E19.49842
G1 X101.246 Y100.173 E19.66037
G1 X100.562 Y100.860 E19.71543
G1 X98.456 Y102.784 E19.87737
G1 X97.701 Y103.392 E19.93244
G1 X95.397 Y105.072 E20.09439
G1 X94.579 Y105.594 E20.14945
G1 X92.104 Y107.010 E20.31139
G1 X91.234 Y107.439 E20.36645
G1 X88.618 Y108.574 E20.52840
G1 X87.706 Y108.904 E20.58346
G1 X84.981 Y109.745 E20.74540
G1 X84.039 Y109.973 E20.80047
G1 X81.237 Y110.509 E20.96242
G1 X80.276 Y110.632 E21.01748
G1 X77.433 Y110.856 E21.17942
G1 X76.463 Y110.872 E21.23448
G1 X73.612 Y110.783 E21.39643
G1 X72.647 Y110.692 E21.45149
G1 X69.824 Y110.290 E21.61343
G1 X69.268 Y110.182 E21.64556
G1 X66.112 Y109.383 E21.83044
G1 X65.572 Y109.214 E21.86259
G1 X62.523 Y108.073 E22.04744
G1 X61.639 Y107.674 E22.10250
G1 X59.099 Y106.377 E22.26445
G1 X58.265 Y105.883 E22.31951
G1 X55.883 Y104.314 E22.48146
G1 X55.427 Y103.979 E22.51361
G1 X52.914 Y101.910 E22.69846
G1 X52.208 Y101.245 E22.75352
G1 X50.227 Y99.193 E22.91547
G1 X49.598 Y98.455 E22.97053
G1 X47.855 Y96.198 E23.13247
G1 X47.311 Y95.395 E23.18753
G1 X45.827 Y92.960 E23.34948
G1 X45.558 Y92.462 E23.38160
G1 X44.168 Y89.518 E23.56649
G1 X43.813 Y88.616 E23.62154
G1 X42.897 Y85.915 E23.78349
G1 X42.743 Y85.370 E23.81563
G1 X42.030 Y82.194 E24.00049
G1 X41.881 Y81.236 E24.05555
G1 X41.578 Y78.400 E24.21750
G1 X41.535 Y77.431 E24.27256
G1 X41.546 Y74.579 E24.43451
G1 X41.610 Y73.612 E24.48957
G1 X41.935 Y70.778 E24.65152
G1 X42.028 Y70.221 E24.68363
G1 X42.739 Y67.043 E24.86852
G1 X43.013 Y66.113 E24.92358
G1 X43.949 Y63.419 E25.08553
G1 X44.324 Y62.525 E25.14058
G1 X45.551 Y59.950 E25.30254
G1 X45.820 Y59.452 E25.33468
G1 X47.524 Y56.679 E25.51954
G1 X48.086 Y55.888 E25.57459
G1 X49.846 Y53.644 E25.73654
G1 X50.491 Y52.920 E25.79160
G1 X52.109 Y51.269 E25.92290
G1 X52.491 Y51.643 F4800.000
G1 X52.850 Y51.277 E25.95198 F720.000
G1 X53.548 Y50.648 E26.00536
G1 X55.733 Y48.861 E26.16563
G1 X56.497 Y48.313 E26.21902
G1 X58.865 Y46.777 E26.37929
G1 X59.355 Y46.494 E26.41142
G1 X62.207 Y45.050 E26.59294
G1 X63.072 Y44.682 E26.64633
G1 X65.718 Y43.701 E26.80660
G1 X66.258 Y43.532 E26.83871
G1 X69.357 Y42.747 E27.02026
G1 X69.912 Y42.638 E27.05238
G1 X73.079 Y42.199 E27.23390
G1 X73.642 Y42.152 E27.26602
G1 X76.838 Y42.063 E27.44755
G1 X77.777 Y42.099 E27.50094
G1 X80.589 Y42.342 E27.66121 F720.000
G1 X81.150 Y42.419 E27.69334
G1 X84.287 Y43.031 E27.87486
G1 X85.196 Y43.272 E27.92824
G1 X87.887 Y44.124 E28.08852
G1 X88.764 Y44.463 E28.14190
G1 X91.345 Y45.606 E28.30217
G1 X92.179 Y46.039 E28.35555
G1 X94.618 Y47.459 E28.51583
G1 X95.400 Y47.981 E28.56921
G1 X97.668 Y49.661 E28.72948
G1 X98.105 Y50.020 E28.76159
G1 X100.457 Y52.185 E28.94313
G1 X101.106 Y52.866 E28.99652
G1 X102.952 Y55.001 E29.15679
G1 X103.521 Y55.749 E29.21017
G1 X105.121 Y58.074 E29.37045
G1 X105.418 Y58.555 E29.40256
G1 X106.940 Y61.367 E29.58410
G1 X107.332 Y62.221 E29.63748
G1 X108.385 Y64.840 E29.79776
G1 X108.681 Y65.732 E29.85113
G1 X109.439 Y68.451 E30.01141
G1 X109.635 Y69.370 E30.06479
G1 X110.090 Y72.156 E30.22507
G1 X110.183 Y73.091 E30.27845
G1 X110.329 Y75.910 E30.43872
G1 X110.319 Y76.850 E30.49210
G1 X110.154 Y79.667 E30.65237
G1 X110.092 Y80.230 E30.68451
G1 X109.566 Y83.383 E30.86602
G1 X109.351 Y84.298 E30.91941
G1 X108.573 Y87.011 E31.07967
G1 X108.259 Y87.897 E31.13306
G1 X107.187 Y90.509 E31.29333
G1 X106.777 Y91.355 E31.34672
G1 X105.425 Y93.832 E31.50699
G1 X104.924 Y94.628 E31.56038
G1 X103.308 Y96.941 E31.72064
G1 X102.723 Y97.677 E31.77403
G1 X100.862 Y99.799 E31.93430
G1 X100.199 Y100.466 E31.98769
G1 X98.116 Y102.370 E32.14795
G1 X97.384 Y102.960 E32.20134
G1 X95.104 Y104.624 E32.36162
G1 X94.311 Y105.130 E32.41500
G1 X91.862 Y106.532 E32.57527
G1 X91.019 Y106.948 E32.62866
G1 X88.430 Y108.073 E32.78892
G1 X87.546 Y108.393 E32.84231
G1 X84.850 Y109.226 E33.00258
G1 X83.936 Y109.447 E33.05597
G1 X81.164 Y109.979 E33.21624
G1 X80.231 Y110.098 E33.26962
G1 X77.418 Y110.321 E33.42989
G1 X76.478 Y110.337 E33.48328
G1 X73.657 Y110.249 E33.64355
G1 X72.721 Y110.162 E33.69694
G1 X69.926 Y109.764 E33.85720
G1 X69.371 Y109.656 E33.88933
G1 X66.272 Y108.872 E34.07086
G1 X65.732 Y108.703 E34.10301
G1 X62.738 Y107.583 E34.28451
G1 X61.881 Y107.196 E34.33789
G1 X59.367 Y105.913 E34.49817
G1 X58.558 Y105.434 E34.55155
G1 X56.201 Y103.882 E34.71182
G1 X55.744 Y103.547 E34.74397
G1 X53.277 Y101.516 E34.92547
G1 X52.592 Y100.872 E34.97886
G1 X50.631 Y98.842 E35.13913
G1 X50.021 Y98.126 E35.19251
G1 X48.295 Y95.893 E35.35278
G1 X47.768 Y95.115 E35.40617
G1 X46.298 Y92.705 E35.56644
G1 X46.029 Y92.208 E35.59855
G1 X44.664 Y89.317 E35.78009
G1 X44.319 Y88.442 E35.83347
G1 X43.412 Y85.769 E35.99375
G1 X43.258 Y85.225 E36.02588
G1 X42.558 Y82.106 E36.20740
G1 X42.413 Y81.177 E36.26078
G1 X42.113 Y78.370 E36.42106
G1 X42.071 Y77.431 E36.47444
G1 X42.081 Y74.609 E36.63471
G1 X42.143 Y73.671 E36.68809
G1 X42.463 Y70.866 E36.84837
G1 X42.556 Y70.309 E36.88048
G1 X43.254 Y67.189 E37.06202
G1 X43.520 Y66.287 E37.11540
G1 X44.445 Y63.621 E37.27568
G1 X44.808 Y62.754 E37.32906
G1 X46.022 Y60.205 E37.48933
G1 X46.291 Y59.707 E37.52148
G1 X47.965 Y56.984 E37.70298
G1 X48.508 Y56.217 E37.75636
G1 X50.250 Y53.996 E37.91664
G1 X50.875 Y53.293 E37.97002
G1 X52.449 Y51.686 E38.09780
G1 F1800.000 E37.09780
G92 E0
G1 X98.121 Y70.224 F4800.000
G1 E1.00000 F1800.000
G1 X99.450 Y69.815 E1.07895 F810.000
G1 X99.853 Y71.583 E1.18194
G1 X100.069 Y72.882 E1.25671
G1 X100.217 Y74.215 E1.33288
G1 X100.289 Y75.529 E1.40762
G1 X100.289 Y76.871 E1.48378
G1 X100.217 Y78.185 E1.55852
G1 X100.070 Y79.518 E1.63469
G1 X99.853 Y80.816 E1.70943
G1 X99.560 Y82.125 E1.78560
G1 X99.201 Y83.392 E1.86034
G1 X98.766 Y84.660 E1.93650
G1 X98.270 Y85.880 E2.01125
G1 X97.698 Y87.093 E2.08741
G1 X97.072 Y88.250 E2.16216
G1 X96.370 Y89.393 E2.23832
G1 X95.619 Y90.475 E2.31306
G1 X94.796 Y91.534 E2.38923
G1 X93.931 Y92.526 E2.46397
G1 X92.996 Y93.488 E2.54014
G1 X92.029 Y94.377 E2.61476
G1 X91.249 Y95.038 E2.67283
G1 X90.423 Y93.924 E2.75155
G1 X91.371 Y93.070 E2.82403
G1 X92.236 Y92.249 E2.89173
G1 X93.054 Y91.387 E2.95921
G1 X93.826 Y90.484 E3.02669
G1 X94.549 Y89.541 E3.09416
G1 X95.222 Y88.562 E3.16164
G1 X95.843 Y87.548 E3.22911
G1 X96.410 Y86.504 E3.29659
G1 X96.922 Y85.432 E3.36406
G1 X97.376 Y84.334 E3.43154
G1 X97.773 Y83.214 E3.49901
G1 X98.110 Y82.074 E3.56649
G1 X98.388 Y80.919 E3.63396
G1 X98.604 Y79.751 E3.70144
G1 X98.759 Y78.572 E3.76891
G1 X98.853 Y77.388 E3.83639
G1 X98.884 Y76.200 E3.90386
G1 X98.853 Y75.012 E3.97134
G1 X98.759 Y73.827 E4.03882
G1 X98.604 Y72.649 E4.10629
G1 X98.387 Y71.477 E4.17399
G1 X98.134 Y70.283 E4.24331
G1 X98.015 Y69.839 F4800.000
G1 F1800.000 E3.24331
G92 E0
G1 X95.644 Y74.854 F4800.000
G1 E1.00000 F1800.000
G1 X95.679 Y76.200 E1.07648 F810.000
G1 X95.653 Y77.220 E1.13443
G1 X95.573 Y78.237 E1.19238
G1 X95.439 Y79.249 E1.25032
G1 X95.253 Y80.253 E1.30827
G1 X95.015 Y81.245 E1.36622
G1 X94.725 Y82.223 E1.42417
G1 X94.385 Y83.185 E1.48212
G1 X93.994 Y84.128 E1.54007
G1 X93.555 Y85.049 E1.59802
G1 X93.068 Y85.946 E1.65597
G1 X92.535 Y86.816 E1.71392
G1 X91.957 Y87.657 E1.77187
G1 X91.137 Y88.726 E1.84834
G1 X89.225 Y86.900 E1.99845
G1 X87.974 Y86.263 E2.07817
G1 X86.590 Y86.044 E2.15776
G1 X84.884 Y86.299 E2.25568
G1 X78.817 Y77.948 E2.84181
G1 X79.056 Y77.478 E2.87182
G1 X79.174 Y77.171 E2.89049
G1 X79.259 Y76.853 E2.90916
G1 X79.342 Y76.331 E2.93917
G1 X89.159 Y73.142 E3.52530
G1 X90.389 Y74.351 E3.62323
G1 X91.638 Y74.987 E3.70281
G1 X93.024 Y75.206 E3.78253
G1 X95.585 Y74.862 E3.92923
G1 X96.043 Y74.829 F4800.000
G1 X95.463 Y74.092 F4800.000
G1 X94.305 Y74.682 E4.00305 F810.000
G1 X93.021 Y74.885 E4.07686
G1 X91.737 Y74.682 E4.15068
G1 X90.579 Y74.092 E4.22449
G1 X89.659 Y73.173 E4.29831
G1 X89.069 Y72.014 E4.37212
G1 X88.866 Y70.730 E4.44594
G1 X89.069 Y69.446 E4.51975
G1 X89.659 Y68.288 E4.59357
G1 X90.579 Y67.369 E4.66738
G1 X91.737 Y66.779 E4.74120
G1 X93.021 Y66.576 E4.81501
G1 X93.110 Y66.590 E4.82013
G1 X94.305 Y66.779 E4.88883 F810.000
G1 X95.463 Y67.369 E4.96264
G1 X96.382 Y68.288 E5.03645
G1 X96.972 Y69.446 E5.11027
G1 X97.176 Y70.730 E5.18408
G1 X96.972 Y72.014 E5.25790
G1 X96.382 Y73.173 E5.33171
G1 X95.505 Y74.049 E5.40212
G1 F1800.000 E4.40212
G92 E0
G1 X93.090 Y66.190 F4800.000
G1 X92.720 Y65.853 F4800.000
G1 E1.00000 F1800.000
G1 X90.393 Y67.107 E1.15011 F810.000
G1 X89.400 Y68.100 E1.22982
G1 X88.764 Y69.349 E1.30941
G1 X88.479 Y71.049 E1.40734
G1 X78.662 Y74.239 E1.99347
G1 X78.289 Y73.866 E2.02348
G1 X78.033 Y73.659 E2.04215
G1 X77.758 Y73.480 E2.06081
G1 X77.287 Y73.240 E2.09083
G1 X77.287 Y62.918 E2.67696
G1 X78.817 Y62.122 E2.77488
G1 X79.808 Y61.131 E2.85447
G1 X80.445 Y59.880 E2.93419
G1 X80.919 Y57.279 E3.08430
G1 X82.211 Y57.662 E3.16077
G1 X83.172 Y58.002 E3.21872
G1 X84.115 Y58.393 E3.27667
G1 X85.036 Y58.832 E3.33462
G1 X85.933 Y59.319 E3.39257
G1 X86.803 Y59.852 E3.45052
G1 X87.644 Y60.430 E3.50847
G1 X88.454 Y61.052 E3.56642
G1 X89.230 Y61.714 E3.62436
G1 X89.970 Y62.417 E3.68231
G1 X90.673 Y63.157 E3.74026
G1 X91.335 Y63.933 E3.79821
G1 X91.957 Y64.743 E3.85616
G1 X92.686 Y65.803 E3.92923
G1 X92.922 Y66.198 F4800.000
G1 F1800.000 E2.92923
G92 E0
G1 X97.442 Y68.136 F4800.000
G1 E1.00000 F1800.000
G1 X96.923 Y66.972 E1.07239 F810.000
G1 X96.410 Y65.896 E1.14010
G1 X95.843 Y64.852 E1.20757
G1 X95.222 Y63.838 E1.27505
G1 X94.549 Y62.859 E1.34252
G1 X93.826 Y61.916 E1.41000
G1 X93.054 Y61.013 E1.47747
G1 X92.236 Y60.151 E1.54495
G1 X91.374 Y59.333 E1.61242
G1 X90.471 Y58.561 E1.67990
G1 X89.510 Y57.825 E1.74863
G1 X88.549 Y57.165 E1.81484
G1 X87.535 Y56.544 E1.88232
G1 X86.491 Y55.977 E1.94979
G1 X85.419 Y55.465 E2.01727
G1 X84.321 Y55.011 E2.08475
G1 X83.179 Y54.608 E2.15348
G1 X82.061 Y54.277 E2.21969
G1 X80.906 Y53.999 E2.28717
G1 X79.738 Y53.783 E2.35464
G1 X78.556 Y53.627 E2.42235
G1 X77.286 Y53.493 E2.49485
G1 X77.287 Y52.102 E2.57382
G1 X78.834 Y52.234 E2.66195
G1 X80.162 Y52.418 E2.73810
G1 X81.454 Y52.671 E2.81284
G1 X82.754 Y52.999 E2.88900
G1 X84.010 Y53.393 E2.96375
G1 X85.267 Y53.863 E3.03991
G1 X86.472 Y54.392 E3.11466
G1 X87.669 Y54.997 E3.19082
G1 X88.808 Y55.656 E3.26556
G1 X89.932 Y56.389 E3.34173
G1 X90.992 Y57.169 E3.41647
G1 X92.028 Y58.021 E3.49264
G1 X92.996 Y58.913 E3.56738
G1 X93.931 Y59.874 E3.64355
G1 X94.795 Y60.867 E3.71829
G1 X95.620 Y61.925 E3.79445
G1 X96.369 Y63.007 E3.86920
G1 X97.072 Y64.149 E3.94536
G1 X97.698 Y65.307 E4.02010
G1 X98.270 Y66.519 E4.09621
G1 X98.760 Y67.702 E4.16894
G1 X97.499 Y68.118 E4.24432
