; generated by Slic3r 1.2.0 on 2014-10-26 at 17:55:16

; external perimeters extrusion width = 0.40mm
; perimeters extrusion width = 0.67mm
; infill extrusion width = 0.67mm
; solid infill extrusion width = 0.67mm
; top infill extrusion width = 0.67mm

G21 ; set units to millimeters
M107
M104 S195 ; set temperature
G28 X0 Y0  
G29
M109 S195 ; wait for temperature to be reached
G90 ; use absolute coordinates
G92 E0
M82 ; use absolute distances for extrusion
G1 F1800.000 E-1.00000
G92 E0
G1 Z0.300 F4800.000
G1 X59.049 Y59.268 F4800.000
G1 E1.00000 F1800.000
G1 X59.425 Y58.893 E1.03014 F720.000
G1 X62.046 Y56.671 E1.22524
G1 X63.124 Y55.953 E1.29880
G1 X66.127 Y54.285 E1.49387
G1 X67.325 Y53.791 E1.56745
G1 X70.596 Y52.741 E1.76253
G1 X71.867 Y52.491 E1.83611
G1 X75.281 Y52.099 E2.03122
G1 X76.576 Y52.101 E2.10476
G1 X80.014 Y52.385 E2.30065 F720.000
G1 X81.270 Y52.637 E2.37342
G1 X84.587 Y53.587 E2.56931
G1 X85.770 Y54.079 E2.64207
G1 X88.826 Y55.650 E2.83718
G1 X89.901 Y56.371 E2.91073
G1 X92.592 Y58.508 E3.10584
G1 X93.507 Y59.425 E3.17938
G1 X95.729 Y62.046 E3.37449
G1 X96.447 Y63.124 E3.44804
G1 X98.115 Y66.128 E3.64315
G1 X98.609 Y67.325 E3.71669
G1 X99.659 Y70.597 E3.91181
G1 X99.909 Y71.867 E3.98535
G1 X100.301 Y75.281 E4.18046
G1 X100.299 Y76.576 E4.25401
G1 X100.015 Y80.014 E4.44990
G1 X99.763 Y81.270 E4.52266
G1 X98.818 Y84.574 E4.71777
G1 X98.321 Y85.770 E4.79131
G1 X96.750 Y88.826 E4.98643
G1 X96.029 Y89.901 E5.05997
G1 X93.892 Y92.592 E5.25509
G1 X92.975 Y93.507 E5.32863
G1 X90.354 Y95.729 E5.52374
G1 X89.276 Y96.447 E5.59728
G1 X86.272 Y98.115 E5.79240
G1 X85.075 Y98.609 E5.86594
G1 X81.803 Y99.659 E6.06105
G1 X80.533 Y99.909 E6.13459
G1 X77.119 Y100.301 E6.32971
G1 X75.824 Y100.299 E6.40325
G1 X72.400 Y100.017 E6.59835
G1 X71.130 Y99.763 E6.67190
G1 X67.826 Y98.818 E6.86702
G1 X66.630 Y98.321 E6.94056
G1 X63.574 Y96.750 E7.13568
G1 X62.499 Y96.029 E7.20922
G1 X59.808 Y93.892 E7.40433
G1 X58.893 Y92.975 E7.47787
G1 X56.671 Y90.354 E7.67298
G1 X55.953 Y89.276 E7.74653
G1 X54.285 Y86.272 E7.94165
G1 X53.791 Y85.075 E8.01518
G1 X52.738 Y81.790 E8.21108
G1 X52.491 Y80.533 E8.28384
G1 X52.099 Y77.119 E8.47895
G1 X52.101 Y75.824 E8.55249
G1 X52.383 Y72.400 E8.74759
G1 X52.637 Y71.130 E8.82115
G1 X53.582 Y67.826 E9.01626
G1 X54.079 Y66.630 E9.08980
G1 X55.650 Y63.575 E9.28489
G1 X56.371 Y62.499 E9.35846
G1 X58.508 Y59.808 E9.55357
G1 X59.007 Y59.310 E9.59357
G1 X59.384 Y59.689 F4800.000
G1 X59.776 Y59.298 E9.62497 F720.000
G1 X62.355 Y57.109 E9.81709
G1 X63.389 Y56.419 E9.88766
G1 X66.345 Y54.775 E10.07975
G1 X67.494 Y54.300 E10.15035
G1 X70.715 Y53.264 E10.34245
G1 X71.934 Y53.022 E10.41304
G1 X75.295 Y52.634 E10.60517
G1 X76.538 Y52.635 E10.67573
G1 X79.923 Y52.913 E10.86863 F720.000
G1 X81.129 Y53.154 E10.93842
G1 X84.395 Y54.087 E11.13132
G1 X85.530 Y54.558 E11.20110
G1 X88.540 Y56.103 E11.39323
G1 X89.573 Y56.794 E11.46379
G1 X92.224 Y58.897 E11.65592
G1 X93.102 Y59.776 E11.72648
G1 X95.292 Y62.355 E11.91861
G1 X95.981 Y63.389 E11.98917
G1 X97.626 Y66.346 E12.18130
G1 X98.100 Y67.494 E12.25186
G1 X99.136 Y70.715 E12.44399
G1 X99.378 Y71.934 E12.51455
G1 X99.766 Y75.295 E12.70668
G1 X99.765 Y76.538 E12.77724
G1 X99.487 Y79.924 E12.97014
G1 X99.246 Y81.129 E13.03992
G1 X98.318 Y84.382 E13.23205
G1 X97.842 Y85.530 E13.30261
G1 X96.297 Y88.540 E13.49474
G1 X95.606 Y89.573 E13.56530
G1 X93.503 Y92.224 E13.75743
G1 X92.624 Y93.102 E13.82799
G1 X90.045 Y95.292 E14.02012
G1 X89.011 Y95.981 E14.09068
G1 X86.054 Y97.626 E14.28281
G1 X84.906 Y98.100 E14.35337
G1 X81.685 Y99.136 E14.54550
G1 X80.466 Y99.378 E14.61606
G1 X77.105 Y99.766 E14.80819
G1 X75.862 Y99.765 E14.87875
G1 X72.490 Y99.489 E15.07086
G1 X71.271 Y99.246 E15.14143
G1 X68.018 Y98.318 E15.33357
G1 X66.870 Y97.842 E15.40412
G1 X63.860 Y96.297 E15.59626
G1 X62.827 Y95.606 E15.66681
G1 X60.176 Y93.503 E15.85894
G1 X59.298 Y92.624 E15.92950
G1 X57.108 Y90.045 E16.12163
G1 X56.419 Y89.011 E16.19219
G1 X54.774 Y86.054 E16.38433
G1 X54.300 Y84.906 E16.45488
G1 X53.261 Y81.671 E16.64779
G1 X53.022 Y80.466 E16.71757
G1 X52.634 Y77.105 E16.90970
G1 X52.635 Y75.862 E16.98026
G1 X52.911 Y72.490 E17.17237
G1 X53.154 Y71.271 E17.24295
G1 X54.082 Y68.018 E17.43508
G1 X54.558 Y66.870 E17.50564
G1 X56.103 Y63.860 E17.69774
G1 X56.794 Y62.827 E17.76832
G1 X58.897 Y60.176 E17.96045
G1 X59.342 Y59.731 E17.99620
G1 X59.720 Y60.110 F4800.000
G1 X60.127 Y59.703 E18.02884 F720.000
G1 X62.665 Y57.546 E18.21798
G1 X63.654 Y56.884 E18.28556
G1 X66.563 Y55.264 E18.47468
G1 X67.663 Y54.808 E18.54229
G1 X70.833 Y53.786 E18.73141
G1 X72.001 Y53.553 E18.79901
G1 X75.309 Y53.170 E18.98815
G1 X76.500 Y53.169 E19.05573
G1 X79.833 Y53.441 E19.24565 F720.000
G1 X80.987 Y53.670 E19.31245
G1 X84.203 Y54.587 E19.50238
G1 X85.290 Y55.037 E19.56917
G1 X88.255 Y56.556 E19.75832
G1 X89.244 Y57.217 E19.82589
G1 X91.855 Y59.285 E20.01504
G1 X92.697 Y60.127 E20.08262
G1 X94.854 Y62.665 E20.27176
G1 X95.516 Y63.654 E20.33934
G1 X97.136 Y66.564 E20.52849
G1 X97.592 Y67.663 E20.59606
G1 X98.614 Y70.834 E20.78521
G1 X98.847 Y72.001 E20.85278
G1 X99.230 Y75.310 E21.04193
G1 X99.231 Y76.500 E21.10951
G1 X98.962 Y79.819 E21.29862
G1 X98.730 Y80.987 E21.36623
G1 X97.818 Y84.191 E21.55537
G1 X97.363 Y85.290 E21.62295
G1 X95.844 Y88.255 E21.81210
G1 X95.183 Y89.244 E21.87967
G1 X93.114 Y91.855 E22.06883
G1 X92.273 Y92.697 E22.13640
G1 X89.735 Y94.854 E22.32555
G1 X88.746 Y95.516 E22.39312
G1 X85.836 Y97.136 E22.58227
G1 X84.737 Y97.592 E22.64984
G1 X81.566 Y98.614 E22.83899
G1 X80.399 Y98.847 E22.90656
G1 X77.090 Y99.230 E23.09572
G1 X75.900 Y99.231 E23.16329
G1 X72.581 Y98.962 E23.35242
G1 X71.413 Y98.730 E23.42001
G1 X68.196 Y97.813 E23.60994
G1 X67.110 Y97.363 E23.67673
G1 X64.145 Y95.844 E23.86588
G1 X63.156 Y95.183 E23.93345
G1 X60.545 Y93.115 E24.12260
G1 X59.703 Y92.273 E24.19017
G1 X57.538 Y89.724 E24.38010
G1 X56.884 Y88.746 E24.44689
G1 X55.263 Y85.836 E24.63605
G1 X54.808 Y84.737 E24.70362
G1 X53.786 Y81.567 E24.89274
G1 X53.553 Y80.399 E24.96034
G1 X53.170 Y77.090 E25.14949
G1 X53.169 Y75.900 E25.21706
G1 X53.441 Y72.567 E25.40699
G1 X53.670 Y71.413 E25.47378
G1 X54.587 Y68.196 E25.66371
G1 X55.037 Y67.110 E25.73050
G1 X56.564 Y64.134 E25.92043
G1 X57.217 Y63.156 E25.98722
G1 X59.285 Y60.545 E26.17637
G1 X59.678 Y60.152 E26.20789
G1 F1800.000 E25.20789
G92 E0
G1 X67.549 Y75.158 F4800.000
G1 E1.00000 F1800.000
G1 X67.501 Y76.091 E1.05308 F810.000
G1 X67.519 Y76.774 E1.09187
G1 X67.591 Y77.453 E1.13066
G1 X67.717 Y78.130 E1.16978
G1 X67.893 Y78.784 E1.20823
G1 X68.121 Y79.428 E1.24703
G1 X68.400 Y80.052 E1.28581
G1 X68.726 Y80.652 E1.32460
G1 X69.098 Y81.225 E1.36339
G1 X69.514 Y81.767 E1.40218
G1 X69.972 Y82.274 E1.44097
G1 X70.650 Y82.917 E1.49406
G1 X68.691 Y86.052 E1.70394
G1 X67.835 Y86.179 E1.75309
G1 X66.778 Y85.177 E1.83582
G1 X65.973 Y84.248 E1.90558
G1 X65.207 Y83.166 E1.98085
G1 X64.600 Y82.098 E2.05062
G1 X64.060 Y80.888 E2.12589
G1 X63.672 Y79.722 E2.19566
G1 X63.379 Y78.429 E2.27093
G1 X63.226 Y77.210 E2.34069
G1 X63.190 Y75.886 E2.41590
G1 X63.263 Y74.739 E2.48119
G1 X63.969 Y74.236 E2.53039
G1 X67.492 Y75.141 E2.73693
G1 X67.946 Y75.205 F4800.000
G1 F1800.000 E1.73693
G92 E0
G1 X68.097 Y72.998 F4800.000
G1 E1.00000 F1800.000
G1 X64.521 Y72.106 E1.20927 F810.000
G1 X64.107 Y71.386 E1.25641
G1 X64.303 Y70.925 E1.28485
G1 X64.851 Y69.832 E1.35431
G1 X65.558 Y68.710 E1.42958
G1 X66.312 Y67.740 E1.49934
G1 X67.223 Y66.778 E1.57461
G1 X68.152 Y65.973 E1.64438
G1 X69.234 Y65.208 E1.71965
G1 X70.302 Y64.600 E1.78941
G1 X71.512 Y64.060 E1.86469
G1 X73.096 Y63.533 E1.95946
G1 X73.096 Y63.569 E1.96150
G1 X73.629 Y63.437 E1.99267
G1 X74.289 Y63.968 E2.04074
G1 X74.518 Y67.651 E2.25028
G1 X73.616 Y67.893 E2.30336
G1 X72.972 Y68.121 E2.34215
G1 X72.348 Y68.400 E2.38094
G1 X71.748 Y68.726 E2.41973
G1 X71.175 Y69.098 E2.45852
G1 X70.633 Y69.514 E2.49730
G1 X70.126 Y69.972 E2.53609
G1 X69.656 Y70.467 E2.57488
G1 X69.226 Y70.999 E2.61367
G1 X68.840 Y71.562 E2.65246
G1 X68.499 Y72.154 E2.69125
G1 X68.122 Y72.943 E2.74093
G1 X67.974 Y73.378 F4800.000
G1 F1800.000 E1.74093
G92 E0
G1 X76.742 Y67.504 F4800.000
G1 E1.00000 F1800.000
G1 X76.485 Y63.840 E1.20856 F810.000
G1 X76.981 Y63.205 E1.25428
G1 X77.744 Y63.279 E1.29781
G1 X79.047 Y63.501 E1.37287
G1 X80.446 Y63.886 E1.45525
G1 X80.446 Y63.909 E1.45657
G1 X81.470 Y64.301 E1.51882
G1 X82.568 Y64.851 E1.58858
G1 X83.690 Y65.558 E1.66386
G1 X84.660 Y66.312 E1.73362
G1 X85.622 Y67.223 E1.80889
G1 X86.427 Y68.152 E1.87866
G1 X87.190 Y69.231 E1.95373
G1 X87.577 Y69.875 E1.99637
G1 X87.230 Y70.608 E2.04243
G1 X83.811 Y71.959 E2.25118
G1 X83.302 Y71.175 E2.30425
G1 X82.886 Y70.633 E2.34304
G1 X82.428 Y70.126 E2.38183
G1 X81.933 Y69.656 E2.42062
G1 X81.401 Y69.226 E2.45941
G1 X80.838 Y68.840 E2.49820
G1 X80.246 Y68.499 E2.53699
G1 X79.630 Y68.205 E2.57578
G1 X78.992 Y67.960 E2.61457
G1 X78.337 Y67.767 E2.65336
G1 X77.669 Y67.625 E2.69215
G1 X76.801 Y67.511 E2.74183
G1 X76.342 Y67.505 F4800.000
G1 F1800.000 E1.74183
G92 E0
G1 X76.033 Y73.233 F4800.000
G1 E1.00000 F1800.000
G1 X75.871 Y70.783 E1.13947 F900.000
G1 X77.206 Y69.962 E1.22848
G1 X78.213 Y70.259 E1.28809
G1 X78.673 Y70.436 E1.31606
G1 X79.117 Y70.647 E1.34402
G1 X79.544 Y70.893 E1.37199
G1 X79.950 Y71.172 E1.39996
G1 X80.333 Y71.482 E1.42792
G1 X80.690 Y71.821 E1.45589
G1 X81.393 Y72.600 E1.51549
G1 X81.229 Y74.159 E1.60450
G1 X78.948 Y75.071 E1.74398
G1 X78.970 Y75.124 E1.74725
G1 X81.250 Y74.213 E1.88672
G1 X82.444 Y75.229 E1.97573
G1 X82.472 Y76.279 E2.03534
G1 X82.446 Y76.770 E2.06330
G1 X82.382 Y77.259 E2.09127
G1 X82.280 Y77.741 E2.11923
G1 X82.141 Y78.213 E2.14720
G1 X81.964 Y78.673 E2.17517
G1 X81.753 Y79.117 E2.20314
G1 X81.228 Y80.027 E2.26273
G1 X79.695 Y80.353 E2.35175
G1 X78.123 Y78.465 E2.49123
G1 X78.079 Y78.502 E2.49449
G1 X79.651 Y80.389 E2.63396
G1 X79.053 Y81.838 E2.72297
G1 X78.063 Y82.189 E2.78258
G1 X77.588 Y82.317 E2.81055
G1 X77.103 Y82.407 E2.83851
G1 X76.614 Y82.459 E2.86648
G1 X76.121 Y82.472 E2.89445
G1 X75.630 Y82.446 E2.92241
G1 X75.141 Y82.382 E2.95038
G1 X74.114 Y82.165 E3.00998
G1 X73.331 Y80.807 E3.09900
G1 X74.640 Y78.729 E3.23847
G1 X74.592 Y78.698 E3.24174
G1 X73.282 Y80.776 E3.38121
G1 X71.719 Y80.655 E3.47022
G1 X71.080 Y79.823 E3.52983
G1 X70.811 Y79.410 E3.55779
G1 X70.576 Y78.977 E3.58576
G1 X70.376 Y78.528 E3.61372
G1 X70.211 Y78.063 E3.64169
G1 X70.083 Y77.588 E3.66966
G1 X69.993 Y77.104 E3.69762
G1 X69.883 Y76.060 E3.75723
G1 X70.932 Y74.895 E3.84624
G1 X73.313 Y75.498 E3.98572
G1 X73.327 Y75.442 E3.98898
G1 X70.946 Y74.839 E4.12845
G1 X70.578 Y73.315 E4.21746
G1 X71.172 Y72.450 E4.27707
G1 X71.482 Y72.067 E4.30504
G1 X71.821 Y71.710 E4.33300
G1 X72.187 Y71.380 E4.36097
G1 X72.577 Y71.080 E4.38894
G1 X72.990 Y70.811 E4.41690
G1 X73.423 Y70.576 E4.44487
G1 X74.381 Y70.149 E4.50447
G1 X75.813 Y70.786 E4.59349
G1 X75.975 Y73.235 E4.73282
G1 X75.220 Y73.971 F4800.000
G1 X75.661 Y73.824 E4.75922 F900.000
G1 X76.039 Y73.769 E4.78092
G1 X76.422 Y73.774 E4.80263
G1 X76.878 Y73.862 E4.82903
G1 X76.596 Y73.634 E4.84962
G1 X76.426 Y71.070 E4.99554
G1 X77.283 Y70.543 E5.05264
G1 X78.041 Y70.767 E5.09750
G1 X78.461 Y70.928 E5.12308
G1 X78.868 Y71.122 E5.14866
G1 X79.258 Y71.347 E5.17423
G1 X79.630 Y71.602 E5.19981
G1 X79.980 Y71.885 E5.22539
G1 X80.307 Y72.195 E5.25096
G1 X80.836 Y72.782 E5.29582
G1 X80.730 Y73.782 E5.35292
G1 X78.344 Y74.735 E5.49884
G1 X78.017 Y74.579 E5.51944
G1 X78.293 Y74.953 E5.54583
G1 X78.462 Y75.296 E5.56754
G1 X78.576 Y75.661 E5.58925
G1 X78.633 Y76.122 E5.61564
G1 X78.763 Y75.784 E5.63624
G1 X81.149 Y74.830 E5.78216
G1 X81.915 Y75.482 E5.83926
G1 X81.936 Y76.272 E5.88412
G1 X81.912 Y76.722 E5.90970
G1 X81.854 Y77.168 E5.93527
G1 X81.761 Y77.609 E5.96085
G1 X81.633 Y78.041 E5.98643
G1 X81.472 Y78.461 E6.01200
G1 X81.278 Y78.868 E6.03758
G1 X80.883 Y79.552 E6.08243
G1 X79.900 Y79.761 E6.13954
G1 X78.255 Y77.787 E6.28546
G1 X78.303 Y77.427 E6.30606
G1 X78.033 Y77.805 E6.33245
G1 X77.759 Y78.072 E6.35416
G1 X77.447 Y78.293 E6.37587
G1 X77.026 Y78.490 E6.40226
G1 X77.388 Y78.509 E6.42285
G1 X79.032 Y80.484 E6.56877
G1 X78.649 Y81.413 E6.62587
G1 X77.904 Y81.677 E6.67073
G1 X77.469 Y81.794 E6.69631
G1 X77.026 Y81.876 E6.72189
G1 X76.578 Y81.924 E6.74746
G1 X76.128 Y81.936 E6.77304
G1 X75.678 Y81.912 E6.79862
G1 X75.232 Y81.854 E6.82419
G1 X74.459 Y81.690 E6.86905
G1 X73.956 Y80.819 E6.92615
G1 X75.326 Y78.645 E7.07207
G1 X75.683 Y78.579 E7.09267
G1 X75.240 Y78.439 E7.11906
G1 X74.901 Y78.261 E7.14077
G1 X74.595 Y78.033 E7.16248
G1 X74.277 Y77.693 E7.18887
G1 X74.371 Y78.043 E7.20947
G1 X73.001 Y80.217 E7.35539
G1 X71.999 Y80.140 E7.41249
G1 X71.517 Y79.513 E7.45735
G1 X71.272 Y79.136 E7.48293
G1 X71.057 Y78.740 E7.50850
G1 X70.873 Y78.329 E7.53408
G1 X70.723 Y77.904 E7.55966
G1 X70.606 Y77.469 E7.58523
G1 X70.524 Y77.026 E7.61081
G1 X70.441 Y76.241 E7.65566
G1 X71.114 Y75.493 E7.71277
G1 X73.605 Y76.125 E7.85869
G1 X73.778 Y76.443 E7.87929
G1 X73.774 Y75.978 E7.90568
G1 X73.838 Y75.602 E7.92739
G1 X73.961 Y75.240 E7.94910
G1 X74.186 Y74.833 E7.97549
G1 X73.882 Y75.030 E7.99609
G1 X71.391 Y74.399 E8.14200
G1 X71.155 Y73.422 E8.19911
G1 X71.602 Y72.770 E8.24397
G1 X71.885 Y72.420 E8.26954
G1 X72.195 Y72.093 E8.29512
G1 X72.530 Y71.792 E8.32069
G1 X72.887 Y71.517 E8.34627
G1 X73.264 Y71.272 E8.37185
G1 X73.660 Y71.057 E8.39742
G1 X74.381 Y70.735 E8.44228
G1 X75.300 Y71.144 E8.49939
G1 X75.470 Y73.708 E8.64530
G1 X75.261 Y73.928 E8.66249
G1 F1800.000 E7.66249
G92 E0
G1 X81.048 Y75.447 F4800.000
G1 E1.00000 F1800.000
G1 X81.386 Y75.735 E1.02520 F810.000
G1 X81.400 Y76.265 E1.05531
G1 X81.379 Y76.673 E1.07849
G1 X81.326 Y77.078 E1.10168
G1 X81.241 Y77.477 E1.12487
G1 X81.125 Y77.869 E1.14805
G1 X80.979 Y78.250 E1.17124
G1 X80.803 Y78.619 E1.19443
G1 X80.539 Y79.078 E1.22453
G1 X80.105 Y79.170 E1.24973
G1 X78.817 Y77.624 E1.36400
G1 X78.848 Y77.387 E1.37755
G1 X79.011 Y76.912 E1.40607
G1 X79.094 Y76.417 E1.43459
G1 X79.179 Y76.194 E1.44814
G1 X80.992 Y75.470 E1.55900
G1 X81.119 Y75.841 F4800.000
G1 F1800.000 E0.55900
G92 E0
G1 X80.231 Y73.404 F4800.000
G1 E1.00000 F1800.000
G1 X78.363 Y74.151 E1.11426 F810.000
G1 X78.147 Y74.049 E1.12781
G1 X77.746 Y73.747 E1.15634
G1 X77.300 Y73.515 E1.18486
G1 X77.115 Y73.365 E1.19841
G1 X76.982 Y71.357 E1.31267
G1 X77.360 Y71.124 E1.33787
G1 X77.869 Y71.275 E1.36798
G1 X78.250 Y71.421 E1.39116
G1 X78.619 Y71.597 E1.41435
G1 X78.972 Y71.800 E1.43754
G1 X79.309 Y72.032 E1.46072
G1 X79.627 Y72.288 E1.48391
G1 X79.923 Y72.569 E1.50709
G1 X80.278 Y72.963 E1.53720
G1 X80.238 Y73.345 E1.55900
G1 X79.850 Y73.284 F4800.000
G1 F1800.000 E0.55900
G92 E0
G1 X74.787 Y71.502 F4800.000
G1 E1.00000 F1800.000
G1 X74.920 Y73.510 E1.11426 F810.000
G1 X74.756 Y73.683 E1.12781
G1 X74.345 Y73.972 E1.15633
G1 X73.986 Y74.324 E1.18486
G1 X73.786 Y74.454 E1.19841
G1 X71.836 Y73.959 E1.31267
G1 X71.731 Y73.528 E1.33787
G1 X72.032 Y73.091 E1.36798
G1 X72.288 Y72.773 E1.39116
G1 X72.569 Y72.477 E1.41435
G1 X72.873 Y72.204 E1.43754
G1 X73.196 Y71.955 E1.46072
G1 X73.539 Y71.732 E1.48391
G1 X73.897 Y71.537 E1.50709
G1 X74.382 Y71.321 E1.53720
G1 X74.732 Y71.478 E1.55900
G1 X74.555 Y71.828 F4800.000
G1 F1800.000 E0.55900
G92 E0
G1 X75.495 Y74.435 F4800.000
G1 E1.00000 F1800.000
G1 X75.926 Y74.320 E1.02537 F810.000
G1 X76.373 Y74.308 E1.05073
G1 X76.667 Y74.358 E1.06766 F810.000
G1 X77.084 Y74.518 E1.09303
G1 X77.336 Y74.677 E1.10996
G1 X77.660 Y74.984 E1.13533
G1 X77.904 Y75.359 E1.16069
G1 X78.014 Y75.635 E1.17762
G1 X78.080 Y75.926 E1.19456
G1 X78.100 Y76.224 E1.21149
G1 X78.042 Y76.667 E1.23685
G1 X77.946 Y76.949 E1.25378
G1 X77.808 Y77.213 E1.27072
G1 X77.629 Y77.452 E1.28765
G1 X77.416 Y77.660 E1.30458
G1 X77.172 Y77.833 E1.32151
G1 X76.764 Y78.014 E1.34688
G1 X76.474 Y78.080 E1.36381
G1 X76.176 Y78.100 E1.38074
G1 X75.879 Y78.073 E1.39768
G1 X75.451 Y77.946 E1.42304
G1 X75.187 Y77.808 E1.43997
G1 X74.948 Y77.629 E1.45691
G1 X74.740 Y77.416 E1.47384
G1 X74.567 Y77.172 E1.49077
G1 X74.386 Y76.765 E1.51613
G1 X74.320 Y76.474 E1.53307
G1 X74.308 Y76.027 E1.55843
G1 X74.358 Y75.733 E1.57536
G1 X74.454 Y75.451 E1.59230
