; generated by Slic3r 1.2.0 on 2014-10-05 at 15:45:18

; external perimeters extrusion width = 0.40mm
; perimeters extrusion width = 0.67mm
; infill extrusion width = 0.67mm
; solid infill extrusion width = 0.67mm
; top infill extrusion width = 0.67mm

G21 ; set units to millimeters
M107
M104 S195 ; set temperature
G28 X0 Y0  
G29
M109 S195 ; wait for temperature to be reached
G90 ; use absolute coordinates
G92 E0
M82 ; use absolute distances for extrusion
G1 F1800.000 E-1.00000
G92 E0
G1 Z0.300 F4800.000
G1 X35.143 Y34.101 F4800.000
G1 E1.00000 F1800.000
G1 X36.927 Y32.408 E1.14783 F720.000
G1 X39.157 Y31.373 E1.29566
G1 X41.202 Y31.093 E1.41977
G1 X111.198 Y31.093 E5.62822
G1 X113.624 Y31.491 E5.77606
G1 X115.797 Y32.641 E5.92389 F720.000
G1 X117.489 Y34.425 E6.07172
G1 X118.524 Y36.655 E6.21955
G1 X118.804 Y38.700 E6.34366
G1 X118.804 Y113.700 E10.85302
G1 X118.407 Y116.126 E11.00086
G1 X117.257 Y118.299 E11.14869
G1 X115.473 Y119.992 E11.29652
G1 X113.243 Y121.027 E11.44435
G1 X111.198 Y121.307 E11.56846
G1 X41.202 Y121.307 E15.77691
G1 X38.776 Y120.909 E15.92474
G1 X36.603 Y119.759 E16.07258
G1 X34.911 Y117.975 E16.22041
G1 X33.876 Y115.745 E16.36824
G1 X33.596 Y113.700 E16.49235
G1 X33.596 Y38.700 E21.00171
G1 X33.993 Y36.274 E21.14954
G1 X35.115 Y34.154 E21.29377
G1 X35.602 Y34.423 F4800.000
G1 X35.675 Y34.289 E21.30291 F720.000
G1 X37.443 Y32.711 E21.44541
G1 X39.633 Y31.805 E21.58790
G1 X41.202 Y31.629 E21.68285
G1 X111.198 Y31.629 E25.89131
G1 X113.534 Y32.026 E26.03381
G1 X115.608 Y33.173 E26.17630 F720.000
G1 X117.187 Y34.941 E26.31880
G1 X118.093 Y37.131 E26.46130
G1 X118.269 Y38.700 E26.55624
G1 X118.269 Y113.700 E31.06561
G1 X117.872 Y116.037 E31.20811
G1 X116.725 Y118.111 E31.35060
G1 X114.957 Y119.689 E31.49310
G1 X112.767 Y120.595 E31.63560
G1 X111.198 Y120.771 E31.73054
G1 X41.202 Y120.771 E35.93900
G1 X38.866 Y120.374 E36.08150
G1 X36.792 Y119.227 E36.22399
G1 X35.213 Y117.459 E36.36649
G1 X34.307 Y115.269 E36.50899
G1 X34.131 Y113.700 E36.60393
G1 X34.131 Y38.700 E41.11330
G1 X34.528 Y36.363 E41.25580
G1 X35.573 Y34.475 E41.38554
G1 X36.052 Y34.753 F4800.000
G1 X36.206 Y34.487 E41.40406 F720.000
G1 X37.956 Y33.028 E41.54101
G1 X41.202 Y32.164 E41.74300
G1 X111.198 Y32.164 E45.95146
G1 X113.441 Y32.561 E46.08841
G1 X115.411 Y33.704 E46.22537 F720.000
G1 X116.870 Y35.453 E46.36232
G1 X117.733 Y38.700 E46.56431
G1 X117.733 Y113.700 E51.07367
G1 X117.336 Y115.943 E51.21063
G1 X116.194 Y117.913 E51.34758
G1 X114.444 Y119.372 E51.48453
G1 X111.198 Y120.236 E51.68652
G1 X41.202 Y120.236 E55.89498
G1 X38.959 Y119.839 E56.03193
G1 X36.989 Y118.696 E56.16889
G1 X35.530 Y116.947 E56.30584
G1 X34.667 Y113.700 E56.50783
G1 X34.667 Y38.700 E61.01719
G1 X35.064 Y36.457 E61.15415
G1 X36.022 Y34.805 E61.26898
G1 F1800.000 E60.26898
G92 E0
G1 X42.574 Y40.071 F4800.000
G1 E1.00000 F1800.000
G1 X109.826 Y40.071 E5.04357 F900.000
G1 X109.826 Y112.329 E9.38804
G1 X42.574 Y112.329 E13.43161
G1 X42.574 Y79.571 E15.40115
G1 X86.868 Y79.571 E18.06437
G1 X87.168 Y80.074 E18.09955
G1 X87.547 Y80.573 E18.13721
G1 X87.982 Y81.015 E18.17454
G1 X88.475 Y81.390 E18.21177
G1 X88.742 Y81.548 E18.23043
G1 X89.022 Y81.683 E18.24910
G1 X89.462 Y81.841 E18.27721
G1 X89.766 Y81.913 E18.29600
G1 X90.076 Y81.957 E18.31484
G1 X90.546 Y81.968 E18.34311
G1 X90.858 Y81.939 E18.36196
G1 X91.317 Y81.841 E18.39016
G1 X91.757 Y81.683 E18.41826
G1 X92.172 Y81.472 E18.44625
G1 X92.557 Y81.212 E18.47420
G1 X92.911 Y80.910 E18.50213
G1 X93.233 Y80.573 E18.53017
G1 X93.522 Y80.203 E18.55840
G1 X93.780 Y79.807 E18.58683
G1 X94.006 Y79.384 E18.61564
G1 X94.200 Y78.942 E18.64466
G1 X94.410 Y78.328 E18.68370
G1 X94.530 Y77.850 E18.71331
G1 X94.620 Y77.361 E18.74322
G1 X94.679 Y76.852 E18.77401
G1 X94.706 Y76.200 E18.81326
G1 X94.679 Y75.548 E18.85251
G1 X94.620 Y75.039 E18.88330
G1 X94.530 Y74.550 E18.91321
G1 X94.410 Y74.072 E18.94283
G1 X94.200 Y73.458 E18.98186
G1 X94.006 Y73.016 E19.01089
G1 X93.780 Y72.593 E19.03970
G1 X93.522 Y72.197 E19.06813
G1 X93.233 Y71.827 E19.09636
G1 X92.911 Y71.490 E19.12439
G1 X92.557 Y71.188 E19.15233
G1 X92.172 Y70.928 E19.18028
G1 X91.757 Y70.717 E19.20827
G1 X91.317 Y70.559 E19.23636
G1 X90.858 Y70.461 E19.26457
G1 X90.546 Y70.432 E19.28341
G1 X90.076 Y70.443 E19.31168
G1 X89.766 Y70.487 E19.33052
G1 X89.462 Y70.559 E19.34932
G1 X89.022 Y70.717 E19.37742
G1 X88.743 Y70.852 E19.39609
G1 X88.475 Y71.010 E19.41476
G1 X87.982 Y71.385 E19.45198
G1 X87.547 Y71.827 E19.48932
G1 X87.168 Y72.326 E19.52697
G1 X86.868 Y72.829 E19.56216
G1 X42.574 Y72.829 E22.22538
G1 X42.574 Y40.131 E24.19131
G1 X42.038 Y39.536 F4800.000
G1 X110.362 Y39.536 E28.29929 F900.000
G1 X110.362 Y112.864 E32.70817
G1 X42.038 Y112.864 E36.81614
G1 X42.038 Y79.036 E38.85009
G1 X87.201 Y79.036 E41.56551
G1 X87.535 Y79.657 E41.60792
G1 X87.863 Y80.116 E41.64183
G1 X88.237 Y80.522 E41.67501
G1 X88.655 Y80.865 E41.70755
G1 X89.115 Y81.137 E41.73964
G1 X89.609 Y81.326 E41.77145
G1 X90.126 Y81.423 E41.80313
G1 X90.521 Y81.433 E41.82688
G1 X90.784 Y81.408 E41.84272
G1 X91.170 Y81.326 E41.86650
G1 X91.544 Y81.192 E41.89035
G1 X91.899 Y81.010 E41.91433
G1 X92.233 Y80.785 E41.93853
G1 X92.542 Y80.522 E41.96299
G1 X92.827 Y80.223 E41.98780
G1 X93.086 Y79.892 E42.01304
G1 X93.318 Y79.534 E42.03870
G1 X93.524 Y79.151 E42.06487
G1 X93.754 Y78.608 E42.10032
G1 X93.895 Y78.179 E42.12745
G1 X94.007 Y77.737 E42.15489
G1 X94.090 Y77.282 E42.18267
G1 X94.144 Y76.813 E42.21110
G1 X94.170 Y76.200 E42.24797
G1 X94.144 Y75.587 E42.28483
G1 X94.090 Y75.118 E42.31327
G1 X94.007 Y74.663 E42.34104
G1 X93.895 Y74.221 E42.36848
G1 X93.754 Y73.792 E42.39562
G1 X93.524 Y73.249 E42.43106
G1 X93.318 Y72.866 E42.45724
G1 X93.086 Y72.508 E42.48290
G1 X92.827 Y72.177 E42.50813
G1 X92.542 Y71.878 E42.53295
G1 X92.233 Y71.615 E42.55741
G1 X91.899 Y71.390 E42.58160
G1 X91.544 Y71.208 E42.60558
G1 X91.170 Y71.074 E42.62943
G1 X90.784 Y70.992 E42.65322
G1 X90.521 Y70.967 E42.66906
G1 X90.126 Y70.976 E42.69280
G1 X89.609 Y71.074 E42.72448
G1 X89.115 Y71.263 E42.75630
G1 X88.655 Y71.535 E42.78838
G1 X88.237 Y71.878 E42.82093
G1 X87.863 Y72.284 E42.85410
G1 X87.535 Y72.743 E42.88801
G1 X87.201 Y73.364 E42.93042
G1 X42.038 Y73.364 E45.64584
G1 X42.038 Y39.596 E47.67618
G1 X41.502 Y39.000 F4800.000
G1 X110.898 Y39.000 E51.84857 F810.000
G1 X110.898 Y113.400 E56.32186
G1 X41.502 Y113.400 E60.49424
G1 X41.502 Y78.500 E62.59260
G1 X87.557 Y78.500 E65.36161
G1 X87.796 Y79.035 E65.39685
G1 X88.058 Y79.478 E65.42780
G1 X88.438 Y79.963 E65.46483
G1 X88.780 Y80.288 E65.49320
G1 X89.057 Y80.490 E65.51382
G1 X89.250 Y80.604 E65.52729
G1 X89.652 Y80.779 E65.55365
G1 X90.070 Y80.878 E65.57949
G1 X90.496 Y80.898 E65.60512
G1 X90.814 Y80.860 E65.62437
G1 X91.127 Y80.779 E65.64380
G1 X91.430 Y80.655 E65.66351
G1 X91.722 Y80.490 E65.68364
G1 X91.999 Y80.288 E65.70425
G1 X92.258 Y80.050 E65.72544
G1 X92.500 Y79.779 E65.74724
G1 X92.721 Y79.478 E65.76970
G1 X92.921 Y79.150 E65.79279
G1 X93.098 Y78.797 E65.81655
G1 X93.252 Y78.423 E65.84084
G1 X93.380 Y78.031 E65.86568
G1 X93.483 Y77.623 E65.89095
G1 X93.560 Y77.204 E65.91658
G1 X93.610 Y76.773 E65.94267
G1 X93.634 Y76.200 E65.97714
G1 X93.610 Y75.627 E66.01162
G1 X93.560 Y75.196 E66.03770
G1 X93.483 Y74.777 E66.06334
G1 X93.380 Y74.369 E66.08861
G1 X93.252 Y73.977 E66.11345
G1 X93.098 Y73.603 E66.13774
G1 X92.921 Y73.250 E66.16149
G1 X92.721 Y72.922 E66.18459
G1 X92.500 Y72.621 E66.20705
G1 X92.258 Y72.350 E66.22885
G1 X91.999 Y72.112 E66.25004
G1 X91.722 Y71.910 E66.27065
G1 X91.430 Y71.745 E66.29077
G1 X91.127 Y71.621 E66.31049
G1 X90.814 Y71.540 E66.32992
G1 X90.496 Y71.502 E66.34917
G1 X90.070 Y71.522 E66.37480
G1 X89.652 Y71.621 E66.40064
G1 X89.250 Y71.796 E66.42700
G1 X89.057 Y71.910 E66.44047
G1 X88.780 Y72.112 E66.46109
G1 X88.438 Y72.437 E66.48946
G1 X88.058 Y72.922 E66.52649
G1 X87.796 Y73.365 E66.55744
G1 X87.557 Y73.900 E66.59268
G1 X41.502 Y73.900 E69.36169
G1 X41.502 Y39.060 E71.45644
G1 X41.849 Y39.200 F4800.000
G1 F1800.000 E70.45644
G92 E0
G1 X61.664 Y40.440 F4800.000
G1 E1.00000 F1800.000
G1 X91.433 Y70.209 E3.53130 F1080.000
G1 X90.530 Y70.064 E3.58630
G1 X60.906 Y40.440 E6.10526
G1 X60.148 Y40.440 E6.15083
G1 X89.816 Y70.108 E8.67351
G1 X89.209 Y70.258 E8.71114
G1 X59.390 Y40.440 E11.24662
G1 X58.632 Y40.440 E11.29219
G1 X88.670 Y70.478 E13.84634
G1 X88.195 Y70.761 E13.87959
G1 X57.874 Y40.440 E16.45778
G1 X57.116 Y40.440 E16.50336
G1 X87.764 Y71.088 E19.10939
G1 X87.385 Y71.467 E19.14162
G1 X56.358 Y40.440 E21.77983
G1 X55.600 Y40.440 E21.82541
G1 X87.042 Y71.882 E24.49895
G1 X86.735 Y72.333 E24.53175
G1 X54.842 Y40.440 E27.24362
G1 X54.084 Y40.440 E27.28919
G1 X86.105 Y72.460 E30.01191
G1 X85.347 Y72.460 E30.05749
G1 X53.326 Y40.440 E32.78021
G1 X52.568 Y40.440 E32.82578
G1 X84.589 Y72.460 E35.54850
G1 X83.831 Y72.460 E35.59407
G1 X51.810 Y40.440 E38.31679
G1 X51.052 Y40.440 E38.36237
G1 X83.073 Y72.460 E41.08509
G1 X82.315 Y72.460 E41.13066
G1 X50.294 Y40.440 E43.85338
G1 X49.536 Y40.440 E43.89896
G1 X81.557 Y72.460 E46.62168
G1 X80.799 Y72.460 E46.66725
G1 X48.778 Y40.440 E49.38997
G1 X48.020 Y40.440 E49.43555
G1 X80.041 Y72.460 E52.15827
G1 X79.283 Y72.460 E52.20384
G1 X47.262 Y40.440 E54.92656
G1 X46.504 Y40.440 E54.97214
G1 X78.525 Y72.460 E57.69485
G1 X77.766 Y72.460 E57.74043
G1 X45.746 Y40.440 E60.46315
G1 X44.988 Y40.440 E60.50872
G1 X77.008 Y72.460 E63.23144
G1 X76.250 Y72.460 E63.27702
G1 X44.230 Y40.440 E65.99974
G1 X43.472 Y40.440 E66.04531
G1 X75.492 Y72.460 E68.76803
G1 X74.734 Y72.460 E68.81361
G1 X42.942 Y40.668 E71.51691
G1 X42.942 Y41.426 E71.56249
G1 X73.976 Y72.460 E74.20134
G1 X73.218 Y72.460 E74.24691
G1 X42.942 Y42.184 E76.82131
G1 X42.942 Y42.942 E76.86688
G1 X72.460 Y72.460 E79.37683
G1 X71.702 Y72.460 E79.42240
G1 X42.942 Y43.700 E81.86790
G1 X42.942 Y44.458 E81.91347
G1 X70.944 Y72.460 E84.29451
G1 X70.186 Y72.460 E84.34009
G1 X42.942 Y45.216 E86.65667
G1 X42.942 Y45.974 E86.70225
G1 X69.428 Y72.460 E88.95438
G1 X68.670 Y72.460 E88.99996
G1 X42.942 Y46.732 E91.18764
G1 X42.942 Y47.490 E91.23321
G1 X67.912 Y72.460 E93.35644
G1 X67.154 Y72.460 E93.40202
G1 X42.942 Y48.248 E95.46079
G1 X42.942 Y49.006 E95.50637
G1 X66.396 Y72.460 E97.50069
G1 X65.638 Y72.460 E97.54626
G1 X42.942 Y49.764 E99.47613
G1 X42.942 Y50.522 E99.52171
G1 X64.880 Y72.460 E101.38713
G1 X64.122 Y72.460 E101.43270
G1 X42.942 Y51.280 E103.23367
G1 X42.942 Y52.038 E103.27924
G1 X63.364 Y72.460 E105.01575
G1 X62.606 Y72.460 E105.06133
G1 X42.942 Y52.796 E106.73339
G1 X42.942 Y53.554 E106.77896
G1 X61.848 Y72.460 E108.38657
G1 X61.090 Y72.460 E108.43214
G1 X42.942 Y54.312 E109.97529
G1 X42.942 Y55.070 E110.02087
G1 X60.332 Y72.460 E111.49957
G1 X59.574 Y72.460 E111.54515
G1 X42.942 Y55.828 E112.95939
G1 X42.942 Y56.586 E113.00497
G1 X58.816 Y72.460 E114.35476
G1 X58.058 Y72.460 E114.40034
G1 X42.942 Y57.344 E115.68568
G1 X42.942 Y58.102 E115.73125
G1 X57.300 Y72.460 E116.95214
G1 X56.542 Y72.460 E116.99772
G1 X42.942 Y58.860 E118.15415
G1 X42.942 Y59.618 E118.19973
G1 X55.784 Y72.460 E119.29171
G1 X55.026 Y72.460 E119.33729
G1 X42.942 Y60.376 E120.36482
G1 X42.942 Y61.134 E120.41039
G1 X54.268 Y72.460 E121.37347
G1 X53.510 Y72.460 E121.41905
G1 X42.942 Y61.892 E122.31767
G1 X42.942 Y62.650 E122.36325
G1 X52.752 Y72.460 E123.19742
G1 X51.994 Y72.460 E123.24299
G1 X42.942 Y63.408 E124.01271
G1 X42.942 Y64.166 E124.05829
G1 X51.236 Y72.460 E124.76355
G1 X50.478 Y72.460 E124.80913
G1 X42.942 Y64.924 E125.44994
G1 X42.942 Y65.682 E125.49552
G1 X49.720 Y72.460 E126.07188
G1 X48.962 Y72.460 E126.11745
G1 X42.942 Y66.440 E126.62936
G1 X42.942 Y67.198 E126.67494
G1 X48.204 Y72.460 E127.12239
G1 X47.446 Y72.460 E127.16797
G1 X42.942 Y67.956 E127.55097
G1 X42.942 Y68.714 E127.59654
G1 X46.688 Y72.460 E127.91509
G1 X45.930 Y72.460 E127.96067
G1 X42.942 Y69.472 E128.21477
G1 X42.942 Y70.230 E128.26034
G1 X45.172 Y72.460 E128.44999
G1 X44.414 Y72.460 E128.49556
G1 X42.942 Y70.988 E128.62075
G1 X42.942 Y71.746 E128.66633
G1 X43.656 Y72.460 E128.72706
G1 F1800.000 E127.72706
G92 E0
G1 X42.982 Y111.960 F4800.000
G1 E1.00000 F1800.000
G1 X42.942 Y111.920 E1.00340 F1080.000
G1 X42.942 Y111.162 E1.04898
G1 X43.740 Y111.960 E1.11683
G1 X44.498 Y111.960 E1.16241
G1 X42.942 Y110.404 E1.29471
G1 X42.942 Y109.646 E1.34029
G1 X45.256 Y111.960 E1.53705
G1 X46.014 Y111.960 E1.58262
G1 X42.942 Y108.888 E1.84383
G1 X42.942 Y108.130 E1.88941
G1 X46.772 Y111.960 E2.21507
G1 X47.530 Y111.960 E2.26065
G1 X42.942 Y107.372 E2.65077
G1 X42.942 Y106.614 E2.69634
G1 X48.288 Y111.960 E3.15091
G1 X49.046 Y111.960 E3.19649
G1 X42.942 Y105.856 E3.71551
G1 X42.942 Y105.098 E3.76109
G1 X49.804 Y111.960 E4.34456
G1 X50.562 Y111.960 E4.39014
G1 X42.942 Y104.340 E5.03807
G1 X42.942 Y103.582 E5.08364
G1 X51.320 Y111.960 E5.79602
G1 X52.078 Y111.960 E5.84160
G1 X42.942 Y102.824 E6.61843
G1 X42.942 Y102.066 E6.66401
G1 X52.836 Y111.960 E7.50530
G1 X53.594 Y111.960 E7.55087
G1 X42.942 Y101.308 E8.45661
G1 X42.942 Y100.550 E8.50219
G1 X54.352 Y111.960 E9.47238
G1 X55.110 Y111.960 E9.51796
G1 X42.942 Y99.792 E10.55260
G1 X42.942 Y99.034 E10.59818
G1 X55.868 Y111.960 E11.69728
G1 X56.626 Y111.960 E11.74285
G1 X42.942 Y98.276 E12.90640
G1 X42.942 Y97.518 E12.95198
G1 X57.384 Y111.960 E14.17998
G1 X58.142 Y111.960 E14.22556
G1 X42.942 Y96.760 E15.51801
G1 X42.942 Y96.002 E15.56359
G1 X58.900 Y111.960 E16.92050
G1 X59.658 Y111.960 E16.96607
G1 X42.942 Y95.244 E18.38744
G1 X42.942 Y94.486 E18.43301
G1 X60.416 Y111.960 E19.91883
G1 X61.174 Y111.960 E19.96440
G1 X42.942 Y93.728 E21.51467
G1 X42.942 Y92.970 E21.56025
G1 X61.932 Y111.960 E23.17497
G1 X62.690 Y111.960 E23.22054
G1 X42.942 Y92.212 E24.89972
G1 X42.942 Y91.454 E24.94529
G1 X63.448 Y111.960 E26.68892
G1 X64.206 Y111.960 E26.73449
G1 X42.942 Y90.696 E28.54257
G1 X42.942 Y89.938 E28.58815
G1 X64.964 Y111.960 E30.46068
G1 X65.722 Y111.960 E30.50626
G1 X42.942 Y89.180 E32.44324
G1 X42.942 Y88.422 E32.48882
G1 X66.480 Y111.960 E34.49026
G1 X67.238 Y111.960 E34.53583
G1 X42.942 Y87.664 E36.60172
G1 X42.942 Y86.906 E36.64730
G1 X67.996 Y111.960 E38.77764
G1 X68.754 Y111.960 E38.82322
G1 X42.942 Y86.148 E41.01801
G1 X42.942 Y85.390 E41.06359
G1 X69.512 Y111.960 E43.32284
G1 X70.270 Y111.960 E43.36841
G1 X42.942 Y84.632 E45.69211
G1 X42.942 Y83.874 E45.73769
G1 X71.028 Y111.960 E48.12584
G1 X71.786 Y111.960 E48.17142
G1 X42.942 Y83.116 E50.62403
G1 X42.942 Y82.358 E50.66960
G1 X72.544 Y111.960 E53.18666
G1 X73.302 Y111.960 E53.23224
G1 X42.942 Y81.600 E55.81375
G1 X42.942 Y80.842 E55.85933
G1 X74.060 Y111.960 E58.50529
G1 X74.818 Y111.960 E58.55087
G1 X42.942 Y80.084 E61.26129
G1 X43.555 Y79.940 E61.29918
G1 X75.576 Y111.960 E64.02189
G1 X76.334 Y111.960 E64.06747
G1 X44.313 Y79.940 E66.79019
G1 X45.071 Y79.940 E66.83576
G1 X77.092 Y111.960 E69.55848
G1 X77.850 Y111.960 E69.60406
G1 X45.829 Y79.940 E72.32678
G1 X46.587 Y79.940 E72.37235
G1 X78.608 Y111.960 E75.09507
G1 X79.366 Y111.960 E75.14065
G1 X47.345 Y79.940 E77.86337
G1 X48.103 Y79.940 E77.90894
G1 X80.124 Y111.960 E80.63166
G1 X80.882 Y111.960 E80.67724
G1 X48.861 Y79.940 E83.39996
G1 X49.619 Y79.940 E83.44553
G1 X81.640 Y111.960 E86.16825
G1 X82.398 Y111.960 E86.21383
G1 X50.377 Y79.940 E88.93654
G1 X51.135 Y79.940 E88.98212
G1 X83.156 Y111.960 E91.70484
G1 X83.914 Y111.960 E91.75041
G1 X51.893 Y79.940 E94.47313
G1 X52.651 Y79.940 E94.51871
G1 X84.672 Y111.960 E97.24143
G1 X85.430 Y111.960 E97.28700
G1 X53.409 Y79.940 E100.00972
G1 X54.167 Y79.940 E100.05530
G1 X86.188 Y111.960 E102.77802
G1 X86.946 Y111.960 E102.82359
G1 X54.925 Y79.940 E105.54631
G1 X55.683 Y79.940 E105.59189
G1 X87.704 Y111.960 E108.31461
G1 X88.462 Y111.960 E108.36018
G1 X56.441 Y79.940 E111.08290
G1 X57.199 Y79.940 E111.12847
G1 X89.220 Y111.960 E113.85119
G1 X89.978 Y111.960 E113.89677
G1 X57.957 Y79.940 E116.61949
G1 X58.715 Y79.940 E116.66506
G1 X90.736 Y111.960 E119.38778
G1 X91.494 Y111.960 E119.43336
G1 X59.473 Y79.940 E122.15608
G1 X60.231 Y79.940 E122.20165
G1 X92.252 Y111.960 E124.92437
G1 X93.010 Y111.960 E124.96995
G1 X60.989 Y79.940 E127.69267
G1 X61.747 Y79.940 E127.73824
