; generated by Slic3r 1.2.0 on 2014-10-03 at 12:34:28

; external perimeters extrusion width = 0.40mm
; perimeters extrusion width = 0.67mm
; infill extrusion width = 0.67mm
; solid infill extrusion width = 0.67mm
; top infill extrusion width = 0.67mm

G21 ; set units to millimeters
M107
M104 S195 ; set temperature
G28 X0 Y0  
G29
M109 S195 ; wait for temperature to be reached
G90 ; use absolute coordinates
G92 E0
M82 ; use absolute distances for extrusion
G1 F1800.000 E-1.00000
G92 E0
G1 Z0.300 F4800.000
G1 X36.829 Y47.479 F4800.000
G1 E1.00000 F1800.000
G1 X37.459 Y47.009 E1.04723 F720.000
G1 X38.009 Y46.635 E1.08725
G1 X39.006 Y46.026 E1.15751
G1 X39.447 Y45.783 E1.18778
G1 X40.496 Y45.265 E1.25808
G1 X41.574 Y44.815 E1.32831
G1 X42.679 Y44.434 E1.39860
G1 X43.317 Y44.248 E1.43860
G1 X43.804 Y44.122 E1.46884
G1 X44.949 Y43.882 E1.53915
G1 X46.106 Y43.714 E1.60945
G1 X47.270 Y43.619 E1.67970
G1 X48.200 Y43.593 E1.73561
G1 X104.439 Y43.597 E5.11697
G1 X105.606 Y43.649 E5.18722 F720.000
G1 X106.769 Y43.773 E5.25752
G1 X107.921 Y43.971 E5.32782
G1 X109.058 Y44.241 E5.39806
G1 X110.176 Y44.581 E5.46835
G1 X111.270 Y44.991 E5.53858
G1 X112.337 Y45.469 E5.60888
G1 X113.371 Y46.013 E5.67914
G1 X114.370 Y46.621 E5.74942
G1 X115.328 Y47.290 E5.81970
G1 X116.242 Y48.018 E5.88997
G1 X117.109 Y48.802 E5.96024
G1 X117.925 Y49.639 E6.03051
G1 X118.686 Y50.526 E6.10078
G1 X119.391 Y51.459 E6.17105
G1 X119.765 Y52.009 E6.21105
G1 X120.035 Y52.434 E6.24134
G1 X120.617 Y53.447 E6.31160
G1 X121.135 Y54.496 E6.38191
G1 X121.585 Y55.574 E6.45214
G1 X121.966 Y56.679 E6.52242
G1 X122.278 Y57.804 E6.59266
G1 X122.518 Y58.949 E6.66297
G1 X122.686 Y60.106 E6.73326
G1 X122.781 Y61.270 E6.80352
G1 X122.803 Y62.439 E6.87378
G1 X122.751 Y63.606 E6.94404
G1 X122.627 Y64.769 E7.01433
G1 X122.429 Y65.921 E7.08463
G1 X122.159 Y67.058 E7.15488
G1 X121.819 Y68.176 E7.22515
G1 X121.409 Y69.270 E7.29539
G1 X120.919 Y70.360 E7.36725
G1 X120.387 Y71.371 E7.43594
G1 X119.779 Y72.370 E7.50623
G1 X119.110 Y73.328 E7.57651
G1 X118.382 Y74.242 E7.64678
G1 X117.598 Y75.109 E7.71705
G1 X88.761 Y103.924 E10.16813
G1 X87.874 Y104.686 E10.23841
G1 X86.920 Y105.405 E10.31024
G1 X85.966 Y106.035 E10.37896
G1 X84.953 Y106.617 E10.44922
G1 X83.904 Y107.135 E10.51953
G1 X82.826 Y107.585 E10.58976
G1 X81.721 Y107.966 E10.66004
G1 X80.596 Y108.278 E10.73028
G1 X79.426 Y108.522 E10.80214
G1 X78.294 Y108.686 E10.87088
G1 X77.130 Y108.781 E10.94114
G1 X75.961 Y108.803 E11.01140
G1 X74.794 Y108.751 E11.08165
G1 X73.631 Y108.627 E11.15195
G1 X72.454 Y108.423 E11.22381
G1 X71.342 Y108.159 E11.29249
G1 X70.224 Y107.819 E11.36276
G1 X69.106 Y107.399 E11.43457
G1 X68.063 Y106.931 E11.50329
G1 X67.029 Y106.387 E11.57355
G1 X66.009 Y105.765 E11.64541
G1 X65.072 Y105.110 E11.71411
G1 X64.158 Y104.382 E11.78439
G1 X63.291 Y103.598 E11.85467
G1 X35.291 Y75.598 E14.23549
G1 X34.476 Y74.761 E14.30575
G1 X33.714 Y73.874 E14.37603
G1 X33.010 Y72.942 E14.44628
G1 X32.365 Y71.966 E14.51658
G1 X31.771 Y70.930 E14.58840
G1 X31.266 Y69.904 E14.65713
G1 X30.816 Y68.827 E14.72737
G1 X30.426 Y67.697 E14.79922
G1 X30.122 Y66.596 E14.86790
G1 X29.882 Y65.451 E14.93821
G1 X29.711 Y64.268 E15.01006
G1 X29.619 Y63.130 E15.07875
G1 X29.597 Y61.961 E15.14902
G1 X29.649 Y60.794 E15.21927
G1 X29.711 Y60.131 E15.25927
G1 X29.773 Y59.631 E15.28957
G1 X29.971 Y58.479 E15.35988
G1 X30.241 Y57.342 E15.43012
G1 X30.426 Y56.703 E15.47013
G1 X30.581 Y56.224 E15.50041
G1 X30.991 Y55.130 E15.57065
G1 X31.469 Y54.063 E15.64095
G1 X32.013 Y53.029 E15.71121
G1 X32.352 Y52.456 E15.75121
G1 X32.621 Y52.030 E15.78150
G1 X33.290 Y51.072 E15.85177
G1 X34.018 Y50.158 E15.92204
G1 X34.458 Y49.659 E15.96204
G1 X34.802 Y49.291 E15.99232
G1 X35.639 Y48.475 E16.06259
G1 X36.139 Y48.035 E16.10259
G1 X36.781 Y47.516 E16.15230
G1 X37.110 Y47.939 F4800.000
G1 X37.760 Y47.452 E16.20112 F720.000
G1 X38.310 Y47.078 E16.24113
G1 X39.279 Y46.487 E16.30937
G1 X39.690 Y46.260 E16.33762
G1 X40.708 Y45.757 E16.40590
G1 X41.755 Y45.319 E16.47411
G1 X42.828 Y44.948 E16.54237
G1 X43.467 Y44.762 E16.58237
G1 X43.921 Y44.645 E16.61059
G1 X45.033 Y44.411 E16.67888
G1 X46.156 Y44.247 E16.74715
G1 X47.287 Y44.154 E16.81538
G1 X48.200 Y44.129 E16.87028
G1 X104.422 Y44.132 E20.25062
G1 X105.556 Y44.182 E20.31886 F720.000
G1 X106.685 Y44.303 E20.38713
G1 X107.804 Y44.494 E20.45541
G1 X108.908 Y44.755 E20.52363
G1 X109.995 Y45.085 E20.59189
G1 X111.057 Y45.483 E20.66010
G1 X112.094 Y45.946 E20.72838
G1 X113.099 Y46.474 E20.79662
G1 X114.069 Y47.064 E20.86487
G1 X115.000 Y47.713 E20.93312
G1 X115.888 Y48.420 E21.00137
G1 X116.730 Y49.181 E21.06962
G1 X117.523 Y49.994 E21.13787
G1 X118.263 Y50.854 E21.20612
G1 X118.948 Y51.760 E21.27437
G1 X119.322 Y52.310 E21.31437
G1 X119.574 Y52.706 E21.34263
G1 X120.140 Y53.690 E21.41087
G1 X120.643 Y54.708 E21.47915
G1 X121.081 Y55.755 E21.54736
G1 X121.452 Y56.828 E21.61562
G1 X121.755 Y57.921 E21.68384
G1 X121.989 Y59.033 E21.75212
G1 X122.153 Y60.156 E21.82039
G1 X122.246 Y61.287 E21.88863
G1 X122.268 Y62.422 E21.95687
G1 X122.218 Y63.556 E22.02510
G1 X122.097 Y64.685 E22.09337
G1 X121.906 Y65.804 E22.16165
G1 X121.645 Y66.908 E22.22987
G1 X121.315 Y67.994 E22.29812
G1 X120.917 Y69.057 E22.36634
G1 X120.442 Y70.117 E22.43618
G1 X119.926 Y71.099 E22.50284
G1 X119.336 Y72.069 E22.57112
G1 X118.687 Y73.000 E22.63937
G1 X117.980 Y73.888 E22.70762
G1 X117.219 Y74.730 E22.77586
G1 X88.406 Y103.523 E25.22492
G1 X87.546 Y104.263 E25.29318
G1 X86.619 Y104.962 E25.36299
G1 X85.694 Y105.574 E25.42968
G1 X84.710 Y106.140 E25.49792
G1 X83.692 Y106.643 E25.56620
G1 X82.645 Y107.081 E25.63441
G1 X81.572 Y107.452 E25.70267
G1 X80.479 Y107.755 E25.77089
G1 X79.342 Y107.993 E25.84073
G1 X78.244 Y108.153 E25.90744
G1 X77.113 Y108.246 E25.97568
G1 X75.978 Y108.268 E26.04392
G1 X74.844 Y108.218 E26.11215
G1 X73.715 Y108.097 E26.18042
G1 X72.570 Y107.900 E26.25026
G1 X71.492 Y107.645 E26.31692
G1 X70.406 Y107.315 E26.38517
G1 X69.319 Y106.907 E26.45495
G1 X68.306 Y106.454 E26.52165
G1 X67.302 Y105.926 E26.58988
G1 X66.310 Y105.322 E26.65972
G1 X65.400 Y104.687 E26.72640
G1 X64.512 Y103.980 E26.79466
G1 X63.670 Y103.219 E26.86291
G1 X35.670 Y75.219 E29.24373
G1 X34.877 Y74.406 E29.31197
G1 X34.137 Y73.546 E29.38023
G1 X33.438 Y72.619 E29.45004
G1 X32.826 Y71.694 E29.51673
G1 X32.260 Y70.710 E29.58497
G1 X31.757 Y69.692 E29.65324
G1 X31.311 Y68.620 E29.72302
G1 X30.948 Y67.572 E29.78971
G1 X30.645 Y66.479 E29.85794
G1 X30.411 Y65.367 E29.92623
G1 X30.247 Y64.244 E29.99449
G1 X30.154 Y63.113 E30.06273
G1 X30.132 Y61.978 E30.13097
G1 X30.182 Y60.844 E30.19920
G1 X30.303 Y59.715 E30.26747
G1 X30.494 Y58.596 E30.33575
G1 X30.755 Y57.492 E30.40397
G1 X31.085 Y56.405 E30.47223
G1 X31.483 Y55.343 E30.54045
G1 X31.747 Y54.732 E30.58045
G1 X31.946 Y54.306 E30.60873
G1 X32.474 Y53.301 E30.67697
G1 X33.064 Y52.331 E30.74523
G1 X33.438 Y51.781 E30.78522
G1 X33.713 Y51.400 E30.81348
G1 X34.420 Y50.512 E30.88173
G1 X35.181 Y49.670 E30.94998
G1 X35.994 Y48.877 E31.01823
G1 X36.493 Y48.437 E31.05823
G1 X37.062 Y47.976 E31.10231
G1 X37.391 Y48.399 F4800.000
G1 X38.061 Y47.895 E31.15271 F720.000
G1 X38.611 Y47.521 E31.19272
G1 X39.552 Y46.948 E31.25894
G1 X39.934 Y46.737 E31.28517
G1 X40.921 Y46.249 E31.35142
G1 X41.937 Y45.823 E31.41761
G1 X42.977 Y45.462 E31.48385
G1 X43.616 Y45.277 E31.52385
G1 X44.038 Y45.167 E31.55005
G1 X45.116 Y44.940 E31.61631
G1 X46.207 Y44.780 E31.68255
G1 X47.304 Y44.689 E31.74877
G1 X48.200 Y44.664 E31.80266
G1 X104.405 Y44.668 E35.18199
G1 X105.505 Y44.715 E35.24820 F720.000
G1 X106.601 Y44.832 E35.31444
G1 X107.687 Y45.017 E35.38070
G1 X108.759 Y45.269 E35.44690
G1 X109.813 Y45.589 E35.51314
G1 X110.845 Y45.974 E35.57933
G1 X111.851 Y46.424 E35.64558
G1 X112.826 Y46.935 E35.71180
G1 X113.768 Y47.507 E35.77803
G1 X114.671 Y48.137 E35.84426
G1 X115.534 Y48.822 E35.91049
G1 X116.351 Y49.560 E35.97671
G1 X117.121 Y50.348 E36.04294
G1 X117.840 Y51.183 E36.10917
G1 X118.505 Y52.061 E36.17539
G1 X118.879 Y52.611 E36.21539
G1 X119.113 Y52.979 E36.24163
G1 X119.663 Y53.934 E36.30785
G1 X120.151 Y54.921 E36.37410
G1 X120.577 Y55.937 E36.44029
G1 X120.938 Y56.977 E36.50653
G1 X121.233 Y58.038 E36.57273
G1 X121.460 Y59.116 E36.63899
G1 X121.620 Y60.207 E36.70523
G1 X121.711 Y61.304 E36.77144
G1 X121.732 Y62.405 E36.83766
G1 X121.685 Y63.505 E36.90388
G1 X121.568 Y64.601 E36.97012
G1 X121.383 Y65.687 E37.03637
G1 X121.131 Y66.759 E37.10258
G1 X120.811 Y67.813 E37.16880
G1 X120.415 Y68.868 E37.23656
G1 X119.977 Y69.850 E37.30123
G1 X119.465 Y70.826 E37.36746
G1 X118.893 Y71.768 E37.43371
G1 X118.263 Y72.671 E37.49994
G1 X117.578 Y73.534 E37.56616
G1 X116.840 Y74.351 E37.63239
G1 X88.052 Y103.121 E40.07942
G1 X87.217 Y103.840 E40.14566
G1 X86.318 Y104.519 E40.21344
G1 X85.421 Y105.113 E40.27812
G1 X84.466 Y105.663 E40.34434
G1 X83.479 Y106.151 E40.41059
G1 X82.463 Y106.577 E40.47678
G1 X81.423 Y106.938 E40.54302
G1 X80.362 Y107.233 E40.60922
G1 X79.258 Y107.464 E40.67703
G1 X78.193 Y107.620 E40.74172
G1 X77.096 Y107.711 E40.80793
G1 X75.995 Y107.732 E40.87415
G1 X74.895 Y107.685 E40.94036
G1 X73.799 Y107.568 E41.00660
G1 X72.687 Y107.378 E41.07442
G1 X71.641 Y107.131 E41.13906
G1 X70.587 Y106.811 E41.20528
G1 X69.532 Y106.415 E41.27304
G1 X68.550 Y105.976 E41.33772
G1 X67.574 Y105.465 E41.40393
G1 X66.611 Y104.879 E41.47175
G1 X65.729 Y104.263 E41.53641
G1 X64.866 Y103.578 E41.60264
G1 X64.049 Y102.840 E41.66887
G1 X36.049 Y74.840 E44.04969
G1 X35.279 Y74.052 E44.11590
G1 X34.560 Y73.217 E44.18214
G1 X33.881 Y72.318 E44.24993
G1 X33.287 Y71.421 E44.31460
G1 X32.737 Y70.467 E44.38081
G1 X32.249 Y69.479 E44.44706
G1 X31.815 Y68.439 E44.51482
G1 X31.462 Y67.423 E44.57949
G1 X31.167 Y66.362 E44.64570
G1 X30.940 Y65.284 E44.71195
G1 X30.780 Y64.194 E44.77819
G1 X30.689 Y63.096 E44.84441
G1 X30.668 Y61.995 E44.91063
G1 X30.715 Y60.895 E44.97684
G1 X30.832 Y59.799 E45.04309
G1 X31.017 Y58.713 E45.10934
G1 X31.269 Y57.641 E45.17554
G1 X31.589 Y56.587 E45.24178
G1 X31.974 Y55.555 E45.30797
G1 X32.238 Y54.945 E45.34797
G1 X32.424 Y54.549 E45.37423
G1 X32.935 Y53.574 E45.44045
G1 X33.507 Y52.632 E45.50668
G1 X33.881 Y52.082 E45.54667
G1 X34.137 Y51.729 E45.57292
G1 X34.822 Y50.866 E45.63914
G1 X35.560 Y50.049 E45.70537
G1 X36.348 Y49.279 E45.77159
G1 X36.847 Y48.839 E45.81160
G1 X37.343 Y48.436 E45.85004
G1 F1800.000 E44.85004
G92 E0
G1 X67.074 Y59.140 F4800.000
G1 E1.00000 F1800.000
G1 X67.248 Y58.656 E1.03097 F900.000
G1 X67.488 Y58.101 E1.06733
G1 X67.763 Y57.562 E1.10370
G1 X68.071 Y57.041 E1.14006
G1 X68.411 Y56.541 E1.17643
G1 X68.781 Y56.063 E1.21280
G1 X69.181 Y55.609 E1.24916
G1 X69.609 Y55.181 E1.28553
G1 X70.063 Y54.781 E1.32190
G1 X70.541 Y54.411 E1.35826
G1 X71.041 Y54.071 E1.39463
G1 X71.562 Y53.763 E1.43100
G1 X72.101 Y53.488 E1.46736
G1 X72.656 Y53.248 E1.50373
G1 X73.225 Y53.043 E1.54010
G1 X73.806 Y52.874 E1.57647
G1 X74.396 Y52.742 E1.61283
G1 X74.993 Y52.648 E1.64919
G1 X75.595 Y52.591 E1.68556
G1 X76.200 Y52.572 E1.72193
G1 X76.805 Y52.591 E1.75830
G1 X77.407 Y52.648 E1.79466 F900.000
G1 X78.004 Y52.742 E1.83103
G1 X78.594 Y52.874 E1.86739
G1 X79.175 Y53.043 E1.90376
G1 X79.744 Y53.248 E1.94013
G1 X80.299 Y53.488 E1.97650
G1 X80.838 Y53.763 E2.01286
G1 X81.359 Y54.071 E2.04923
G1 X81.859 Y54.411 E2.08559
G1 X82.337 Y54.781 E2.12196
G1 X82.791 Y55.181 E2.15833
G1 X83.219 Y55.609 E2.19470
G1 X83.619 Y56.063 E2.23106
G1 X83.989 Y56.541 E2.26743
G1 X84.329 Y57.041 E2.30379
G1 X84.637 Y57.562 E2.34016
G1 X84.912 Y58.101 E2.37653
G1 X85.152 Y58.656 E2.41289
G1 X85.357 Y59.225 E2.44926
G1 X85.526 Y59.806 E2.48563
G1 X85.658 Y60.396 E2.52200
G1 X85.752 Y60.993 E2.55836
G1 X85.809 Y61.595 E2.59473
G1 X85.828 Y62.192 E2.63058
G1 X85.809 Y62.805 E2.66746
G1 X85.752 Y63.407 E2.70383
G1 X85.658 Y64.004 E2.74019
G1 X85.526 Y64.594 E2.77656
G1 X85.357 Y65.175 E2.81293
G1 X85.152 Y65.744 E2.84930
G1 X84.912 Y66.299 E2.88566
G1 X84.637 Y66.838 E2.92203
G1 X84.329 Y67.359 E2.95839
G1 X83.989 Y67.859 E2.99476
G1 X83.619 Y68.337 E3.03112
G1 X83.219 Y68.791 E3.06749
G1 X82.791 Y69.219 E3.10386
G1 X82.337 Y69.619 E3.14023
G1 X81.859 Y69.989 E3.17659
G1 X81.359 Y70.329 E3.21296
G1 X80.838 Y70.637 E3.24932
G1 X80.299 Y70.912 E3.28569
G1 X79.744 Y71.152 E3.32206
G1 X79.175 Y71.357 E3.35843
G1 X78.594 Y71.526 E3.39479
G1 X78.004 Y71.658 E3.43116
G1 X77.407 Y71.752 E3.46752
G1 X76.805 Y71.809 E3.50389
G1 X76.200 Y71.828 E3.54026
G1 X75.595 Y71.809 E3.57663
G1 X74.993 Y71.752 E3.61299
G1 X74.396 Y71.658 E3.64935
G1 X73.806 Y71.526 E3.68572
G1 X73.225 Y71.357 E3.72209
G1 X72.656 Y71.152 E3.75846
G1 X72.101 Y70.912 E3.79483
G1 X71.562 Y70.637 E3.83119
G1 X71.041 Y70.329 E3.86756
G1 X70.541 Y69.989 E3.90392
G1 X70.063 Y69.619 E3.94029
G1 X69.609 Y69.219 E3.97666
G1 X69.181 Y68.791 E4.01302
G1 X68.781 Y68.337 E4.04939
G1 X68.411 Y67.859 E4.08576
G1 X68.071 Y67.359 E4.12212
G1 X67.763 Y66.838 E4.15849
G1 X67.488 Y66.299 E4.19486
G1 X67.248 Y65.744 E4.23122
G1 X67.043 Y65.175 E4.26759
G1 X66.874 Y64.594 E4.30396
G1 X66.742 Y64.004 E4.34033
G1 X66.648 Y63.407 E4.37669
G1 X66.591 Y62.805 E4.41305
G1 X66.572 Y62.200 E4.44942
G1 X66.591 Y61.595 E4.48579
G1 X66.648 Y60.993 E4.52216
G1 X66.742 Y60.396 E4.55852
G1 X66.874 Y59.806 E4.59489
G1 X67.053 Y59.197 E4.63305
G1 X66.549 Y59.015 F4800.000
G1 X66.750 Y58.458 E4.66863 F900.000
G1 X67.003 Y57.872 E4.70702
G1 X67.293 Y57.303 E4.74541
G1 X67.618 Y56.754 E4.78380
G1 X67.977 Y56.226 E4.82219
G1 X68.369 Y55.721 E4.86058
G1 X68.791 Y55.242 E4.89897
G1 X69.242 Y54.791 E4.93736
G1 X69.721 Y54.369 E4.97576
G1 X70.226 Y53.977 E5.01415
G1 X70.754 Y53.618 E5.05253
G1 X71.303 Y53.293 E5.09093
G1 X71.872 Y53.003 E5.12932
G1 X72.458 Y52.750 E5.16771
G1 X73.059 Y52.534 E5.20610
G1 X73.672 Y52.355 E5.24449
G1 X74.296 Y52.216 E5.28288
G1 X74.926 Y52.116 E5.32127
G1 X75.562 Y52.056 E5.35966
G1 X76.200 Y52.036 E5.39805 F900.000
G1 X76.838 Y52.056 E5.43645
G1 X77.474 Y52.116 E5.47483
G1 X78.105 Y52.216 E5.51322
G1 X78.728 Y52.355 E5.55161
G1 X79.341 Y52.534 E5.59001
G1 X79.942 Y52.750 E5.62840
G1 X80.528 Y53.003 E5.66679
G1 X81.097 Y53.293 E5.70518
G1 X81.646 Y53.618 E5.74357
G1 X82.174 Y53.977 E5.78196
G1 X82.679 Y54.369 E5.82035
G1 X83.158 Y54.791 E5.85874
G1 X83.609 Y55.242 E5.89713
G1 X84.031 Y55.721 E5.93552
G1 X84.423 Y56.226 E5.97391
G1 X84.782 Y56.754 E6.01230
G1 X85.107 Y57.303 E6.05069
G1 X85.397 Y57.872 E6.08908
G1 X85.650 Y58.458 E6.12747
G1 X85.866 Y59.059 E6.16587
G1 X86.045 Y59.672 E6.20426
G1 X86.184 Y60.295 E6.24265
G1 X86.284 Y60.926 E6.28104
G1 X86.344 Y61.562 E6.31943
G1 X86.364 Y62.200 E6.35782
G1 X86.344 Y62.838 E6.39621
G1 X86.284 Y63.474 E6.43460
G1 X86.184 Y64.105 E6.47299
G1 X86.045 Y64.728 E6.51138
G1 X85.866 Y65.341 E6.54977
G1 X85.650 Y65.942 E6.58817
G1 X85.397 Y66.528 E6.62656
G1 X85.107 Y67.097 E6.66495
G1 X84.782 Y67.646 E6.70334
G1 X84.423 Y68.174 E6.74173
G1 X84.031 Y68.679 E6.78012
G1 X83.609 Y69.158 E6.81851
G1 X83.158 Y69.609 E6.85690
G1 X82.679 Y70.031 E6.89529
G1 X82.174 Y70.423 E6.93368
G1 X81.646 Y70.782 E6.97207
G1 X81.097 Y71.107 E7.01046
G1 X80.528 Y71.397 E7.04885
G1 X79.942 Y71.650 E7.08724
G1 X79.341 Y71.866 E7.12563
G1 X78.728 Y72.045 E7.16402
G1 X78.105 Y72.184 E7.20242
G1 X77.474 Y72.284 E7.24080
G1 X76.838 Y72.344 E7.27919
G1 X76.200 Y72.364 E7.31759
G1 X75.562 Y72.344 E7.35598
G1 X74.926 Y72.284 E7.39437
G1 X74.295 Y72.184 E7.43276
G1 X73.672 Y72.045 E7.47115
G1 X73.059 Y71.866 E7.50954
G1 X72.458 Y71.650 E7.54793
G1 X71.872 Y71.397 E7.58632
G1 X71.303 Y71.107 E7.62471
G1 X70.754 Y70.782 E7.66310
G1 X70.226 Y70.423 E7.70150
G1 X69.721 Y70.031 E7.73988
G1 X69.242 Y69.609 E7.77828
G1 X68.791 Y69.158 E7.81667
G1 X68.369 Y68.679 E7.85506
G1 X67.977 Y68.174 E7.89345
G1 X67.618 Y67.646 E7.93184
G1 X67.293 Y67.097 E7.97023
G1 X67.003 Y66.528 E8.00862
G1 X66.750 Y65.942 E8.04701
G1 X66.534 Y65.341 E8.08540
G1 X66.355 Y64.728 E8.12379
G1 X66.216 Y64.105 E8.16219
G1 X66.116 Y63.474 E8.20057
G1 X66.056 Y62.838 E8.23896
G1 X66.036 Y62.200 E8.27735
G1 X66.056 Y61.562 E8.31575
G1 X66.116 Y60.926 E8.35414
G1 X66.216 Y60.295 E8.39252
G1 X66.355 Y59.672 E8.43092
