; generated by Slic3r 1.2.0 on 2014-10-03 at 12:19:13

; external perimeters extrusion width = 0.40mm
; perimeters extrusion width = 0.67mm
; infill extrusion width = 0.67mm
; solid infill extrusion width = 0.67mm
; top infill extrusion width = 0.67mm

G21 ; set units to millimeters
M107
M104 S195 ; set temperature
G28 X0 Y0  
G29
M109 S195 ; wait for temperature to be reached
G90 ; use absolute coordinates
G92 E0
M82 ; use absolute distances for extrusion
G1 F1800.000 E-1.00000
G92 E0
G1 Z0.300 F4800.000
G1 X62.802 Y63.291 F4800.000
G1 E1.00000 F1800.000
G1 X63.639 Y62.475 E1.07027 F720.000
G1 X64.526 Y61.714 E1.14054
G1 X65.459 Y61.009 E1.21082
G1 X66.009 Y60.635 E1.25083
G1 X66.434 Y60.365 E1.28110
G1 X67.447 Y59.783 E1.35136
G1 X68.496 Y59.265 E1.42167
G1 X69.574 Y58.815 E1.49190
G1 X70.679 Y58.434 E1.56218
G1 X71.804 Y58.122 E1.63242
G1 X72.949 Y57.882 E1.70273
G1 X73.606 Y57.778 E1.74273
G1 X74.106 Y57.714 E1.77303
G1 X75.270 Y57.619 E1.84329
G1 X76.439 Y57.597 E1.91355
G1 X77.606 Y57.649 E1.98380
G1 X78.769 Y57.773 E2.05410 F720.000
G1 X79.921 Y57.971 E2.12441
G1 X81.058 Y58.241 E2.19465
G1 X81.697 Y58.426 E2.23465
G1 X82.176 Y58.581 E2.26494
G1 X83.270 Y58.991 E2.33517
G1 X84.337 Y59.469 E2.40547
G1 X85.371 Y60.013 E2.47573
G1 X86.370 Y60.621 E2.54601
G1 X87.328 Y61.290 E2.61629
G1 X88.242 Y62.018 E2.68656
G1 X88.741 Y62.458 E2.72656
G1 X89.109 Y62.802 E2.75684
G1 X89.925 Y63.639 E2.82711
G1 X90.686 Y64.526 E2.89738
G1 X91.391 Y65.459 E2.96765
G1 X91.765 Y66.009 E3.00765
G1 X92.035 Y66.434 E3.03794
G1 X92.617 Y67.447 E3.10820
G1 X93.135 Y68.496 E3.17850
G1 X93.585 Y69.574 E3.24873
G1 X93.810 Y70.200 E3.28874
G1 X93.966 Y70.679 E3.31903
G1 X94.278 Y71.804 E3.38927
G1 X94.518 Y72.949 E3.45957
G1 X94.686 Y74.106 E3.52987
G1 X94.781 Y75.270 E3.60012
G1 X94.803 Y76.439 E3.67039
G1 X94.751 Y77.606 E3.74064
G1 X94.627 Y78.769 E3.81094
G1 X94.423 Y79.946 E3.88280
G1 X94.159 Y81.058 E3.95148
G1 X93.819 Y82.176 E4.02175
G1 X93.399 Y83.294 E4.09355
G1 X92.931 Y84.337 E4.16227
G1 X92.387 Y85.371 E4.23254
G1 X91.779 Y86.370 E4.30284
G1 X91.110 Y87.328 E4.37311
G1 X90.382 Y88.242 E4.44338
G1 X89.598 Y89.109 E4.51365
G1 X88.741 Y89.942 E4.58548
G1 X87.874 Y90.686 E4.65420
G1 X86.942 Y91.391 E4.72445
G1 X85.966 Y92.035 E4.79475
G1 X84.953 Y92.617 E4.86501
G1 X83.904 Y93.135 E4.93531
G1 X82.826 Y93.585 E5.00554
G1 X81.721 Y93.966 E5.07583
G1 X80.596 Y94.278 E5.14607
G1 X79.451 Y94.518 E5.21637
G1 X78.294 Y94.686 E5.28667
G1 X77.130 Y94.781 E5.35692
G1 X75.961 Y94.803 E5.42719
G1 X74.794 Y94.751 E5.49744
G1 X73.631 Y94.627 E5.56774
G1 X72.454 Y94.423 E5.63960
G1 X71.342 Y94.159 E5.70828
G1 X70.224 Y93.819 E5.77855
G1 X69.130 Y93.409 E5.84880
G1 X68.040 Y92.919 E5.92066
G1 X67.029 Y92.387 E5.98933
G1 X66.030 Y91.779 E6.05963
G1 X65.072 Y91.110 E6.12990
G1 X64.158 Y90.382 E6.20018
G1 X63.291 Y89.598 E6.27046
G1 X62.476 Y88.761 E6.34071
G1 X61.714 Y87.874 E6.41100
G1 X60.995 Y86.920 E6.48283
G1 X60.365 Y85.966 E6.55155
G1 X59.783 Y84.953 E6.62181
G1 X59.266 Y83.904 E6.69210
G1 X58.807 Y82.802 E6.76390
G1 X58.434 Y81.722 E6.83261
G1 X58.122 Y80.596 E6.90287
G1 X57.882 Y79.451 E6.97318
G1 X57.711 Y78.268 E7.04502
G1 X57.619 Y77.130 E7.11372
G1 X57.597 Y75.961 E7.18398
G1 X57.649 Y74.794 E7.25424
G1 X57.773 Y73.631 E7.32453
G1 X57.971 Y72.479 E7.39484
G1 X58.241 Y71.342 E7.46508
G1 X58.581 Y70.224 E7.53536
G1 X58.991 Y69.130 E7.60560
G1 X59.255 Y68.519 E7.64560
G1 X59.469 Y68.063 E7.67591
G1 X60.013 Y67.029 E7.74617
G1 X60.621 Y66.030 E7.81645
G1 X61.290 Y65.072 E7.88672
G1 X61.698 Y64.546 E7.92672
G1 X62.018 Y64.158 E7.95700
G1 X62.761 Y63.335 E8.02367
G1 X63.152 Y63.701 F4800.000
G1 X63.994 Y62.877 E8.09445 F720.000
G1 X64.493 Y62.437 E8.13445
G1 X65.380 Y61.729 E8.20270
G1 X66.310 Y61.078 E8.27096
G1 X66.706 Y60.826 E8.29921
G1 X67.690 Y60.260 E8.36745
G1 X68.708 Y59.757 E8.43573
G1 X69.755 Y59.319 E8.50394
G1 X70.828 Y58.948 E8.57220
G1 X71.921 Y58.645 E8.64042
G1 X73.033 Y58.411 E8.70870
G1 X73.690 Y58.307 E8.74870
G1 X74.156 Y58.247 E8.77698
G1 X75.287 Y58.154 E8.84521
G1 X76.422 Y58.132 E8.91345
G1 X77.556 Y58.182 E8.98169
G1 X78.685 Y58.303 E9.04996 F720.000
G1 X79.804 Y58.494 E9.11824
G1 X80.908 Y58.755 E9.18646
G1 X81.547 Y58.941 E9.22646
G1 X81.995 Y59.085 E9.25473
G1 X83.057 Y59.483 E9.32294
G1 X84.094 Y59.946 E9.39121
G1 X85.099 Y60.474 E9.45946
G1 X86.069 Y61.064 E9.52771
G1 X87.000 Y61.713 E9.59596
G1 X87.888 Y62.420 E9.66421
G1 X88.387 Y62.860 E9.70421
G1 X88.730 Y63.181 E9.73247
G1 X89.523 Y63.994 E9.80071
G1 X90.263 Y64.854 E9.86896
G1 X90.948 Y65.760 E9.93721
G1 X91.322 Y66.310 E9.97721
G1 X91.574 Y66.706 E10.00548
G1 X92.140 Y67.690 E10.07372
G1 X92.643 Y68.708 E10.14199
G1 X93.081 Y69.755 E10.21020
G1 X93.306 Y70.381 E10.25021
G1 X93.452 Y70.828 E10.27847
G1 X93.755 Y71.921 E10.34669
G1 X93.989 Y73.033 E10.41498
G1 X94.153 Y74.156 E10.48325
G1 X94.246 Y75.287 E10.55148
G1 X94.268 Y76.422 E10.61972
G1 X94.218 Y77.556 E10.68795
G1 X94.097 Y78.685 E10.75622
G1 X93.900 Y79.830 E10.82606
G1 X93.645 Y80.908 E10.89272
G1 X93.315 Y81.994 E10.96097
G1 X92.907 Y83.081 E11.03075
G1 X92.454 Y84.094 E11.09745
G1 X91.926 Y85.099 E11.16569
G1 X91.336 Y86.069 E11.23397
G1 X90.687 Y87.000 E11.30222
G1 X89.980 Y87.888 E11.37047
G1 X89.219 Y88.730 E11.43871
G1 X88.387 Y89.540 E11.50852
G1 X87.546 Y90.263 E11.57521
G1 X86.640 Y90.948 E11.64345
G1 X85.694 Y91.574 E11.71172
G1 X84.710 Y92.140 E11.77996
G1 X83.692 Y92.643 E11.84823
G1 X82.645 Y93.081 E11.91645
G1 X81.572 Y93.452 E11.98471
G1 X80.479 Y93.755 E12.05293
G1 X79.367 Y93.989 E12.12121
G1 X78.244 Y94.153 E12.18948
G1 X77.113 Y94.246 E12.25771
G1 X75.978 Y94.268 E12.32595
G1 X74.844 Y94.218 E12.39419
G1 X73.715 Y94.097 E12.46246
G1 X72.570 Y93.900 E12.53229
G1 X71.492 Y93.645 E12.59896
G1 X70.406 Y93.315 E12.66720
G1 X69.343 Y92.917 E12.73543
G1 X68.283 Y92.442 E12.80526
G1 X67.302 Y91.926 E12.87192
G1 X66.331 Y91.336 E12.94019
G1 X65.400 Y90.687 E13.00844
G1 X64.512 Y89.980 E13.07670
G1 X63.670 Y89.219 E13.14495
G1 X62.877 Y88.406 E13.21318
G1 X62.137 Y87.546 E13.28144
G1 X61.438 Y86.619 E13.35125
G1 X60.826 Y85.694 E13.41795
G1 X60.260 Y84.710 E13.48618
G1 X59.757 Y83.692 E13.55445
G1 X59.311 Y82.620 E13.62423
G1 X58.948 Y81.572 E13.69092
G1 X58.645 Y80.479 E13.75916
G1 X58.411 Y79.367 E13.82744
G1 X58.244 Y78.218 E13.89726
G1 X58.154 Y77.113 E13.96394
G1 X58.132 Y75.978 E14.03218
G1 X58.182 Y74.844 E14.10041
G1 X58.303 Y73.715 E14.16868
G1 X58.494 Y72.596 E14.23697
G1 X58.755 Y71.492 E14.30519
G1 X59.085 Y70.405 E14.37345
G1 X59.483 Y69.343 E14.44166
G1 X59.747 Y68.732 E14.48166
G1 X59.946 Y68.306 E14.50994
G1 X60.474 Y67.301 E14.57818
G1 X61.064 Y66.331 E14.64644
G1 X61.713 Y65.400 E14.71469
G1 X62.121 Y64.875 E14.75469
G1 X62.420 Y64.512 E14.78295
G1 X63.111 Y63.745 E14.84505
G1 X63.502 Y64.110 F4800.000
G1 X64.348 Y63.279 E14.91634 F720.000
G1 X64.847 Y62.839 E14.95634
G1 X65.708 Y62.152 E15.02257
G1 X66.611 Y61.521 E15.08880
G1 X66.979 Y61.287 E15.11503
G1 X67.934 Y60.737 E15.18125
G1 X68.921 Y60.249 E15.24751
G1 X69.937 Y59.823 E15.31370
G1 X70.977 Y59.462 E15.37993
G1 X72.038 Y59.167 E15.44613
G1 X73.116 Y58.940 E15.51239
G1 X73.773 Y58.836 E15.55239
G1 X74.207 Y58.780 E15.57864
G1 X75.304 Y58.689 E15.64485
G1 X76.405 Y58.668 E15.71107
G1 X77.505 Y58.715 E15.77728
G1 X78.601 Y58.832 E15.84353 F720.000
G1 X79.687 Y59.017 E15.90979
G1 X80.759 Y59.269 E15.97599
G1 X81.398 Y59.455 E16.01599
G1 X81.813 Y59.589 E16.04223
G1 X82.845 Y59.974 E16.10842
G1 X83.851 Y60.424 E16.17467
G1 X84.826 Y60.935 E16.24089
G1 X85.768 Y61.507 E16.30712
G1 X86.671 Y62.137 E16.37335
G1 X87.534 Y62.822 E16.43958
G1 X88.033 Y63.262 E16.47958
G1 X88.351 Y63.560 E16.50581
G1 X89.121 Y64.348 E16.57204
G1 X89.840 Y65.183 E16.63826
G1 X90.505 Y66.061 E16.70449
G1 X90.879 Y66.611 E16.74449
G1 X91.113 Y66.979 E16.77073
G1 X91.663 Y67.934 E16.83695
G1 X92.151 Y68.921 E16.90320
G1 X92.577 Y69.937 E16.96939
G1 X92.802 Y70.563 E17.00940
G1 X92.938 Y70.977 E17.03564
G1 X93.233 Y72.038 E17.10184
G1 X93.460 Y73.116 E17.16809
G1 X93.620 Y74.207 E17.23434
G1 X93.711 Y75.304 E17.30055
G1 X93.732 Y76.405 E17.36677
G1 X93.685 Y77.505 E17.43298
G1 X93.568 Y78.601 E17.49923
G1 X93.378 Y79.713 E17.56704
G1 X93.131 Y80.759 E17.63168
G1 X92.811 Y81.813 E17.69791
G1 X92.415 Y82.868 E17.76567
G1 X91.977 Y83.850 E17.83034
G1 X91.465 Y84.826 E17.89656
G1 X90.893 Y85.768 E17.96281
G1 X90.263 Y86.671 E18.02904
G1 X89.578 Y87.534 E18.09527
G1 X88.840 Y88.351 E18.16149
G1 X88.033 Y89.138 E18.22927
G1 X87.217 Y89.840 E18.29394
G1 X86.339 Y90.505 E18.36016
G1 X85.421 Y91.113 E18.42640
G1 X84.466 Y91.663 E18.49262
G1 X83.479 Y92.151 E18.55887
G1 X82.463 Y92.577 E18.62506
G1 X81.423 Y92.938 E18.69130
G1 X80.362 Y93.233 E18.75750
G1 X79.284 Y93.460 E18.82376
G1 X78.193 Y93.620 E18.89000
G1 X77.096 Y93.711 E18.95621
G1 X75.995 Y93.732 E19.02243
G1 X74.895 Y93.685 E19.08865
G1 X73.799 Y93.568 E19.15489
G1 X72.687 Y93.378 E19.22270
G1 X71.641 Y93.131 E19.28735
G1 X70.587 Y92.811 E19.35357
G1 X69.555 Y92.426 E19.41977
G1 X68.526 Y91.965 E19.48758
G1 X67.574 Y91.465 E19.55222
G1 X66.632 Y90.893 E19.61847
G1 X65.729 Y90.263 E19.68469
G1 X64.866 Y89.578 E19.75093
G1 X64.049 Y88.840 E19.81716
G1 X63.279 Y88.052 E19.88337
G1 X62.560 Y87.217 E19.94961
G1 X61.881 Y86.318 E20.01739
G1 X61.287 Y85.421 E20.08206
G1 X60.737 Y84.467 E20.14828
G1 X60.249 Y83.479 E20.21453
G1 X59.815 Y82.439 E20.28228
G1 X59.462 Y81.423 E20.34695
G1 X59.167 Y80.362 E20.41316
G1 X58.940 Y79.284 E20.47942
G1 X58.778 Y78.168 E20.54722
G1 X58.689 Y77.096 E20.61187
G1 X58.668 Y75.995 E20.67809
G1 X58.715 Y74.895 E20.74431
G1 X58.832 Y73.799 E20.81055
G1 X59.017 Y72.713 E20.87681
G1 X59.269 Y71.641 E20.94301
G1 X59.589 Y70.587 E21.00924
G1 X59.974 Y69.555 E21.07544
G1 X60.238 Y68.945 E21.11544
G1 X60.424 Y68.549 E21.14169
G1 X60.935 Y67.574 E21.20791
G1 X61.507 Y66.632 E21.27415
G1 X62.137 Y65.729 E21.34037
G1 X62.544 Y65.203 E21.38037
G1 X62.822 Y64.866 E21.40661
G1 X63.461 Y64.154 E21.46415
G1 F1800.000 E20.46415
G92 E0
G1 X69.181 Y69.609 F4800.000
G1 E1.00000 F1800.000
G1 X69.609 Y69.181 E1.03637 F900.000
G1 X70.063 Y68.781 E1.07273
G1 X70.541 Y68.411 E1.10910
G1 X71.041 Y68.071 E1.14546
G1 X71.562 Y67.763 E1.18183
G1 X72.101 Y67.488 E1.21820
G1 X72.656 Y67.248 E1.25456
G1 X73.225 Y67.043 E1.29093
G1 X73.806 Y66.874 E1.32730
G1 X74.396 Y66.742 E1.36367
G1 X74.993 Y66.648 E1.40003
G1 X75.595 Y66.591 E1.43640
G1 X76.200 Y66.572 E1.47276
G1 X76.805 Y66.591 E1.50914
G1 X77.407 Y66.648 E1.54550 F900.000
G1 X78.004 Y66.742 E1.58186
G1 X78.594 Y66.874 E1.61823
G1 X79.175 Y67.043 E1.65460
G1 X79.744 Y67.248 E1.69097
G1 X80.299 Y67.488 E1.72733
G1 X80.838 Y67.763 E1.76370
G1 X81.359 Y68.071 E1.80007
G1 X81.859 Y68.411 E1.83643
G1 X82.337 Y68.781 E1.87280
G1 X82.791 Y69.181 E1.90916
G1 X83.219 Y69.609 E1.94553
G1 X83.619 Y70.063 E1.98190
G1 X83.989 Y70.541 E2.01826
G1 X84.329 Y71.041 E2.05463
G1 X84.637 Y71.562 E2.09100
G1 X84.912 Y72.101 E2.12736
G1 X85.152 Y72.656 E2.16373
G1 X85.357 Y73.225 E2.20010
G1 X85.526 Y73.806 E2.23647
G1 X85.658 Y74.396 E2.27283
G1 X85.752 Y74.993 E2.30919
G1 X85.809 Y75.595 E2.34556
G1 X85.828 Y76.192 E2.38142
G1 X85.809 Y76.805 E2.41830
G1 X85.752 Y77.407 E2.45467
G1 X85.658 Y78.004 E2.49103
G1 X85.526 Y78.594 E2.52739
G1 X85.357 Y79.175 E2.56376
G1 X85.152 Y79.744 E2.60013
G1 X84.912 Y80.299 E2.63650
G1 X84.637 Y80.838 E2.67286
G1 X84.329 Y81.359 E2.70923
G1 X83.989 Y81.859 E2.74560
G1 X83.619 Y82.337 E2.78196
G1 X83.219 Y82.791 E2.81833
G1 X82.791 Y83.219 E2.85469
G1 X82.337 Y83.619 E2.89106
G1 X81.859 Y83.989 E2.92743
G1 X81.359 Y84.329 E2.96379
G1 X80.838 Y84.637 E3.00016
G1 X80.299 Y84.912 E3.03653
G1 X79.744 Y85.152 E3.07289
G1 X79.175 Y85.357 E3.10926
G1 X78.594 Y85.526 E3.14563
G1 X78.004 Y85.658 E3.18200
G1 X77.407 Y85.752 E3.21836
G1 X76.805 Y85.809 E3.25472
G1 X76.200 Y85.828 E3.29109
G1 X75.595 Y85.809 E3.32746
G1 X74.993 Y85.752 E3.36383
G1 X74.396 Y85.658 E3.40019
G1 X73.806 Y85.526 E3.43656
G1 X73.225 Y85.357 E3.47293
G1 X72.656 Y85.152 E3.50930
G1 X72.101 Y84.912 E3.54566
G1 X71.562 Y84.637 E3.58203
G1 X71.041 Y84.329 E3.61839
G1 X70.541 Y83.989 E3.65476
G1 X70.063 Y83.619 E3.69112
G1 X69.609 Y83.219 E3.72749
G1 X69.181 Y82.791 E3.76386
G1 X68.781 Y82.337 E3.80023
G1 X68.411 Y81.859 E3.83659
G1 X68.071 Y81.359 E3.87296
G1 X67.763 Y80.838 E3.90933
G1 X67.488 Y80.299 E3.94569
G1 X67.248 Y79.744 E3.98206
G1 X67.043 Y79.175 E4.01843
G1 X66.874 Y78.594 E4.05479
G1 X66.742 Y78.004 E4.09116
G1 X66.648 Y77.407 E4.12752
G1 X66.591 Y76.805 E4.16389
G1 X66.572 Y76.200 E4.20026
G1 X66.591 Y75.595 E4.23663
G1 X66.648 Y74.993 E4.27299
G1 X66.742 Y74.396 E4.30935
G1 X66.874 Y73.806 E4.34572
G1 X67.043 Y73.225 E4.38209
G1 X67.248 Y72.656 E4.41846
G1 X67.488 Y72.101 E4.45483
G1 X67.763 Y71.562 E4.49119
G1 X68.071 Y71.041 E4.52756
G1 X68.411 Y70.541 E4.56392
G1 X68.781 Y70.063 E4.60029
G1 X69.142 Y69.654 E4.63305
G1 X68.740 Y69.300 F4800.000
G1 X69.242 Y68.791 E4.67605 F900.000
G1 X69.721 Y68.369 E4.71444
G1 X70.226 Y67.977 E4.75283
G1 X70.754 Y67.618 E4.79122
G1 X71.303 Y67.293 E4.82961
G1 X71.872 Y67.003 E4.86800
G1 X72.458 Y66.750 E4.90639
G1 X73.059 Y66.534 E4.94479
G1 X73.672 Y66.355 E4.98318
G1 X74.296 Y66.216 E5.02157
G1 X74.926 Y66.116 E5.05996
G1 X75.562 Y66.056 E5.09835
G1 X76.200 Y66.036 E5.13674 F900.000
G1 X76.838 Y66.056 E5.17513
G1 X77.474 Y66.116 E5.21352
G1 X78.105 Y66.216 E5.25191
G1 X78.728 Y66.355 E5.29030
G1 X79.341 Y66.534 E5.32869
G1 X79.942 Y66.750 E5.36708
G1 X80.528 Y67.003 E5.40548
G1 X81.097 Y67.293 E5.44387
G1 X81.646 Y67.618 E5.48226
G1 X82.174 Y67.977 E5.52065
G1 X82.679 Y68.369 E5.55904
G1 X83.158 Y68.791 E5.59743
G1 X83.609 Y69.242 E5.63582
G1 X84.031 Y69.721 E5.67421
G1 X84.423 Y70.226 E5.71260
G1 X84.782 Y70.754 E5.75099
G1 X85.107 Y71.303 E5.78938
G1 X85.397 Y71.872 E5.82777
G1 X85.650 Y72.458 E5.86616
G1 X85.866 Y73.059 E5.90455
G1 X86.045 Y73.672 E5.94295
G1 X86.184 Y74.295 E5.98134
G1 X86.284 Y74.926 E6.01972
G1 X86.344 Y75.562 E6.05812
G1 X86.364 Y76.200 E6.09651
G1 X86.344 Y76.838 E6.13490
G1 X86.284 Y77.474 E6.17329
G1 X86.184 Y78.105 E6.21168
G1 X86.045 Y78.728 E6.25007
G1 X85.866 Y79.341 E6.28846
G1 X85.650 Y79.942 E6.32685
G1 X85.397 Y80.528 E6.36524
G1 X85.107 Y81.097 E6.40363
G1 X84.782 Y81.646 E6.44202
G1 X84.423 Y82.174 E6.48041
G1 X84.031 Y82.679 E6.51880
G1 X83.609 Y83.158 E6.55720
G1 X83.158 Y83.609 E6.59559
G1 X82.679 Y84.031 E6.63398
G1 X82.174 Y84.423 E6.67237
G1 X81.646 Y84.782 E6.71076
G1 X81.097 Y85.107 E6.74915
G1 X80.528 Y85.397 E6.78754
G1 X79.942 Y85.650 E6.82593
G1 X79.341 Y85.866 E6.86432
G1 X78.728 Y86.045 E6.90271
G1 X78.105 Y86.184 E6.94110
G1 X77.474 Y86.284 E6.97949
G1 X76.838 Y86.344 E7.01788
G1 X76.200 Y86.364 E7.05627
G1 X75.562 Y86.344 E7.09467
G1 X74.926 Y86.284 E7.13306
G1 X74.295 Y86.184 E7.17145
G1 X73.672 Y86.045 E7.20984
G1 X73.059 Y85.866 E7.24823
G1 X72.458 Y85.650 E7.28662
G1 X71.872 Y85.397 E7.32501
G1 X71.303 Y85.107 E7.36340
G1 X70.754 Y84.782 E7.40179
G1 X70.226 Y84.423 E7.44018
G1 X69.721 Y84.031 E7.47857
G1 X69.242 Y83.609 E7.51696
G1 X68.791 Y83.158 E7.55535
G1 X68.369 Y82.679 E7.59374
G1 X67.977 Y82.174 E7.63214
G1 X67.618 Y81.646 E7.67053
G1 X67.293 Y81.097 E7.70892
G1 X67.003 Y80.528 E7.74731
G1 X66.750 Y79.942 E7.78570
G1 X66.534 Y79.341 E7.82409
G1 X66.355 Y78.728 E7.86248
G1 X66.216 Y78.105 E7.90087
G1 X66.116 Y77.474 E7.93926
G1 X66.056 Y76.838 E7.97765
G1 X66.036 Y76.200 E8.01604
G1 X66.056 Y75.562 E8.05444
G1 X66.116 Y74.926 E8.09282
G1 X66.216 Y74.295 E8.13121
G1 X66.355 Y73.672 E8.16960
G1 X66.534 Y73.059 E8.20800
G1 X66.750 Y72.458 E8.24639
G1 X67.003 Y71.872 E8.28478
G1 X67.293 Y71.303 E8.32317
G1 X67.618 Y70.754 E8.36156
G1 X67.977 Y70.226 E8.39995
G1 X68.369 Y69.721 E8.43834
G1 X68.700 Y69.345 E8.46850
G1 X68.299 Y68.991 F4800.000
G1 X68.875 Y68.400 E8.51814 F810.000
G1 X69.380 Y67.956 E8.55856
G1 X69.911 Y67.544 E8.59897
G1 X70.467 Y67.166 E8.63939
G1 X71.045 Y66.824 E8.67980
G1 X71.644 Y66.518 E8.72022
G1 X72.261 Y66.252 E8.76063
G1 X72.894 Y66.024 E8.80105
G1 X73.539 Y65.836 E8.84146
G1 X74.195 Y65.690 E8.88188
