; generated by Slic3r 1.2.0 on 2014-10-03 at 13:16:48

; external perimeters extrusion width = 0.40mm
; perimeters extrusion width = 0.67mm
; infill extrusion width = 0.67mm
; solid infill extrusion width = 0.67mm
; top infill extrusion width = 0.67mm

G21 ; set units to millimeters
M107
M104 S195 ; set temperature
G28 X0 Y0  
G29
M109 S195 ; wait for temperature to be reached
G90 ; use absolute coordinates
G92 E0
M82 ; use absolute distances for extrusion
G1 F1800.000 E-1.00000
G92 E0
G1 Z0.300 F4800.000
G1 X57.991 Y19.274 F4800.000
G1 E1.00000 F1800.000
G1 X59.141 Y17.101 E1.14783 F720.000
G1 X60.925 Y15.408 E1.29566
G1 X63.155 Y14.373 E1.44350
G1 X65.200 Y14.093 E1.56760
G1 X87.200 Y14.093 E2.89035
G1 X89.626 Y14.491 E3.03818
G1 X91.799 Y15.641 E3.18601 F720.000
G1 X93.492 Y17.425 E3.33384
G1 X94.527 Y19.655 E3.48168
G1 X94.807 Y21.700 E3.60578
G1 X94.807 Y130.700 E10.15939
G1 X94.409 Y133.126 E10.30722
G1 X93.259 Y135.299 E10.45506
G1 X91.475 Y136.992 E10.60289
G1 X89.245 Y138.027 E10.75072
G1 X87.200 Y138.307 E10.87482
G1 X65.200 Y138.307 E12.19757
G1 X62.774 Y137.909 E12.34540
G1 X60.601 Y136.759 E12.49324
G1 X58.908 Y134.975 E12.64107
G1 X57.873 Y132.745 E12.78890
G1 X57.593 Y130.700 E12.91300
G1 X57.593 Y21.700 E19.46661
G1 X57.981 Y19.333 E19.61084
G1 X58.516 Y19.424 F4800.000
G1 X58.526 Y19.363 E19.61451 F720.000
G1 X59.673 Y17.289 E19.75701
G1 X61.441 Y15.711 E19.89950
G1 X63.631 Y14.805 E20.04200
G1 X65.200 Y14.629 E20.13695
G1 X87.200 Y14.629 E21.45970
G1 X89.537 Y15.026 E21.60219
G1 X91.611 Y16.173 E21.74469 F720.000
G1 X93.189 Y17.941 E21.88719
G1 X94.095 Y20.131 E22.02968
G1 X94.271 Y21.700 E22.12463
G1 X94.271 Y130.700 E28.67824
G1 X93.874 Y133.036 E28.82074
G1 X92.727 Y135.111 E28.96324
G1 X90.959 Y136.689 E29.10573
G1 X88.769 Y137.595 E29.24823
G1 X87.200 Y137.771 E29.34318
G1 X65.200 Y137.771 E30.66592
G1 X62.863 Y137.374 E30.80842
G1 X60.789 Y136.227 E30.95092
G1 X59.211 Y134.459 E31.09341
G1 X58.305 Y132.269 E31.23591
G1 X58.129 Y130.700 E31.33086
G1 X58.129 Y21.700 E37.88447
G1 X58.506 Y19.483 E38.01969
G1 X59.040 Y19.577 F4800.000
G1 X59.061 Y19.457 E38.02704 F720.000
G1 X60.204 Y17.486 E38.16399
G1 X61.953 Y16.028 E38.30095
G1 X65.200 Y15.164 E38.50293
G1 X87.200 Y15.164 E39.82568
G1 X89.443 Y15.561 E39.96263
G1 X91.413 Y16.704 E40.09959 F720.000
G1 X92.872 Y18.453 E40.23654
G1 X93.736 Y21.700 E40.43853
G1 X93.736 Y130.700 E46.99214
G1 X93.339 Y132.943 E47.12909
G1 X92.196 Y134.913 E47.26605
G1 X90.447 Y136.372 E47.40300
G1 X87.200 Y137.236 E47.60499
G1 X65.200 Y137.236 E48.92773
G1 X62.957 Y136.839 E49.06469
G1 X60.987 Y135.696 E49.20164
G1 X59.528 Y133.947 E49.33860
G1 X58.664 Y130.700 E49.54058
G1 X58.664 Y21.700 E56.09419
G1 X59.030 Y19.636 E56.22019
G1 F1800.000 E55.22019
G92 E0
G1 X66.571 Y23.071 F4800.000
G1 E1.00000 F1800.000
G1 X85.829 Y23.071 E2.15786 F900.000
G1 X85.829 Y129.329 E8.54658
G1 X66.571 Y129.329 E9.70443
G1 X66.571 Y23.131 E16.08954
G1 X66.036 Y22.536 F4800.000
G1 X86.364 Y22.536 E17.31181 F900.000
G1 X86.364 Y129.864 E23.76494
G1 X66.036 Y129.864 E24.98720
G1 X66.036 Y22.596 E31.43672
G1 X65.500 Y22.000 F4800.000
G1 X86.900 Y22.000 E32.72339 F810.000
G1 X86.900 Y130.400 E39.24093
G1 X65.500 Y130.400 E40.52760
G1 X65.500 Y22.060 E47.04153
G1 X65.846 Y22.200 F4800.000
G1 F1800.000 E46.04153
G92 E0
G1 X85.420 Y23.440 F4800.000
G1 E1.00000 F1800.000
G1 X85.460 Y23.480 E1.00340 F1080.000
G1 X85.460 Y24.240 E1.04913
G1 X84.660 Y23.440 E1.11719
G1 X83.899 Y23.440 E1.16292
G1 X85.460 Y25.001 E1.29565
G1 X85.460 Y25.761 E1.34137
G1 X83.139 Y23.440 E1.53877
G1 X82.378 Y23.440 E1.58450
G1 X85.460 Y26.522 E1.84656
G1 X85.460 Y27.282 E1.89228
G1 X81.618 Y23.440 E2.21901
G1 X80.857 Y23.440 E2.26473
G1 X85.460 Y28.043 E2.65612
G1 X85.460 Y28.803 E2.70185
G1 X80.097 Y23.440 E3.15791
G1 X79.336 Y23.440 E3.20363
G1 X85.460 Y29.564 E3.72435
G1 X85.460 Y30.324 E3.77008
G1 X78.576 Y23.440 E4.35546
G1 X77.815 Y23.440 E4.40119
G1 X85.460 Y31.085 E5.05124
G1 X85.460 Y31.845 E5.09697
G1 X77.055 Y23.440 E5.81168
G1 X76.294 Y23.440 E5.85741
G1 X85.460 Y32.606 E6.63679
G1 X85.460 Y33.366 E6.68251
G1 X75.534 Y23.440 E7.52656
G1 X74.773 Y23.440 E7.57229
G1 X85.460 Y34.127 E8.48100
G1 X85.460 Y34.887 E8.52672
G1 X74.013 Y23.440 E9.50010
G1 X73.252 Y23.440 E9.54582
G1 X85.460 Y35.648 E10.58387
G1 X85.460 Y36.408 E10.62959
G1 X72.492 Y23.440 E11.73230
G1 X71.731 Y23.440 E11.77802
G1 X85.460 Y37.169 E12.94539
G1 X85.460 Y37.929 E12.99112
G1 X70.971 Y23.440 E14.22316
G1 X70.210 Y23.440 E14.26888
G1 X85.460 Y38.690 E15.56558
G1 X85.460 Y39.450 E15.61131
G1 X69.450 Y23.440 E16.97268
G1 X68.689 Y23.440 E17.01840
G1 X85.460 Y40.211 E18.44443
G1 X85.460 Y40.971 E18.49016
G1 X67.929 Y23.440 E19.98085
G1 X67.168 Y23.440 E20.02658
G1 X85.460 Y41.732 E21.58194
G1 X85.460 Y42.492 E21.62767
G1 X66.940 Y23.971 E23.20249
G1 X66.940 Y24.732 E23.24821
G1 X85.460 Y43.253 E24.82304
G1 X85.460 Y44.013 E24.86876
G1 X66.940 Y25.492 E26.44358
G1 X66.940 Y26.253 E26.48931
G1 X85.460 Y44.774 E28.06413
G1 X85.460 Y45.534 E28.10986
G1 X66.940 Y27.013 E29.68468
G1 X66.940 Y27.774 E29.73040
G1 X85.460 Y46.295 E31.30523
G1 X85.460 Y47.055 E31.35095
G1 X66.940 Y28.534 E32.92577
G1 X66.940 Y29.295 E32.97150
G1 X85.460 Y47.816 E34.54632
G1 X85.460 Y48.576 E34.59205
G1 X66.940 Y30.055 E36.16687
G1 X66.940 Y30.816 E36.21259
G1 X85.460 Y49.337 E37.78742
G1 X85.460 Y50.097 E37.83314
G1 X66.940 Y31.576 E39.40796
G1 X66.940 Y32.337 E39.45369
G1 X85.460 Y50.858 E41.02851
G1 X85.460 Y51.618 E41.07424
G1 X66.940 Y33.097 E42.64906
G1 X66.940 Y33.858 E42.69478
G1 X85.460 Y52.379 E44.26960
G1 X85.460 Y53.139 E44.31533
G1 X66.940 Y34.618 E45.89015
G1 X66.940 Y35.379 E45.93588
G1 X85.460 Y53.900 E47.51070
G1 X85.460 Y54.660 E47.55642
G1 X66.940 Y36.139 E49.13125
G1 X66.940 Y36.900 E49.17697
G1 X85.460 Y55.421 E50.75179
G1 X85.460 Y56.181 E50.79752
G1 X66.940 Y37.660 E52.37234
G1 X66.940 Y38.421 E52.41807
G1 X85.460 Y56.942 E53.99289
G1 X85.460 Y57.702 E54.03861
G1 X66.940 Y39.181 E55.61344
G1 X66.940 Y39.942 E55.65916
G1 X85.460 Y58.463 E57.23398
G1 X85.460 Y59.223 E57.27971
G1 X66.940 Y40.702 E58.85453
G1 X66.940 Y41.463 E58.90026
G1 X85.460 Y59.984 E60.47508
G1 X85.460 Y60.744 E60.52080
G1 X66.940 Y42.223 E62.09563
G1 X66.940 Y42.984 E62.14135
G1 X85.460 Y61.505 E63.71617
G1 X85.460 Y62.265 E63.76190
G1 X66.940 Y43.744 E65.33672
G1 X66.940 Y44.505 E65.38245
G1 X85.460 Y63.026 E66.95727
G1 X85.460 Y63.786 E67.00299
G1 X66.940 Y45.265 E68.57782
G1 X66.940 Y46.026 E68.62354
G1 X85.460 Y64.547 E70.19836
G1 X85.460 Y65.307 E70.24409
G1 X66.940 Y46.786 E71.81891
G1 X66.940 Y47.547 E71.86464
G1 X85.460 Y66.068 E73.43946
G1 X85.460 Y66.828 E73.48518
G1 X66.940 Y48.307 E75.06001
G1 X66.940 Y49.068 E75.10573
G1 X85.460 Y67.589 E76.68055
G1 X85.460 Y68.349 E76.72628
G1 X66.940 Y49.828 E78.30110
G1 X66.940 Y50.589 E78.34683
G1 X85.460 Y69.110 E79.92165
G1 X85.460 Y69.870 E79.96737
G1 X66.940 Y51.349 E81.54220
G1 X66.940 Y52.110 E81.58792
G1 X85.460 Y70.631 E83.16274
G1 X85.460 Y71.391 E83.20847
G1 X66.940 Y52.870 E84.78329
G1 X66.940 Y53.631 E84.82902
G1 X85.460 Y72.152 E86.40384
G1 X85.460 Y72.912 E86.44956
G1 X66.940 Y54.391 E88.02438
G1 X66.940 Y55.152 E88.07011
G1 X85.460 Y73.673 E89.64493
G1 X85.460 Y74.433 E89.69066
G1 X66.940 Y55.912 E91.26548
G1 X66.940 Y56.673 E91.31120
G1 X85.460 Y75.194 E92.88603
G1 X85.460 Y75.954 E92.93175
G1 X66.940 Y57.433 E94.50657
G1 X66.940 Y58.194 E94.55230
G1 X85.460 Y76.715 E96.12712
G1 X85.460 Y77.475 E96.17285
G1 X66.940 Y58.954 E97.74767
G1 X66.940 Y59.715 E97.79339
G1 X85.460 Y78.236 E99.36822
G1 X85.460 Y78.996 E99.41394
G1 X66.940 Y60.475 E100.98876
G1 X66.940 Y61.236 E101.03449
G1 X85.460 Y79.757 E102.60931
G1 X85.460 Y80.517 E102.65504
G1 X66.940 Y61.996 E104.22986
G1 X66.940 Y62.757 E104.27558
G1 X85.460 Y81.278 E105.85041
G1 X85.460 Y82.038 E105.89613
G1 X66.940 Y63.517 E107.47095
G1 X66.940 Y64.278 E107.51668
G1 X85.460 Y82.799 E109.09150
G1 X85.460 Y83.559 E109.13723
G1 X66.940 Y65.038 E110.71205
G1 X66.940 Y65.799 E110.75777
G1 X85.460 Y84.320 E112.33260
G1 X85.460 Y85.080 E112.37832
G1 X66.940 Y66.559 E113.95314
G1 X66.940 Y67.320 E113.99887
G1 X85.460 Y85.841 E115.57369
G1 X85.460 Y86.601 E115.61942
G1 X66.940 Y68.080 E117.19424
G1 X66.940 Y68.841 E117.23996
G1 X85.460 Y87.362 E118.81479
G1 X85.460 Y88.122 E118.86051
G1 X66.940 Y69.601 E120.43533
G1 X66.940 Y70.362 E120.48106
G1 X85.460 Y88.883 E122.05588
G1 X85.460 Y89.643 E122.10161
G1 X66.940 Y71.122 E123.67643
G1 X66.940 Y71.883 E123.72215
G1 X85.460 Y90.404 E125.29697
G1 X85.460 Y91.164 E125.34270
G1 X66.940 Y72.643 E126.91752
G1 X66.940 Y73.404 E126.96325
G1 X85.460 Y91.925 E128.53807
G1 X85.460 Y92.685 E128.58379
G1 X66.940 Y74.164 E130.15862
G1 X66.940 Y74.925 E130.20434
G1 X85.460 Y93.446 E131.77916
G1 X85.460 Y94.206 E131.82489
G1 X66.940 Y75.685 E133.39971
G1 X66.940 Y76.446 E133.44544
G1 X85.460 Y94.967 E135.02026
G1 X85.460 Y95.727 E135.06598
G1 X66.940 Y77.206 E136.64081
G1 X66.940 Y77.967 E136.68653
G1 X85.460 Y96.488 E138.26135
G1 X85.460 Y97.248 E138.30708
G1 X66.940 Y78.727 E139.88190
G1 X66.940 Y79.488 E139.92763
G1 X85.460 Y98.009 E141.50245
G1 X85.460 Y98.769 E141.54817
G1 X66.940 Y80.248 E143.12300
G1 X66.940 Y81.009 E143.16872
G1 X85.460 Y99.530 E144.74354
G1 X85.460 Y100.290 E144.78927
G1 X66.940 Y81.769 E146.36409
G1 X66.940 Y82.530 E146.40982
G1 X85.460 Y101.051 E147.98464
G1 X85.460 Y101.811 E148.03036
G1 X66.940 Y83.290 E149.60519
G1 X66.940 Y84.051 E149.65091
G1 X85.460 Y102.572 E151.22573
G1 X85.460 Y103.332 E151.27146
G1 X66.940 Y84.811 E152.84628
G1 X66.940 Y85.572 E152.89201
G1 X85.460 Y104.093 E154.46683
G1 X85.460 Y104.853 E154.51255
G1 X66.940 Y86.332 E156.08738
G1 X66.940 Y87.093 E156.13310
G1 X85.460 Y105.614 E157.70792
G1 X85.460 Y106.374 E157.75365
G1 X66.940 Y87.853 E159.32847
G1 X66.940 Y88.614 E159.37420
G1 X85.460 Y107.135 E160.94902
G1 X85.460 Y107.895 E160.99474
G1 X66.940 Y89.374 E162.56957
G1 X66.940 Y90.135 E162.61529
G1 X85.460 Y108.656 E164.19011
G1 X85.460 Y109.416 E164.23584
G1 X66.940 Y90.895 E165.81066
G1 X66.940 Y91.656 E165.85639
G1 X85.460 Y110.177 E167.43121
G1 X85.460 Y110.937 E167.47693
G1 X66.940 Y92.416 E169.05176
G1 X66.940 Y93.177 E169.09748
G1 X85.460 Y111.698 E170.67230
G1 X85.460 Y112.458 E170.71803
G1 X66.940 Y93.937 E172.29285
G1 X66.940 Y94.698 E172.33858
G1 X85.460 Y113.219 E173.91340
G1 X85.460 Y113.979 E173.95912
G1 X66.940 Y95.458 E175.53395
G1 X66.940 Y96.219 E175.57967
G1 X85.460 Y114.740 E177.15449
G1 X85.460 Y115.500 E177.20022
G1 X66.940 Y96.979 E178.77504
G1 X66.940 Y97.740 E178.82076
G1 X85.460 Y116.261 E180.39559
G1 X85.460 Y117.021 E180.44131
G1 X66.940 Y98.500 E182.01613
G1 X66.940 Y99.261 E182.06186
G1 X85.460 Y117.782 E183.63668
G1 X85.460 Y118.542 E183.68241
G1 X66.940 Y100.021 E185.25723
G1 X66.940 Y100.782 E185.30295
G1 X85.460 Y119.303 E186.87778
G1 X85.460 Y120.063 E186.92350
G1 X66.940 Y101.542 E188.49832
G1 X66.940 Y102.303 E188.54405
G1 X85.460 Y120.824 E190.11887
G1 X85.460 Y121.584 E190.16460
G1 X66.940 Y103.063 E191.73942
G1 X66.940 Y103.824 E191.78514
G1 X85.460 Y122.345 E193.35997
G1 X85.460 Y123.105 E193.40569
G1 X66.940 Y104.584 E194.98051
G1 X66.940 Y105.345 E195.02624
G1 X85.460 Y123.866 E196.60106
G1 X85.460 Y124.626 E196.64679
G1 X66.940 Y106.105 E198.22161
G1 X66.940 Y106.866 E198.26733
G1 X85.460 Y125.387 E199.84216
G1 X85.460 Y126.147 E199.88788
G1 X66.940 Y107.626 E201.46270
G1 X66.940 Y108.387 E201.50843
G1 X85.460 Y126.908 E203.08325
G1 X85.460 Y127.668 E203.12898
G1 X66.940 Y109.147 E204.70380
G1 X66.940 Y109.908 E204.74952
G1 X85.460 Y128.429 E206.32435
G1 X85.232 Y128.960 E206.35915
G1 X66.940 Y110.668 E207.91451
G1 X66.940 Y111.429 E207.96023
G1 X84.471 Y128.960 E209.45093
G1 X83.711 Y128.960 E209.49666
G1 X66.940 Y112.189 E210.92269
G1 X66.940 Y112.950 E210.96841
G1 X82.950 Y128.960 E212.32978
G1 X82.190 Y128.960 E212.37550
G1 X66.940 Y113.710 E213.67221
G1 X66.940 Y114.471 E213.71793
G1 X81.429 Y128.960 E214.94997
G1 X80.669 Y128.960 E214.99569
G1 X66.940 Y115.231 E216.16307
G1 X66.940 Y115.992 E216.20879
G1 X79.908 Y128.960 E217.31150
G1 X79.148 Y128.960 E217.35722
G1 X66.940 Y116.752 E218.39526
G1 X66.940 Y117.513 E218.44099
G1 X78.387 Y128.960 E219.41437
G1 X77.627 Y128.960 E219.46009
G1 X66.940 Y118.273 E220.36880
G1 X66.940 Y119.034 E220.41453
G1 X76.866 Y128.960 E221.25857
G1 X76.106 Y128.960 E221.30430
G1 X66.940 Y119.794 E222.08368
G1 X66.940 Y120.555 E222.12941
G1 X75.345 Y128.960 E222.84412
G1 X74.585 Y128.960 E222.88985
G1 X66.940 Y121.315 E223.53990
G1 X66.940 Y122.076 E223.58562
G1 X73.824 Y128.960 E224.17101
G1 X73.064 Y128.960 E224.21674
G1 X66.940 Y122.836 E224.73746
G1 X66.940 Y123.597 E224.78318
G1 X72.303 Y128.960 E225.23924
G1 X71.543 Y128.960 E225.28496
G1 X66.940 Y124.357 E225.67635
G1 X66.940 Y125.118 E225.72208
G1 X70.782 Y128.960 E226.04881
G1 X70.022 Y128.960 E226.09453
G1 X66.940 Y125.878 E226.35659
G1 X66.940 Y126.639 E226.40232
G1 X69.261 Y128.960 E226.59971
G1 X68.501 Y128.960 E226.64544
G1 X66.940 Y127.399 E226.77817
G1 X66.940 Y128.160 E226.82390
G1 X67.740 Y128.960 E226.89196
G1 X66.980 Y128.960 E226.93769
G1 X66.940 Y128.920 E226.94109
M104 S190 ; set temperature
G1 F1800.000 E225.94109
G92 E0
G1 Z0.500 F4800.000
G1 X66.521 Y129.379 F4800.000
G1 E1.00000 F1800.000
G1 X66.521 Y23.021 E6.00100 F3000.000
G1 X85.879 Y23.021 E6.91122
G1 X85.879 Y129.379 E11.91221
G1 X66.581 Y129.379 E12.81961
G1 X65.893 Y130.007 F4800.000
G1 X65.893 Y22.393 E17.87969 F3000.000
G1 X86.507 Y22.393 E18.84900
G1 X86.507 Y130.007 E23.90908
G1 X65.953 Y130.007 E24.87557
G1 X65.400 Y130.500 F4800.000
G1 X65.400 Y21.900 E29.98198 F2700.000
G1 X87.000 Y21.900 E30.99763
G1 X87.000 Y130.500 E36.10404
G1 X65.460 Y130.500 E37.11686
G1 X65.600 Y130.154 F4800.000
G1 F1800.000 E36.11686
G92 E0
G1 X85.443 Y128.903 F4800.000
G1 E1.00000 F1800.000
G1 X85.403 Y128.943 E1.00266 F3600.000
G1 X84.512 Y128.943 E1.04457
G1 X85.443 Y128.012 E1.10650
G1 X85.443 Y127.121 E1.14841
G1 X83.621 Y128.943 E1.26961
G1 X82.730 Y128.943 E1.31152
G1 X85.443 Y126.229 E1.49199
G1 X85.443 Y125.338 E1.53390
G1 X81.838 Y128.943 E1.77364
G1 X80.947 Y128.943 E1.81555
G1 X85.443 Y124.447 E2.11456
G1 X85.443 Y123.556 E2.15647
G1 X80.056 Y128.943 E2.51476
G1 X79.164 Y128.943 E2.55667
G1 X85.443 Y122.664 E2.97422
G1 X85.443 Y121.773 E3.01613
G1 X78.273 Y128.943 E3.49295
G1 X77.382 Y128.943 E3.53486
G1 X85.443 Y120.882 E4.07095
G1 X85.443 Y119.990 E4.11286
G1 X76.490 Y128.943 E4.70822
G1 X75.599 Y128.943 E4.75013
G1 X85.443 Y119.099 E5.40477
G1 X85.443 Y118.208 E5.44668
G1 X74.708 Y128.943 E6.16058
G1 X73.816 Y128.943 E6.20249
G1 X85.443 Y117.316 E6.97566
G1 X85.443 Y116.425 E7.01757
G1 X72.925 Y128.943 E7.85002
G1 X72.034 Y128.943 E7.89193
G1 X85.443 Y115.534 E8.78364
G1 X85.443 Y114.642 E8.82555
G1 X71.142 Y128.943 E9.77653
G1 X70.251 Y128.943 E9.81844
G1 X85.443 Y113.751 E10.82870
G1 X85.443 Y112.860 E10.87061
G1 X69.360 Y128.943 E11.94013
G1 X68.468 Y128.943 E11.98204
G1 X85.443 Y111.968 E13.11084
G1 X85.443 Y111.077 E13.15275
G1 X67.577 Y128.943 E14.34081
G1 X66.957 Y128.673 E14.37265
G1 X85.443 Y110.186 E15.60197
G1 X85.443 Y109.294 E15.64388
G1 X66.957 Y127.781 E16.87320
G1 X66.957 Y126.890 E16.91512
G1 X85.443 Y108.403 E18.14444
G1 X85.443 Y107.512 E18.18635
G1 X66.957 Y125.999 E19.41567
G1 X66.957 Y125.107 E19.45759
G1 X85.443 Y106.620 E20.68691
G1 X85.443 Y105.729 E20.72882
G1 X66.957 Y124.216 E21.95814
G1 X66.957 Y123.325 E22.00006
G1 X85.443 Y104.838 E23.22938
G1 X85.443 Y103.946 E23.27129
G1 X66.957 Y122.433 E24.50061
G1 X66.957 Y121.542 E24.54253
G1 X85.443 Y103.055 E25.77185
G1 X85.443 Y102.164 E25.81376
G1 X66.957 Y120.651 E27.04308
G1 X66.957 Y119.759 E27.08500
G1 X85.443 Y101.272 E28.31432
G1 X85.443 Y100.381 E28.35623
G1 X66.957 Y118.868 E29.58555
G1 X66.957 Y117.977 E29.62747
G1 X85.443 Y99.490 E30.85679
G1 X85.443 Y98.598 E30.89870
G1 X66.957 Y117.085 E32.12803
G1 X66.957 Y116.194 E32.16994
G1 X85.443 Y97.707 E33.39926
G1 X85.443 Y96.816 E33.44117
G1 X66.957 Y115.303 E34.67050
G1 X66.957 Y114.411 E34.71241
