; generated by Slic3r 1.2.0 on 2014-09-26 at 20:19:25

; external perimeters extrusion width = 0.40mm
; perimeters extrusion width = 0.67mm
; infill extrusion width = 0.67mm
; solid infill extrusion width = 0.67mm
; top infill extrusion width = 0.67mm

G21 ; set units to millimeters
M107
M104 S195 ; set temperature
G28 X0 Y0  
G29
M109 S195 ; wait for temperature to be reached
G90 ; use absolute coordinates
G92 E0
M82 ; use absolute distances for extrusion
G1 F1800.000 E-1.00000
G92 E0
G1 Z0.300 F4800.000
G1 X44.064 Y54.906 F4800.000
G1 E1.00000 F1800.000
G1 X45.934 Y53.982 E1.12263 F1200.000
G1 X58.793 Y49.695 E1.91947
G1 X61.198 Y49.305 E2.06274
G1 X91.202 Y49.305 E3.82662
G1 X93.607 Y49.695 E3.96989
G1 X106.466 Y53.982 E4.76673 F1200.000
G1 X108.642 Y55.126 E4.91128
G1 X110.340 Y56.905 E5.05582
G1 X111.381 Y59.132 E5.20037
G1 X111.667 Y61.198 E5.32300
G1 X111.667 Y74.057 E6.07895
G1 X111.123 Y76.882 E6.24809
G1 X102.551 Y98.313 E7.60506
G1 X101.281 Y100.419 E7.74961
G1 X99.406 Y102.009 E7.89415
G1 X97.121 Y102.918 E8.03870
G1 X95.488 Y103.095 E8.13526
G1 X56.912 Y103.095 E10.40311
G1 X54.485 Y102.698 E10.54765
G1 X52.313 Y101.547 E10.69220
G1 X50.620 Y99.763 E10.83675
G1 X49.849 Y98.313 E10.93330
G1 X41.277 Y76.882 E12.29027
G1 X40.733 Y74.057 E12.45941
G1 X40.733 Y61.198 E13.21536
G1 X41.130 Y58.772 E13.35991
G1 X42.280 Y56.599 E13.50446
G1 X44.021 Y54.948 E13.64548
G1 X44.399 Y55.371 F4800.000
G1 X44.580 Y55.209 E13.65977 F1200.000
G1 X46.103 Y54.490 E13.75880
G1 X58.962 Y50.204 E14.55565
G1 X61.198 Y49.841 E14.68882
G1 X91.202 Y49.841 E16.45271
G1 X93.438 Y50.204 E16.58589
G1 X106.297 Y54.490 E17.38273 F1200.000
G1 X108.388 Y55.605 E17.52206
G1 X109.993 Y57.349 E17.66139
G1 X110.931 Y59.526 E17.80072
G1 X111.132 Y61.198 E17.89975
G1 X111.132 Y74.057 E18.65570
G1 X110.626 Y76.683 E18.81293
G1 X102.054 Y98.114 E20.16990
G1 X100.817 Y100.136 E20.30923
G1 X98.982 Y101.636 E20.44856
G1 X96.754 Y102.445 E20.58789
G1 X95.488 Y102.559 E20.66263
G1 X56.912 Y102.559 E22.93048
G1 X54.575 Y102.162 E23.06981
G1 X52.501 Y101.015 E23.20914
G1 X50.923 Y99.248 E23.34847
G1 X50.346 Y98.114 E23.42321
G1 X41.774 Y76.683 E24.78018
G1 X41.268 Y74.057 E24.93741
G1 X41.268 Y61.198 E25.69336
G1 X41.665 Y58.862 E25.83269
G1 X42.812 Y56.788 E25.97202
G1 X44.354 Y55.411 E26.09353
G1 X44.713 Y55.842 F4800.000
G1 X45.093 Y55.526 E26.12257 F1200.000
G1 X46.273 Y54.998 E26.19856
G1 X59.131 Y50.712 E26.99540
G1 X61.198 Y50.376 E27.11849
G1 X91.202 Y50.376 E28.88237
G1 X93.269 Y50.712 E29.00546
G1 X106.127 Y54.998 E29.80230 F1200.000
G1 X108.130 Y56.084 E29.93622
G1 X109.638 Y57.791 E30.07013
G1 X110.468 Y59.912 E30.20404
G1 X110.596 Y61.198 E30.28003
G1 X110.596 Y74.057 E31.03598
G1 X110.129 Y76.484 E31.18130
G1 X101.556 Y97.915 E32.53827
G1 X100.355 Y99.851 E32.67218
G1 X98.562 Y101.256 E32.80609
G1 X95.488 Y102.024 E32.99235
G1 X56.912 Y102.024 E35.26020
G1 X54.669 Y101.627 E35.39411
G1 X52.698 Y100.484 E35.52803
G1 X50.844 Y97.915 E35.71429
G1 X42.271 Y76.484 E37.07126
G1 X41.804 Y74.057 E37.21658
G1 X41.804 Y61.198 E37.97253
G1 X42.201 Y58.955 E38.10644
G1 X43.343 Y56.985 E38.24035
G1 X44.667 Y55.881 E38.34170
G1 F1800.000 E37.34170
G92 E0
G1 X81.258 Y72.686 F4800.000
G1 E1.00000 F1800.000
G1 X88.287 Y72.686 E1.41321 F1500.000
G1 X88.287 Y79.714 E1.82642
G1 X81.258 Y79.714 E2.23963
G1 X81.258 Y72.746 E2.64931
G1 X81.794 Y73.221 F4800.000
G1 X87.751 Y73.221 E2.99955 F1500.000
G1 X87.751 Y79.179 E3.34978
G1 X81.794 Y79.179 E3.70001
G1 X81.794 Y73.281 E4.04672
G1 X82.329 Y73.757 F4800.000
G1 X87.216 Y73.757 E4.33398 F1350.000
G1 X87.216 Y78.643 E4.62123
G1 X82.329 Y78.643 E4.90849
G1 X82.329 Y73.817 E5.19222
G1 X82.329 Y73.357 F4800.000
G1 F1800.000 E4.19222
G92 E0
G1 X71.142 Y72.686 F4800.000
G1 E1.00000 F1800.000
G1 X71.142 Y79.714 E1.41321 F1500.000
G1 X64.113 Y79.714 E1.82642
G1 X64.113 Y72.686 E2.23963
G1 X71.082 Y72.686 E2.64931
G1 X70.606 Y73.221 F4800.000
G1 X70.606 Y79.179 E2.99955 F1500.000
G1 X64.649 Y79.179 E3.34978
G1 X64.649 Y73.221 E3.70001
G1 X70.546 Y73.221 E4.04672
G1 X70.071 Y73.757 F4800.000
G1 X70.071 Y78.643 E4.33397 F1350.000
G1 X65.184 Y78.643 E4.62123
G1 X65.184 Y73.757 E4.90849
G1 X70.011 Y73.757 E5.19222
G1 X70.471 Y73.757 F4800.000
G1 F1800.000 E4.19222
G92 E0
G1 X73.757 Y82.329 F4800.000
G1 E1.00000 F1800.000
G1 X78.643 Y82.329 E1.28726 F1350.000
G1 X78.643 Y86.108 E1.50939
G1 X73.757 Y86.108 E1.79665
G1 X73.757 Y82.389 E2.01526
G1 X73.757 Y81.929 F4800.000
G1 F1800.000 E1.01526
G92 E0
G1 X61.970 Y92.573 F4800.000
G1 E1.00000 F1800.000
G1 X61.970 Y94.117 E1.09076 F1500.000
G1 X58.283 Y94.117 E1.30751
G1 X58.283 Y92.573 E1.39826
G1 X61.910 Y92.573 E1.61148
G1 F1800.000 E0.61148
G92 E0
G1 X90.430 Y92.573 F4800.000
G1 E1.00000 F1800.000
G1 X94.117 Y92.573 E1.21675 F1500.000
G1 X94.117 Y94.117 E1.30750
G1 X90.430 Y94.117 E1.52425
G1 X90.430 Y92.633 E1.61148
G1 F1800.000 E0.61148
G92 E0
G1 X85.544 Y88.287 F4800.000
G1 E1.00000 F1800.000
G1 X89.831 Y88.287 E1.25198 F1500.000
G1 X89.831 Y89.831 E1.34274
G1 X84.001 Y89.831 E1.68548
G1 X84.001 Y81.258 E2.18945
G1 X68.399 Y81.258 E3.10662
G1 X68.399 Y89.831 E3.61059
G1 X62.569 Y89.831 E3.95333
G1 X62.569 Y88.287 E4.04409
G1 X66.856 Y88.287 E4.29607
G1 X66.856 Y81.258 E4.70928
G1 X58.283 Y81.258 E5.21325
G1 X58.283 Y76.972 E5.46523
G1 X53.997 Y76.972 E5.71721
G1 X53.997 Y72.686 E5.96920
G1 X49.711 Y72.686 E6.22118
G1 X49.711 Y62.569 E6.81590
G1 X51.254 Y62.569 E6.90666
G1 X51.254 Y71.142 E7.41063
G1 X58.283 Y71.142 E7.82384
G1 X58.283 Y62.569 E8.32780
G1 X62.569 Y62.569 E8.57979
G1 X62.569 Y58.283 E8.83177
G1 X72.686 Y58.283 E9.42649
G1 X72.686 Y59.827 E9.51725
G1 X64.113 Y59.827 E10.02122
G1 X64.113 Y66.856 E10.43443
G1 X88.287 Y66.856 E11.85557
G1 X88.287 Y59.827 E12.26878
G1 X79.714 Y59.827 E12.77275
G1 X79.714 Y58.283 E12.86350
G1 X89.831 Y58.283 E13.45823
G1 X89.831 Y62.569 E13.71021
G1 X94.117 Y62.569 E13.96219
G1 X94.117 Y71.142 E14.46616
G1 X101.146 Y71.142 E14.87937
G1 X101.146 Y62.569 E15.38334
G1 X102.689 Y62.569 E15.47409
G1 X102.689 Y72.686 E16.06882
G1 X98.403 Y72.686 E16.32080
G1 X98.403 Y76.972 E16.57278
G1 X94.117 Y76.972 E16.82477
G1 X94.117 Y81.258 E17.07675
G1 X85.544 Y81.258 E17.58072
G1 X85.544 Y88.227 E17.99040
G1 X86.080 Y87.751 F4800.000
G1 X90.366 Y87.751 E18.24238 F1500.000
G1 X90.366 Y92.037 E18.49437
G1 X94.653 Y92.037 E18.74635
G1 X94.653 Y94.653 E18.90008
G1 X89.894 Y94.653 E19.17981
G1 X89.894 Y90.366 E19.43179
G1 X83.465 Y90.366 E19.80976
G1 X83.465 Y81.794 E20.31373
G1 X68.935 Y81.794 E21.16793
G1 X68.935 Y90.366 E21.67190
G1 X62.506 Y90.366 E22.04987
G1 X62.506 Y94.653 E22.30186
G1 X57.747 Y94.653 E22.58158
G1 X57.747 Y92.037 E22.73532
G1 X62.034 Y92.037 E22.98730
G1 X62.034 Y87.751 E23.23928
G1 X66.320 Y87.751 E23.49127
G1 X66.320 Y81.794 E23.84150
G1 X57.747 Y81.794 E24.34547
G1 X57.747 Y77.507 E24.59745
G1 X53.461 Y77.507 E24.84943
G1 X53.461 Y73.221 E25.10142
G1 X49.175 Y73.221 E25.35340
G1 X49.175 Y62.034 E26.01110
G1 X51.790 Y62.034 E26.16483
G1 X51.790 Y70.606 E26.66880
G1 X57.747 Y70.606 E27.01903
G1 X57.747 Y62.034 E27.52300
G1 X62.034 Y62.034 E27.77498
G1 X62.034 Y57.747 E28.02697
G1 X73.221 Y57.747 E28.68467
G1 X73.221 Y60.363 E28.83840
G1 X64.649 Y60.363 E29.34237
G1 X64.649 Y66.320 E29.69260
G1 X87.751 Y66.320 E31.05077
G1 X87.751 Y60.363 E31.40100
G1 X79.179 Y60.363 E31.90497
G1 X79.179 Y57.747 E32.05870
G1 X90.366 Y57.747 E32.71640
G1 X90.366 Y62.034 E32.96838
G1 X94.653 Y62.034 E33.22037
G1 X94.653 Y70.606 E33.72433
G1 X100.610 Y70.606 E34.07457
G1 X100.610 Y62.034 E34.57853
G1 X103.225 Y62.034 E34.73227
G1 X103.225 Y73.221 E35.38997
G1 X98.939 Y73.221 E35.64195
G1 X98.939 Y77.507 E35.89393
G1 X94.653 Y77.507 E36.14592
G1 X94.653 Y81.794 E36.39790
G1 X86.080 Y81.794 E36.90187
G1 X86.080 Y87.691 E37.24857
G1 X86.616 Y87.216 F4800.000
G1 X90.902 Y87.216 E37.50056 F1350.000
G1 X90.902 Y91.502 E37.75254
G1 X95.188 Y91.502 E38.00452
G1 X95.188 Y95.188 E38.22123
G1 X89.359 Y95.188 E38.56393
G1 X89.359 Y90.902 E38.81592
G1 X82.929 Y90.902 E39.19389
G1 X82.929 Y82.329 E39.69786
G1 X79.115 Y82.329 E39.92212
G1 X79.115 Y86.616 E40.17410
G1 X73.285 Y86.616 E40.51680
G1 X73.285 Y82.329 E40.76879
G1 X69.471 Y82.329 E40.99305
G1 X69.471 Y90.902 E41.49702
G1 X63.041 Y90.902 E41.87499
G1 X63.041 Y95.188 E42.12697
G1 X57.212 Y95.188 E42.46968
G1 X57.212 Y91.502 E42.68639
G1 X61.498 Y91.502 E42.93837
G1 X61.498 Y87.216 E43.19035
G1 X65.784 Y87.216 E43.44234
G1 X65.784 Y82.329 E43.72959
G1 X57.212 Y82.329 E44.23356
G1 X57.212 Y78.043 E44.48554
G1 X52.926 Y78.043 E44.73753
G1 X52.926 Y73.757 E44.98951
G1 X48.639 Y73.757 E45.24149
G1 X48.639 Y61.498 E45.96217
G1 X52.326 Y61.498 E46.17888
G1 X52.326 Y70.071 E46.68285
G1 X57.212 Y70.071 E46.97010
G1 X57.212 Y61.498 E47.47407
G1 X61.498 Y61.498 E47.72605
G1 X61.498 Y57.212 E47.97804
G1 X73.757 Y57.212 E48.69871
G1 X73.757 Y60.898 E48.91542
G1 X65.184 Y60.898 E49.41939
G1 X65.184 Y65.784 E49.70665
G1 X87.216 Y65.784 E51.00184
G1 X87.216 Y60.898 E51.28909
G1 X78.643 Y60.898 E51.79306
G1 X78.643 Y57.212 E52.00977
G1 X90.902 Y57.212 E52.73045
G1 X90.902 Y61.498 E52.98243
G1 X95.188 Y61.498 E53.23441
G1 X95.188 Y70.071 E53.73838
G1 X100.074 Y70.071 E54.02564
G1 X100.074 Y61.498 E54.52960
G1 X103.761 Y61.498 E54.74631
G1 X103.761 Y73.757 E55.46699
G1 X99.474 Y73.757 E55.71897
G1 X99.474 Y78.043 E55.97096
G1 X95.188 Y78.043 E56.22294
G1 X95.188 Y82.329 E56.47492
G1 X86.616 Y82.329 E56.97889
G1 X86.616 Y87.156 E57.26262
G1 X86.616 Y87.616 F4800.000
G1 F1800.000 E56.26262
G92 E0
G1 X90.838 Y93.749 F4800.000
G1 E1.00000 F1800.000
G1 X90.798 Y93.709 E1.00333 F1800.000
G1 X90.951 Y92.941 E1.04931
G1 X91.758 Y93.749 E1.11641
G1 X91.870 Y92.941 E1.16432
G1 X92.677 Y93.749 E1.23143
G1 X92.789 Y92.941 E1.27934
G1 X93.596 Y93.749 E1.34644
G1 X93.749 Y92.981 E1.39242
G1 X93.709 Y92.941 E1.39575
G1 F1800.000 E0.39575
G92 E0
G1 X89.462 Y89.156 F4800.000
G1 E1.00000 F1800.000
G1 X88.961 Y88.655 E1.04168 F1800.000
G1 X88.196 Y88.655 E1.08668
G1 X89.003 Y89.462 E1.15379
G1 X88.237 Y89.462 E1.19879
G1 X87.430 Y88.655 E1.26590
G1 X86.665 Y88.655 E1.31089
G1 X87.472 Y89.462 E1.37800
G1 X86.706 Y89.462 E1.42300
G1 X85.899 Y88.655 E1.49011
G1 X84.410 Y89.462 F4800.000
G1 X84.369 Y89.421 E1.49353 F1800.000
G1 X84.369 Y88.656 E1.53853
G1 X85.176 Y89.462 E1.60559
G1 X85.941 Y89.462 E1.65059
G1 X84.369 Y87.890 E1.78129
G1 X84.369 Y87.125 E1.82629
G1 X85.176 Y87.932 E1.89339
G1 X85.176 Y87.167 E1.93839
G1 X84.369 Y86.359 E2.00550
G1 X84.369 Y85.594 E2.05050
G1 X85.176 Y86.401 E2.11761
G1 X85.176 Y85.636 E2.16261
G1 X84.369 Y84.829 E2.22972
G1 X84.369 Y84.063 E2.27472
G1 X85.176 Y84.870 E2.34182
G1 X85.176 Y84.105 E2.38682
G1 X84.369 Y83.298 E2.45393
G1 X84.369 Y82.532 E2.49893
G1 X85.176 Y83.339 E2.56604
G1 X85.176 Y82.574 E2.61104
G1 X84.369 Y81.767 E2.67815
G1 F1800.000 E1.67815
G92 E0
G1 X80.430 Y80.890 F4800.000
G1 E1.00000 F1800.000
G1 X66.764 Y67.224 E2.13618 F1800.000
G1 F1800.000 E1.13618
G92 E0
G1 X64.468 Y67.224 F4800.000
G1 E1.00000 F1800.000
G1 X69.561 Y72.317 E1.42347 F1800.000
G1 X70.327 Y72.317 E1.46847
G1 X65.233 Y67.224 E1.89193
G1 X65.999 Y67.224 E1.93693
G1 X79.665 Y80.890 E3.07311
G1 X78.899 Y80.890 E3.11811
G1 X71.510 Y73.501 E3.73245
G1 X71.510 Y74.266 E3.77745
G1 X78.134 Y80.890 E4.32814
G1 X77.368 Y80.890 E4.37314
G1 X71.510 Y75.032 E4.86020
G1 X71.510 Y75.797 E4.90520
G1 X76.603 Y80.890 E5.32861
G1 X75.838 Y80.890 E5.37361
G1 X71.510 Y76.562 E5.73339
G1 X71.510 Y77.328 E5.77839
G1 X75.072 Y80.890 E6.07453
G1 X74.307 Y80.890 E6.11953
G1 X71.510 Y78.093 E6.35203
G1 X71.510 Y78.859 E6.39703
G1 X73.541 Y80.890 E6.56589
G1 X72.776 Y80.890 E6.61089
G1 X71.510 Y79.624 E6.71612
G1 X71.203 Y80.083 E6.74855
G1 X72.010 Y80.890 E6.81566
G1 X71.245 Y80.890 E6.86066
G1 X70.438 Y80.083 E6.92777
G1 X69.672 Y80.083 E6.97277
G1 X70.479 Y80.890 E7.03987
G1 X69.714 Y80.890 E7.08487
G1 X68.907 Y80.083 E7.15198
G1 X68.141 Y80.083 E7.19698
G1 X68.949 Y80.890 E7.26409
G1 X68.183 Y80.890 E7.30909
G1 X67.376 Y80.083 E7.37619
G1 X66.611 Y80.083 E7.42119
G1 X68.031 Y81.503 E7.53930
G1 X68.031 Y82.269 E7.58430
G1 X67.224 Y81.461 E7.65141
G1 X67.224 Y82.227 E7.69640
G1 X68.031 Y83.034 E7.76351
G1 X68.031 Y83.800 E7.80851
G1 X67.224 Y82.992 E7.87562
G1 X67.224 Y83.758 E7.92062
G1 X68.031 Y84.565 E7.98773
G1 X68.031 Y85.330 E8.03273
G1 X67.224 Y84.523 E8.09983
G1 X67.224 Y85.289 E8.14483
G1 X68.031 Y86.096 E8.21194
G1 X68.031 Y86.861 E8.25694
G1 X67.224 Y86.054 E8.32405
G1 X67.224 Y86.820 E8.36905
G1 X68.031 Y87.627 E8.43615
G1 X68.031 Y88.392 E8.48115
G1 X67.224 Y87.585 E8.54826
G1 X67.224 Y88.350 E8.59326
G1 X68.031 Y89.158 E8.66037
G1 X67.570 Y89.462 E8.69284
G1 X66.763 Y88.655 E8.75995
G1 X65.998 Y88.655 E8.80495
G1 X66.805 Y89.462 E8.87206
G1 X66.039 Y89.462 E8.91706
G1 X65.232 Y88.655 E8.98416
G1 X64.467 Y88.655 E9.02916
G1 X65.274 Y89.462 E9.09627
G1 X64.509 Y89.462 E9.14127
G1 X63.701 Y88.655 E9.20838
G1 X62.938 Y88.657 E9.25328
G1 X63.743 Y89.462 E9.32024
G1 X62.978 Y89.462 E9.36524
G1 X62.938 Y89.422 E9.36857
G1 F1800.000 E8.36857
G92 E0
G1 X62.825 Y80.890 F4800.000
G1 E1.00000 F1800.000
G1 X53.445 Y71.510 E1.77982 F1800.000
G1 X54.211 Y71.510 E1.82482
G1 X63.590 Y80.890 E2.60465
G1 X64.356 Y80.890 E2.64965
G1 X54.976 Y71.510 E3.42947
G1 X55.742 Y71.510 E3.47447
G1 X63.745 Y79.513 E4.13985
G1 X63.745 Y78.748 E4.18485
G1 X56.507 Y71.510 E4.78659
G1 X57.273 Y71.510 E4.83159
G1 X63.745 Y77.982 E5.36969
G1 X63.745 Y77.217 E5.41469
G1 X58.038 Y71.510 E5.88915
G1 X58.651 Y71.358 E5.92630
G1 X63.745 Y76.452 E6.34977
G1 X63.745 Y75.686 E6.39477
G1 X58.651 Y70.593 E6.81823
G1 X58.651 Y69.827 E6.86323
G1 X63.745 Y74.921 E7.28670
G1 X63.745 Y74.155 E7.33170
G1 X58.651 Y69.062 E7.75517
G1 X58.651 Y68.296 E7.80016
G1 X63.745 Y73.390 E8.22363
G1 X63.745 Y72.624 E8.26863
G1 X58.651 Y67.531 E8.69210
G1 X58.651 Y66.765 E8.73710
G1 X64.203 Y72.317 E9.19868
G1 X64.969 Y72.317 E9.24368
G1 X58.651 Y66.000 E9.76890
G1 X58.651 Y65.235 E9.81390
G1 X65.734 Y72.317 E10.40276
G1 X66.500 Y72.317 E10.44776
G1 X58.651 Y64.469 E11.10026
G1 X58.651 Y63.704 E11.14526
G1 X67.265 Y72.317 E11.86140
G1 X68.031 Y72.317 E11.90640
G1 X58.651 Y62.938 E12.68617
G1 X59.416 Y62.938 E12.73114
G1 X68.796 Y72.317 E13.51096
G1 F1800.000 E12.51096
G92 E0
G1 X63.745 Y66.501 F4800.000
G1 E1.00000 F1800.000
G1 X60.182 Y62.938 E1.29624 F1800.000
G1 X60.947 Y62.938 E1.34124
G1 X63.745 Y65.735 E1.57383
G1 X63.745 Y64.970 E1.61883
G1 X61.713 Y62.938 E1.78779
G1 X62.478 Y62.938 E1.83279
G1 X63.745 Y64.204 E1.93811
G1 X63.745 Y63.439 E1.98311
G1 X62.938 Y62.632 E2.05022
G1 X62.938 Y61.866 E2.09522
G1 X63.745 Y62.674 E2.16232
G1 X63.745 Y61.908 E2.20732
G1 X62.938 Y61.101 E2.27443
G1 X62.938 Y60.336 E2.31943
G1 X63.745 Y61.143 E2.38654
G1 X63.745 Y60.377 E2.43154
G1 X62.938 Y59.570 E2.49865
G1 X62.938 Y58.805 E2.54365
G1 X63.745 Y59.612 E2.61075
G1 X64.357 Y59.459 E2.64785
G1 X63.550 Y58.651 E2.71496
G1 X64.315 Y58.651 E2.75996
G1 X65.123 Y59.459 E2.82707
G1 X65.888 Y59.459 E2.87207
G1 X65.081 Y58.651 E2.93918
G1 X65.846 Y58.651 E2.98418
G1 X66.653 Y59.459 E3.05128
G1 X67.419 Y59.459 E3.09628
G1 X66.612 Y58.651 E3.16339
G1 X67.377 Y58.651 E3.20839
G1 X68.184 Y59.459 E3.27550
G1 X68.950 Y59.459 E3.32050
G1 X68.143 Y58.651 E3.38760
G1 X68.908 Y58.651 E3.43260
G1 X69.715 Y59.459 E3.49971
G1 X70.481 Y59.459 E3.54471
G1 X69.673 Y58.651 E3.61182
G1 X70.439 Y58.651 E3.65682
G1 X71.246 Y59.459 E3.72393
G1 X72.012 Y59.459 E3.76893
G1 X71.204 Y58.651 E3.83603
G1 X71.970 Y58.651 E3.88103
G1 X72.317 Y58.999 E3.90993
G1 F1800.000 E2.90993
G92 E0
G1 X80.083 Y59.110 F4800.000
G1 E1.00000 F1800.000
G1 X80.431 Y59.459 E1.02899 F1800.000
G1 X81.197 Y59.459 E1.07399
G1 X80.390 Y58.651 E1.14110
G1 X81.155 Y58.651 E1.18610
G1 X81.962 Y59.459 E1.25320
G1 X82.728 Y59.459 E1.29820
G1 X81.921 Y58.651 E1.36531
G1 X82.686 Y58.651 E1.41031
G1 X83.493 Y59.459 E1.47742
G1 X84.259 Y59.459 E1.52242
G1 X83.451 Y58.651 E1.58953
G1 X84.217 Y58.651 E1.63452
G1 X85.024 Y59.459 E1.70163
G1 X85.789 Y59.459 E1.74663
G1 X84.982 Y58.651 E1.81374
G1 X85.748 Y58.651 E1.85874
G1 X86.555 Y59.459 E1.92585
