; generated by Slic3r 1.1.3 on 2014-05-31 at 19:20:09

; perimeters extrusion width = 0.40mm
; infill extrusion width = 0.67mm
; solid infill extrusion width = 0.67mm
; top infill extrusion width = 0.67mm

G21 ; set units to millimeters
M107
M104 S195 ; set temperature
G28 X0 Y0  
G29
M109 S195 ; wait for temperature to be reached
G90 ; use absolute coordinates
G92 E0
M82 ; use absolute distances for extrusion
G1 F1800.000 E-1.00000
G92 E0
G1 Z0.300 F4200.000
G1 X21.244 Y55.587 F4200.000
G1 E1.00000 F1800.000
G1 X32.674 Y51.777 E1.75343 F1200.000
G1 X35.100 Y51.384 E1.90711
G1 X117.300 Y51.384 E7.04739
G1 X119.726 Y51.777 E7.20107
G1 X131.156 Y55.587 E7.95450
G1 X133.342 Y56.735 E8.10891
G1 X135.051 Y58.518 E8.26331
G1 X136.104 Y60.751 E8.41772
G1 X136.401 Y62.865 E8.55122
G1 X136.401 Y74.295 E9.26598
G1 X135.853 Y77.144 E9.44742
G1 X128.233 Y96.194 E10.73045
G1 X126.959 Y98.309 E10.88486
G1 X125.079 Y99.910 E11.03927
G1 X122.787 Y100.831 E11.19368
G1 X121.110 Y101.016 E11.29921
G1 X31.290 Y101.016 E16.91600
G1 X28.853 Y100.619 E17.07041
G1 X26.668 Y99.468 E17.22482
G1 X24.963 Y97.682 E17.37923
G1 X24.167 Y96.194 E17.48476
G1 X16.547 Y77.144 E18.76780
G1 X15.999 Y74.295 E18.94923
G1 X15.999 Y62.865 E19.66399
G1 X16.396 Y60.428 E19.81840
G1 X17.547 Y58.243 E19.97281
G1 X19.333 Y56.538 E20.12722
G1 X21.190 Y55.614 E20.25697
G1 X21.420 Y56.116 F4200.000
G1 X32.850 Y52.306 E21.01039 F1200.000
G1 X35.100 Y51.941 E21.15291
G1 X117.300 Y51.941 E26.29320
G1 X119.550 Y52.306 E26.43572
G1 X130.980 Y56.116 E27.18914
G1 X133.078 Y57.234 E27.33780
G1 X134.690 Y58.981 E27.48646
G1 X135.637 Y61.161 E27.63512
G1 X135.844 Y62.865 E27.74245
G1 X135.844 Y74.295 E28.45721
G1 X135.335 Y76.937 E28.62547
G1 X127.715 Y95.987 E29.90851
G1 X126.476 Y98.016 E30.05717
G1 X124.638 Y99.523 E30.20582
G1 X122.405 Y100.340 E30.35448
G1 X121.110 Y100.459 E30.43582
G1 X31.290 Y100.459 E36.05261
G1 X28.946 Y100.062 E36.20127
G1 X26.864 Y98.915 E36.34993
G1 X25.276 Y97.146 E36.49859
G1 X24.685 Y95.987 E36.57993
G1 X17.065 Y76.937 E37.86296
G1 X16.556 Y74.295 E38.03122
G1 X16.556 Y62.865 E38.74598
G1 X16.953 Y60.521 E38.89464
G1 X18.100 Y58.439 E39.04330
G1 X19.869 Y56.851 E39.19196
G1 X21.366 Y56.142 E39.29554
G1 X21.596 Y56.644 F4200.000
G1 X33.026 Y52.834 E40.04897 F1200.000
G1 X35.100 Y52.498 E40.18033
G1 X117.300 Y52.498 E45.32061
G1 X119.374 Y52.834 E45.45197
G1 X130.804 Y56.644 E46.20539
G1 X132.810 Y57.731 E46.34807
G1 X134.322 Y59.440 E46.49075
G1 X135.157 Y61.563 E46.63343
G1 X135.287 Y62.865 E46.71523
G1 X135.287 Y74.295 E47.42999
G1 X134.818 Y76.730 E47.58507
G1 X127.198 Y95.780 E48.86811
G1 X125.995 Y97.719 E49.01079
G1 X124.201 Y99.128 E49.15346
G1 X121.110 Y99.902 E49.35270
G1 X31.290 Y99.902 E54.96949
G1 X29.043 Y99.505 E55.11217
G1 X27.068 Y98.362 E55.25484
G1 X25.202 Y95.780 E55.45408
G1 X17.582 Y76.730 E56.73712
G1 X17.113 Y74.295 E56.89220
G1 X17.113 Y62.865 E57.60696
G1 X17.510 Y60.618 E57.74964
G1 X18.653 Y58.643 E57.89232
G1 X20.403 Y57.180 E58.03499
G1 X21.542 Y56.669 E58.11304
G1 F1800.000 E57.11304
G92 E0
G1 X114.904 Y79.519 F4200.000
G1 E1.00000 F1800.000
G1 X108.266 Y79.519 E1.41512 F1200.000
G1 X108.266 Y72.881 E1.83024
G1 X114.904 Y72.881 E2.24536
G1 X114.904 Y79.459 E2.65673
G1 X114.347 Y78.962 F4200.000
G1 X108.823 Y78.962 E3.00217 F1200.000
G1 X108.823 Y73.438 E3.34762
G1 X114.347 Y73.438 E3.69307
G1 X114.347 Y78.902 E4.03476
G1 X113.790 Y78.405 F4200.000
G1 X109.380 Y78.405 E4.31053 F1200.000
G1 X109.380 Y73.995 E4.58631
G1 X113.790 Y73.995 E4.86208
G1 X113.790 Y78.345 E5.13410
G1 X113.790 Y78.805 F4200.000
G1 F1800.000 E4.13410
G92 E0
G1 X99.664 Y79.519 F4200.000
G1 E1.00000 F1800.000
G1 X93.026 Y79.519 E1.41512 F1200.000
G1 X93.026 Y72.881 E1.83024
G1 X99.664 Y72.881 E2.24536
G1 X99.664 Y79.459 E2.65672
G1 X99.107 Y78.962 F4200.000
G1 X93.583 Y78.962 E3.00217 F1200.000
G1 X93.583 Y73.438 E3.34762
G1 X99.107 Y73.438 E3.69306
G1 X99.107 Y78.902 E4.03476
G1 X98.550 Y78.405 F4200.000
G1 X94.140 Y78.405 E4.31053 F1200.000
G1 X94.140 Y73.995 E4.58631
G1 X98.550 Y73.995 E4.86208
G1 X98.550 Y78.345 E5.13410
G1 X98.550 Y78.805 F4200.000
G1 F1800.000 E4.13410
G92 E0
G1 X116.809 Y90.949 F4200.000
G1 E1.00000 F1800.000
G1 X119.696 Y90.949 E1.18051 F1200.000
G1 X119.696 Y91.931 E1.24190
G1 X116.809 Y91.931 E1.42242
G1 X116.809 Y91.009 E1.48005
G1 X116.252 Y90.392 F4200.000
G1 X120.253 Y90.392 E1.73024 F1200.000
G1 X120.253 Y92.488 E1.86130
G1 X116.252 Y92.488 E2.11149
G1 X116.252 Y90.452 E2.23880
G1 F1800.000 E1.23880
G92 E0
G1 X91.121 Y90.949 F4200.000
G1 E1.00000 F1800.000
G1 X91.121 Y91.931 E1.06139 F1200.000
G1 X88.234 Y91.931 E1.24190
G1 X88.234 Y90.949 E1.30329
G1 X91.061 Y90.949 E1.48006
G1 X91.678 Y90.392 F4200.000
G1 X91.678 Y92.488 E1.61112 F1200.000
G1 X87.677 Y92.488 E1.86131
G1 X87.677 Y90.392 E1.99237
G1 X91.618 Y90.392 E2.23880
G1 F1800.000 E1.23880
G92 E0
G1 X95.854 Y87.139 F4200.000
G1 E1.00000 F1800.000
G1 X95.854 Y80.501 E1.41512 F1200.000
G1 X88.234 Y80.501 E1.89163
G1 X88.234 Y76.691 E2.12988
G1 X84.424 Y76.691 E2.36814
G1 X84.424 Y72.881 E2.60639
G1 X80.614 Y72.881 E2.84464
G1 X80.614 Y64.279 E3.38254
G1 X81.596 Y64.279 E3.44393
G1 X81.596 Y71.899 E3.92044
G1 X88.234 Y71.899 E4.33556
G1 X88.234 Y64.279 E4.81206
G1 X92.044 Y64.279 E5.05032
G1 X92.044 Y60.469 E5.28857
G1 X100.646 Y60.469 E5.82647
G1 X100.646 Y61.451 E5.88786
G1 X93.026 Y61.451 E6.36436
G1 X93.026 Y68.089 E6.77948
G1 X114.904 Y68.089 E8.14762
G1 X114.904 Y61.451 E8.56274
G1 X107.284 Y61.451 E9.03925
G1 X107.284 Y60.469 E9.10064
G1 X115.886 Y60.469 E9.63853
G1 X115.886 Y64.279 E9.87679
G1 X119.696 Y64.279 E10.11504
G1 X119.696 Y71.899 E10.59155
G1 X126.334 Y71.899 E11.00667
G1 X126.334 Y64.279 E11.48317
G1 X127.316 Y64.279 E11.54456
G1 X127.316 Y72.881 E12.08246
G1 X123.506 Y72.881 E12.32071
G1 X123.506 Y76.691 E12.55897
G1 X119.696 Y76.691 E12.79722
G1 X119.696 Y80.501 E13.03547
G1 X112.076 Y80.501 E13.51198
G1 X112.076 Y87.139 E13.92710
G1 X115.886 Y87.139 E14.16536
G1 X115.886 Y88.121 E14.22674
G1 X111.094 Y88.121 E14.52639
G1 X111.094 Y80.501 E15.00290
G1 X96.836 Y80.501 E15.89452
G1 X96.836 Y88.121 E16.37103
G1 X92.044 Y88.121 E16.67067
G1 X92.044 Y87.139 E16.73206
G1 X95.794 Y87.139 E16.96656
G1 X95.297 Y86.582 F4200.000
G1 X95.297 Y81.058 E17.31201 F1200.000
G1 X87.677 Y81.058 E17.78852
G1 X87.677 Y77.248 E18.02677
G1 X83.867 Y77.248 E18.26503
G1 X83.867 Y73.438 E18.50328
G1 X80.057 Y73.438 E18.74153
G1 X80.057 Y63.722 E19.34910
G1 X82.153 Y63.722 E19.48016
G1 X82.153 Y71.342 E19.95667
G1 X87.677 Y71.342 E20.30212
G1 X87.677 Y63.722 E20.77863
G1 X91.487 Y63.722 E21.01688
G1 X91.487 Y59.912 E21.25513
G1 X101.203 Y59.912 E21.86270
G1 X101.203 Y62.008 E21.99376
G1 X93.583 Y62.008 E22.47027
G1 X93.583 Y67.532 E22.81572
G1 X114.347 Y67.532 E24.11418
G1 X114.347 Y62.008 E24.45963
G1 X106.727 Y62.008 E24.93614
G1 X106.727 Y59.912 E25.06720
G1 X116.443 Y59.912 E25.67477
G1 X116.443 Y63.722 E25.91302
G1 X120.253 Y63.722 E26.15127
G1 X120.253 Y71.342 E26.62778
G1 X125.777 Y71.342 E26.97323
G1 X125.777 Y63.722 E27.44974
G1 X127.873 Y63.722 E27.58080
G1 X127.873 Y73.438 E28.18837
G1 X124.063 Y73.438 E28.42662
G1 X124.063 Y77.248 E28.66487
G1 X120.253 Y77.248 E28.90313
G1 X120.253 Y81.058 E29.14138
G1 X112.633 Y81.058 E29.61789
G1 X112.633 Y86.582 E29.96334
G1 X116.443 Y86.582 E30.20159
G1 X116.443 Y88.678 E30.33265
G1 X110.537 Y88.678 E30.70197
G1 X110.537 Y81.058 E31.17848
G1 X97.393 Y81.058 E32.00043
G1 X97.393 Y88.678 E32.47694
G1 X91.487 Y88.678 E32.84625
G1 X91.487 Y86.582 E32.97731
G1 X95.237 Y86.582 E33.21182
G1 X94.740 Y86.025 F4200.000
G1 X94.740 Y81.615 E33.48759 F1200.000
G1 X87.120 Y81.615 E33.96410
G1 X87.120 Y77.805 E34.20235
G1 X83.310 Y77.805 E34.44061
G1 X83.310 Y73.995 E34.67886
G1 X79.500 Y73.995 E34.91711
G1 X79.500 Y63.165 E35.59436
G1 X82.710 Y63.165 E35.79509
G1 X82.710 Y70.785 E36.27160
G1 X87.120 Y70.785 E36.54737
G1 X87.120 Y63.165 E37.02388
G1 X90.930 Y63.165 E37.26213
G1 X90.930 Y59.355 E37.50039
G1 X101.760 Y59.355 E38.17763
G1 X101.760 Y62.565 E38.37836
G1 X94.140 Y62.565 E38.85487
G1 X94.140 Y66.975 E39.13065
G1 X113.790 Y66.975 E40.35944
G1 X113.790 Y62.565 E40.63521
G1 X106.170 Y62.565 E41.11172
G1 X106.170 Y59.355 E41.31245
G1 X117.000 Y59.355 E41.98969
G1 X117.000 Y63.165 E42.22795
G1 X120.810 Y63.165 E42.46620
G1 X120.810 Y70.785 E42.94271
G1 X125.220 Y70.785 E43.21848
G1 X125.220 Y63.165 E43.69499
G1 X128.430 Y63.165 E43.89572
G1 X128.430 Y73.995 E44.57297
G1 X124.620 Y73.995 E44.81122
G1 X124.620 Y77.805 E45.04947
G1 X120.810 Y77.805 E45.28773
G1 X120.810 Y81.615 E45.52598
G1 X113.190 Y81.615 E46.00249
G1 X113.190 Y86.025 E46.27826
G1 X117.000 Y86.025 E46.51652
G1 X117.000 Y89.835 E46.75477
G1 X120.810 Y89.835 E46.99302
G1 X120.810 Y93.045 E47.19376
G1 X115.695 Y93.045 E47.51362
G1 X115.695 Y89.235 E47.75187
G1 X109.980 Y89.235 E48.10925
G1 X109.980 Y81.615 E48.58576
G1 X97.950 Y81.615 E49.33804
G1 X97.950 Y89.235 E49.81455
G1 X92.235 Y89.235 E50.17193
G1 X92.235 Y93.045 E50.41019
G1 X87.120 Y93.045 E50.73005
G1 X87.120 Y89.835 E50.93078
G1 X90.930 Y89.835 E51.16904
G1 X90.930 Y86.025 E51.40729
G1 X94.680 Y86.025 E51.64179
G1 X95.140 Y86.025 F4200.000
G1 F1800.000 E50.64179
G92 E0
G1 X100.048 Y79.593 F4200.000
G1 E1.00000 F1800.000
G1 X100.572 Y80.117 E1.04635 F1800.000
G1 X101.366 Y80.117 E1.09602
G1 X100.048 Y78.799 E1.21261
G1 X100.048 Y78.004 E1.26228
G1 X102.161 Y80.117 E1.44912
G1 X102.955 Y80.117 E1.49879
G1 X100.048 Y77.210 E1.75586
G1 X100.048 Y76.416 E1.80553
G1 X103.749 Y80.117 E2.13285
G1 X104.544 Y80.117 E2.18252
G1 X100.048 Y75.621 E2.58008
G1 X100.048 Y74.827 E2.62975
G1 X105.338 Y80.117 E3.09756
G1 X106.132 Y80.117 E3.14723
G1 X100.048 Y74.033 E3.68528
G1 X100.048 Y73.239 E3.73495
G1 X106.926 Y80.117 E4.34324
G1 X107.721 Y80.117 E4.39291
G1 X96.077 Y68.473 E5.42265
G1 X96.871 Y68.473 E5.47232
G1 X107.882 Y79.484 E6.44610
G1 X107.882 Y78.690 E6.49577
G1 X97.665 Y68.473 E7.39930
G1 X98.459 Y68.473 E7.44897
G1 X107.882 Y77.896 E8.28226
G1 X107.882 Y77.101 E8.33193
G1 X99.254 Y68.473 E9.09498
G1 X100.048 Y68.473 E9.14465
G1 X107.882 Y76.307 E9.83745
G1 X107.882 Y75.513 E9.88712
G1 X100.842 Y68.473 E10.50968
G1 X101.637 Y68.473 E10.55935
G1 X107.882 Y74.718 E11.11167
G1 X107.882 Y73.924 E11.16134
G1 X102.431 Y68.473 E11.64342
G1 X103.225 Y68.473 E11.69309
G1 X107.882 Y73.130 E12.10492
G1 X108.043 Y72.497 E12.14577
G1 X104.019 Y68.473 E12.50163
G1 X104.814 Y68.473 E12.55130
G1 X108.838 Y72.497 E12.90716
G1 X109.632 Y72.497 E12.95683
G1 X105.608 Y68.473 E13.31270
G1 X106.402 Y68.473 E13.36237
G1 X110.426 Y72.497 E13.71823
G1 X111.220 Y72.497 E13.76790
G1 X107.196 Y68.473 E14.12376
G1 X107.991 Y68.473 E14.17343
G1 X112.015 Y72.497 E14.52929
G1 X112.809 Y72.497 E14.57896
G1 X108.785 Y68.473 E14.93483
G1 X109.579 Y68.473 E14.98450
G1 X113.603 Y72.497 E15.34036
G1 X114.398 Y72.497 E15.39003
G1 X110.374 Y68.473 E15.74589
G1 X111.168 Y68.473 E15.79556
G1 X119.312 Y76.617 E16.51580
G1 X119.796 Y76.307 E16.55175
G1 X111.962 Y68.473 E17.24455
G1 X112.756 Y68.473 E17.29422
G1 X120.590 Y76.307 E17.98703
G1 X121.385 Y76.307 E18.03670
G1 X113.551 Y68.473 E18.72950
G1 X114.345 Y68.473 E18.77917
G1 X122.179 Y76.307 E19.47198
G1 F1800.000 E18.47198
G92 E0
G1 X119.312 Y77.411 F4200.000
G1 E1.00000 F1800.000
G1 X115.288 Y73.387 E1.35586 F1800.000
G1 X115.288 Y74.182 E1.40553
G1 X119.312 Y78.206 E1.76139
G1 X119.312 Y79.000 E1.81106
G1 X115.288 Y74.976 E2.16693
G1 X115.288 Y75.770 E2.21660
G1 X119.312 Y79.794 E2.57246
G1 X118.840 Y80.117 E2.60819
G1 X115.288 Y76.565 E2.92235
G1 X115.288 Y77.359 E2.97202
G1 X118.046 Y80.117 E3.21594
G1 X117.252 Y80.117 E3.26561
G1 X115.288 Y78.153 E3.43929
G1 X115.288 Y78.947 E3.48896
G1 X116.458 Y80.117 E3.59239
G1 X115.663 Y80.117 E3.64206
G1 X115.288 Y79.742 E3.67525
G1 F1800.000 E2.67525
G92 E0
G1 X123.122 Y73.279 F4200.000
G1 E1.00000 F1800.000
G1 X122.126 Y72.283 E1.08805 F1800.000
G1 X121.332 Y72.283 E1.13772
G1 X123.122 Y74.073 E1.29601
G1 X123.122 Y74.867 E1.34568
G1 X120.538 Y72.283 E1.57422
G1 X119.744 Y72.283 E1.62389
G1 X123.122 Y75.661 E1.92267
G1 X122.973 Y76.307 E1.96409
G1 X115.139 Y68.473 E2.65689
G1 X115.288 Y67.828 E2.69832
G1 X119.312 Y71.851 E3.05418
G1 X119.312 Y71.057 E3.10385
G1 X115.288 Y67.033 E3.45971
G1 X115.288 Y66.239 E3.50938
G1 X119.312 Y70.263 E3.86524
G1 X119.312 Y69.469 E3.91491
G1 X115.288 Y65.445 E4.27078
G1 X115.579 Y64.942 E4.30713
G1 X119.312 Y68.674 E4.63725
G1 X119.312 Y67.880 E4.68691
G1 X116.095 Y64.663 E4.97142
G1 X116.889 Y64.663 E5.02109
G1 X119.312 Y67.086 E5.23536
G1 X119.312 Y66.292 E5.28503
G1 X117.683 Y64.663 E5.42905
G1 X118.478 Y64.663 E5.47872
G1 X119.312 Y65.497 E5.55250
G1 X119.312 Y64.703 E5.60217
G1 X119.272 Y64.663 E5.60571
G1 F1800.000 E4.60571
G92 E0
G1 X99.306 Y72.497 F4200.000
G1 E1.00000 F1800.000
G1 X95.282 Y68.473 E1.35586 F1800.000
G1 X94.488 Y68.473 E1.40553
G1 X98.512 Y72.497 E1.76140
G1 X97.718 Y72.497 E1.81107
G1 X93.694 Y68.473 E2.16693
G1 X92.900 Y68.473 E2.21660
G1 X96.924 Y72.497 E2.57246
G1 X96.129 Y72.497 E2.62213
G1 X88.618 Y64.986 E3.28639
G1 X89.090 Y64.663 E3.32213
G1 X92.642 Y68.215 E3.63629
G1 X92.642 Y67.421 E3.68596
G1 X89.884 Y64.663 E3.92988
G1 X90.678 Y64.663 E3.97955
G1 X92.642 Y66.627 E4.15323
G1 X92.642 Y65.833 E4.20290
G1 X91.472 Y64.663 E4.30634
G1 X92.545 Y64.942 E4.37565
G1 X92.642 Y65.038 E4.38421
G1 F1800.000 E3.38421
G92 E0
G1 X88.618 Y65.780 F4200.000
G1 E1.00000 F1800.000
G1 X95.335 Y72.497 E1.59402 F1800.000
G1 X94.541 Y72.497 E1.64369
G1 X88.618 Y66.574 E2.16747
G1 X88.618 Y67.369 E2.21714
G1 X93.746 Y72.497 E2.67067
G1 X92.952 Y72.497 E2.72034
G1 X88.618 Y68.163 E3.10364
G1 X88.618 Y68.957 E3.15331
G1 X92.642 Y72.981 E3.50917
G1 X92.642 Y73.775 E3.55884
G1 X88.618 Y69.751 E3.91470
G1 X88.618 Y70.546 E3.96437
G1 X92.642 Y74.570 E4.32024
G1 X92.642 Y75.364 E4.36991
G1 X88.618 Y71.340 E4.72577
G1 X88.618 Y72.134 E4.77544
G1 X92.642 Y76.158 E5.13131
G1 X92.642 Y76.952 E5.18097
G1 X87.973 Y72.283 E5.59392
G1 X87.178 Y72.283 E5.64359
G1 X92.642 Y77.747 E6.12678
G1 X92.642 Y78.541 E6.17645
G1 X86.384 Y72.283 E6.72989
G1 X85.590 Y72.283 E6.77956
G1 X92.642 Y79.335 E7.40323
G1 X92.629 Y80.117 E7.45212
G1 X85.087 Y72.574 E8.11918
G1 X84.808 Y73.090 E8.15583
G1 X88.025 Y76.307 E8.44034
G1 X87.231 Y76.307 E8.49001
G1 X84.808 Y73.884 E8.70428
G1 X84.808 Y74.678 E8.75394
G1 X86.437 Y76.307 E8.89797
G1 X85.642 Y76.307 E8.94764
G1 X84.808 Y75.473 E9.02142
G1 X84.808 Y76.267 E9.07108
G1 X84.848 Y76.307 E9.07462
G1 F1800.000 E8.07462
G92 E0
G1 X88.618 Y76.900 F4200.000
G1 E1.00000 F1800.000
G1 X91.835 Y80.117 E1.28451 F1800.000
G1 X91.041 Y80.117 E1.33418
G1 X88.618 Y77.694 E1.54844
G1 X88.618 Y78.488 E1.59811
G1 X90.247 Y80.117 E1.74213
G1 X89.452 Y80.117 E1.79180
G1 X88.618 Y79.283 E1.86558
G1 X88.618 Y80.077 E1.91525
G1 X88.658 Y80.117 E1.91879
G1 F1800.000 E0.91879
G92 E0
G1 X123.227 Y72.390 F4200.000
G1 E1.00000 F1800.000
G1 X127.037 Y72.390 E1.13748 F900.000
G1 F1800.000 E0.13748
G92 E0
G1 X115.607 Y87.630 F4200.000
G1 E1.00000 F1800.000
G1 X111.373 Y87.630 E1.15281 F900.000
G1 F1800.000 E0.15281
G92 E0
G1 X96.557 Y87.630 F4200.000
G1 E1.00000 F1800.000
G1 X92.323 Y87.630 E1.15280 F900.000
G1 F1800.000 E0.15280
G92 E0
G1 X84.703 Y72.390 F4200.000
G1 E1.00000 F1800.000
G1 X80.893 Y72.390 E1.13748 F900.000
G1 F1800.000 E0.13748
G92 E0
G1 X92.535 Y64.558 F4200.000
G1 E1.00000 F1800.000
G1 X92.535 Y61.172 E1.12216 F900.000
G1 X92.571 Y60.996 E1.12864
G1 X92.747 Y60.960 E1.13512
G1 X100.367 Y60.960 E1.41009
G1 F1800.000 E0.41009
G92 E0
G1 X107.563 Y60.960 F4200.000
G1 E1.00000 F1800.000
G1 X115.183 Y60.960 E1.27497 F900.000
G1 X115.359 Y60.996 E1.28145
G1 X115.395 Y61.172 E1.28793
G1 X115.395 Y64.558 E1.41009
G1 F1800.000 E0.41009
G92 E0
G1 X52.736 Y79.519 F4200.000
G1 E1.00000 F1800.000
G1 X52.736 Y72.881 E1.41512 F1200.000
G1 X59.374 Y72.881 E1.83024
G1 X59.374 Y79.519 E2.24536
G1 X52.796 Y79.519 E2.65673
G1 X53.293 Y78.962 F4200.000
G1 X53.293 Y73.438 E3.00217 F1200.000
G1 X58.817 Y73.438 E3.34762
G1 X58.817 Y78.962 E3.69306
G1 X53.353 Y78.962 E4.03476
