; generated by Slic3r 1.2.0 on 2014-09-27 at 10:57:33

; external perimeters extrusion width = 0.40mm
; perimeters extrusion width = 0.67mm
; infill extrusion width = 0.67mm
; solid infill extrusion width = 0.67mm
; top infill extrusion width = 0.67mm
; support material extrusion width = 0.40mm

G21 ; set units to millimeters
M107
M104 S195 ; set temperature
G28 X0 Y0  
G29
M109 S195 ; wait for temperature to be reached
G90 ; use absolute coordinates
G92 E0
M82 ; use absolute distances for extrusion
G1 F1800.000 E-1.00000
G92 E0
G1 Z0.300 F4800.000
G1 X32.076 Y44.316 F4800.000
G1 E1.00000 F1800.000
G1 X74.740 Y13.436 E3.99065 F720.000
G1 X76.795 Y12.382 E4.12179
G1 X88.939 Y8.334 E4.84871
G1 X91.344 Y7.943 E4.98709
G1 X119.681 Y7.943 E6.59619
G1 X122.087 Y8.334 E6.73457
G1 X134.231 Y12.382 E7.46149 F720.000
G1 X136.407 Y13.526 E7.60111
G1 X138.105 Y15.305 E7.74072
G1 X139.146 Y17.532 E7.88034
G1 X139.432 Y19.598 E7.99879
G1 X139.432 Y116.609 E13.50750
G1 X138.888 Y119.434 E13.67088
G1 X130.792 Y139.675 E14.90877
G1 X129.522 Y141.780 E15.04839
G1 X127.647 Y143.370 E15.18801
G1 X125.362 Y144.279 E15.32763
G1 X123.729 Y144.457 E15.42089
G1 X87.296 Y144.457 E17.48973
G1 X84.870 Y144.059 E17.62935
G1 X82.836 Y143.012 E17.75925
G1 X24.211 Y100.579 E21.86879
G1 X22.478 Y98.834 E22.00841
G1 X21.608 Y97.242 E22.11146
G1 X13.512 Y77.001 E23.34935
G1 X12.968 Y74.176 E23.51272
G1 X12.968 Y62.032 E24.20233
G1 X13.365 Y59.605 E24.34195
G1 X14.515 Y57.432 E24.48157
G1 X16.114 Y55.869 E24.60853
G1 X32.027 Y44.351 E25.72401
G1 X32.342 Y44.785 F4800.000
G1 X75.054 Y13.870 E28.71807 F720.000
G1 X76.964 Y12.890 E28.83998
G1 X89.108 Y8.842 E29.56689
G1 X91.344 Y8.479 E29.69553
G1 X119.681 Y8.479 E31.30463
G1 X121.917 Y8.842 E31.43327
G1 X134.062 Y12.890 E32.16018 F720.000
G1 X136.153 Y14.006 E32.29476
G1 X137.758 Y15.750 E32.42934
G1 X138.696 Y17.926 E32.56392
G1 X138.897 Y19.598 E32.65958
G1 X138.897 Y116.609 E38.16829
G1 X138.391 Y119.235 E38.32016
G1 X130.295 Y139.476 E39.55805
G1 X129.058 Y141.498 E39.69263
G1 X127.223 Y142.998 E39.82721
G1 X124.996 Y143.807 E39.96179
G1 X123.729 Y143.921 E40.03399
G1 X87.296 Y143.921 E42.10283
G1 X84.960 Y143.524 E42.23741
G1 X83.150 Y142.578 E42.35335
G1 X24.525 Y100.145 E46.46290
G1 X22.865 Y98.453 E46.59748
G1 X22.105 Y97.043 E46.68844
G1 X14.009 Y76.802 E47.92633
G1 X13.503 Y74.176 E48.07820
G1 X13.503 Y62.032 E48.76782
G1 X13.900 Y59.695 E48.90240
G1 X15.047 Y57.621 E49.03698
G1 X16.428 Y56.303 E49.14537
G1 X32.293 Y44.821 E50.25745
G1 X32.607 Y45.254 F4800.000
G1 X75.368 Y14.304 E53.25492 F720.000
G1 X77.133 Y13.398 E53.36759
G1 X89.278 Y9.350 E54.09450
G1 X91.344 Y9.015 E54.21340
G1 X119.681 Y9.015 E55.82250
G1 X121.748 Y9.350 E55.94139
G1 X133.892 Y13.398 E56.66831 F720.000
G1 X135.895 Y14.484 E56.79765
G1 X137.403 Y16.191 E56.92700
G1 X138.233 Y18.312 E57.05634
G1 X138.361 Y19.598 E57.12974
G1 X138.361 Y116.609 E62.63845
G1 X137.894 Y119.036 E62.77882
G1 X129.798 Y139.277 E64.01671
G1 X128.596 Y141.212 E64.14606
G1 X126.803 Y142.617 E64.27540
G1 X123.729 Y143.385 E64.45532
G1 X87.296 Y143.385 E66.52416
G1 X85.053 Y142.988 E66.65350
G1 X83.464 Y142.144 E66.75568
G1 X24.839 Y99.711 E70.86523
G1 X23.254 Y98.074 E70.99458
G1 X22.602 Y96.844 E71.07365
G1 X14.506 Y76.603 E72.31154
G1 X14.039 Y74.176 E72.45190
G1 X14.039 Y62.032 E73.14152
G1 X14.436 Y59.789 E73.27086
G1 X15.578 Y57.818 E73.40021
G1 X16.742 Y56.737 E73.49041
G1 X32.558 Y45.290 E74.59908
G1 F1800.000 E73.59908
G92 E0
G1 X110.214 Y72.805 F4800.000
G1 E1.00000 F1800.000
G1 X117.004 Y72.805 E1.38560 F900.000
G1 X117.004 Y79.595 E1.77120
G1 X110.214 Y79.595 E2.15681
G1 X110.214 Y72.865 E2.53900
G1 X110.749 Y73.340 F4800.000
G1 X116.469 Y73.340 E2.86377 F900.000
G1 X116.469 Y79.060 E3.18854
G1 X110.749 Y79.060 E3.51331
G1 X110.749 Y73.400 E3.83468
G1 X111.285 Y73.876 F4800.000
G1 X115.933 Y73.876 E4.09862 F810.000
G1 X115.933 Y78.524 E4.36256
G1 X111.285 Y78.524 E4.62651
G1 X111.285 Y73.936 E4.88704
G1 X111.285 Y73.476 F4800.000
G1 F1800.000 E3.88704
G92 E0
G1 X100.812 Y72.805 F4800.000
G1 E1.00000 F1800.000
G1 X100.812 Y79.595 E1.38560 F900.000
G1 X94.021 Y79.595 E1.77120
G1 X94.021 Y72.805 E2.15680
G1 X100.752 Y72.805 E2.53900
G1 X100.276 Y73.340 F4800.000
G1 X100.276 Y79.060 E2.86377 F900.000
G1 X94.557 Y79.060 E3.18854
G1 X94.557 Y73.340 E3.51331
G1 X100.216 Y73.340 E3.83468
G1 X99.741 Y73.876 F4800.000
G1 X99.741 Y78.524 E4.09862 F810.000
G1 X95.093 Y78.524 E4.36256
G1 X95.093 Y73.876 E4.62650
G1 X99.681 Y73.876 E4.88704
G1 X100.141 Y73.876 F4800.000
G1 F1800.000 E3.88704
G92 E0
G1 X103.189 Y81.972 F4800.000
G1 E1.00000 F1800.000
G1 X107.837 Y81.972 E1.26394 F810.000
G1 X107.837 Y85.574 E1.46848
G1 X103.189 Y85.574 E1.73242
G1 X103.189 Y82.032 E1.93355
G1 X103.189 Y81.572 F4800.000
G1 F1800.000 E0.93355
G92 E0
G1 X91.997 Y91.740 F4800.000
G1 E1.00000 F1800.000
G1 X91.997 Y93.045 E1.07414 F900.000
G1 X88.667 Y93.045 E1.26322
G1 X88.667 Y91.740 E1.33736
G1 X91.937 Y91.740 E1.52303
G1 F1800.000 E0.52303
G92 E0
G1 X119.028 Y91.740 F4800.000
G1 E1.00000 F1800.000
G1 X122.358 Y91.740 E1.18908 F900.000
G1 X122.358 Y93.045 E1.26322
G1 X119.028 Y93.045 E1.45229
G1 X119.028 Y91.800 E1.52303
G1 F1800.000 E0.52303
G92 E0
G1 X114.262 Y87.692 F4800.000
G1 E1.00000 F1800.000
G1 X118.310 Y87.692 E1.22987 F900.000
G1 X118.310 Y88.997 E1.30401
G1 X112.956 Y88.997 E1.60802
G1 X112.956 Y80.901 E2.06777
G1 X98.069 Y80.901 E2.91311
G1 X98.069 Y88.997 E3.37285
G1 X92.716 Y88.997 E3.67686
G1 X92.716 Y87.692 E3.75101
G1 X96.764 Y87.692 E3.98088
G1 X96.764 Y80.901 E4.36648
G1 X88.667 Y80.901 E4.82622
G1 X88.667 Y76.853 E5.05609
G1 X84.619 Y76.853 E5.28596
G1 X84.619 Y72.805 E5.51583
G1 X80.571 Y72.805 E5.74571
G1 X80.571 Y63.403 E6.27959
G1 X81.877 Y63.403 E6.35373
G1 X81.877 Y71.499 E6.81347
G1 X88.667 Y71.499 E7.19907
G1 X88.667 Y63.403 E7.65882
G1 X92.716 Y63.403 E7.88869
G1 X92.716 Y59.355 E8.11856
G1 X102.118 Y59.355 E8.65244
G1 X102.118 Y60.660 E8.72658
G1 X94.021 Y60.660 E9.18632
G1 X94.021 Y67.451 E9.57193
G1 X117.004 Y67.451 E10.87701
G1 X117.004 Y60.660 E11.26261
G1 X108.908 Y60.660 E11.72236
G1 X108.908 Y59.355 E11.79650
G1 X118.310 Y59.355 E12.33038
G1 X118.310 Y63.403 E12.56025
G1 X122.358 Y63.403 E12.79012
G1 X122.358 Y71.499 E13.24986
G1 X129.149 Y71.499 E13.63547
G1 X129.149 Y63.403 E14.09521
G1 X130.454 Y63.403 E14.16935
G1 X130.454 Y72.805 E14.70323
G1 X126.406 Y72.805 E14.93310
G1 X126.406 Y76.853 E15.16298
G1 X122.358 Y76.853 E15.39285
G1 X122.358 Y80.901 E15.62272
G1 X114.262 Y80.901 E16.08246
G1 X114.262 Y87.632 E16.46465
G1 X114.798 Y87.156 F4800.000
G1 X118.846 Y87.156 E16.69452 F900.000
G1 X118.846 Y91.204 E16.92440
G1 X122.894 Y91.204 E17.15427
G1 X122.894 Y93.581 E17.28924
G1 X118.493 Y93.581 E17.53914
G1 X118.493 Y89.533 E17.76901
G1 X112.421 Y89.533 E18.11382
G1 X112.421 Y81.437 E18.57356
G1 X98.605 Y81.437 E19.35808
G1 X98.605 Y89.533 E19.81782
G1 X92.533 Y89.533 E20.16263
G1 X92.533 Y93.581 E20.39250
G1 X88.132 Y93.581 E20.64240
G1 X88.132 Y91.204 E20.77737
G1 X92.180 Y91.204 E21.00725
G1 X92.180 Y87.156 E21.23712
G1 X96.228 Y87.156 E21.46699
G1 X96.228 Y81.437 E21.79176
G1 X88.132 Y81.437 E22.25150
G1 X88.132 Y77.388 E22.48137
G1 X84.084 Y77.388 E22.71125
G1 X84.084 Y73.340 E22.94112
G1 X80.036 Y73.340 E23.17099
G1 X80.036 Y62.867 E23.76570
G1 X82.413 Y62.867 E23.90067
G1 X82.413 Y70.963 E24.36041
G1 X88.132 Y70.963 E24.68519
G1 X88.132 Y62.867 E25.14493
G1 X92.180 Y62.867 E25.37480
G1 X92.180 Y58.819 E25.60467
G1 X102.653 Y58.819 E26.19938
G1 X102.653 Y61.196 E26.33435
G1 X94.557 Y61.196 E26.79410
G1 X94.557 Y66.915 E27.11887
G1 X116.469 Y66.915 E28.36312
G1 X116.469 Y61.196 E28.68790
G1 X108.372 Y61.196 E29.14764
G1 X108.372 Y58.819 E29.28261
G1 X118.846 Y58.819 E29.87732
G1 X118.846 Y62.867 E30.10719
G1 X122.894 Y62.867 E30.33706
G1 X122.894 Y70.963 E30.79681
G1 X128.613 Y70.963 E31.12158
G1 X128.613 Y62.867 E31.58132
G1 X130.990 Y62.867 E31.71629
G1 X130.990 Y73.340 E32.31100
G1 X126.942 Y73.340 E32.54088
G1 X126.942 Y77.388 E32.77075
G1 X122.894 Y77.388 E33.00062
G1 X122.894 Y81.437 E33.23049
G1 X114.798 Y81.437 E33.69023
G1 X114.798 Y87.096 E34.01159
G1 X115.333 Y86.620 F4800.000
G1 X119.381 Y86.620 E34.24147 F810.000
G1 X119.381 Y90.668 E34.47134
G1 X123.429 Y90.668 E34.70121
G1 X123.429 Y94.117 E34.89701
G1 X117.957 Y94.117 E35.20774
G1 X117.957 Y90.068 E35.43761
G1 X111.885 Y90.068 E35.78242
G1 X111.885 Y81.972 E36.24216
G1 X108.249 Y81.972 E36.44864
G1 X108.249 Y86.020 E36.67851
G1 X102.777 Y86.020 E36.98925
G1 X102.777 Y81.972 E37.21912
G1 X99.141 Y81.972 E37.42559
G1 X99.141 Y90.068 E37.88533
G1 X93.068 Y90.068 E38.23014
G1 X93.068 Y94.117 E38.46001
G1 X87.596 Y94.117 E38.77075
G1 X87.596 Y90.668 E38.96655
G1 X91.644 Y90.668 E39.19642
G1 X91.644 Y86.620 E39.42629
G1 X95.693 Y86.620 E39.65616
G1 X95.693 Y81.972 E39.92010
G1 X87.596 Y81.972 E40.37985
G1 X87.596 Y77.924 E40.60972
G1 X83.548 Y77.924 E40.83959
G1 X83.548 Y73.876 E41.06946
G1 X79.500 Y73.876 E41.29933
G1 X79.500 Y62.332 E41.95487
G1 X82.948 Y62.332 E42.15067
G1 X82.948 Y70.428 E42.61042
G1 X87.596 Y70.428 E42.87436
G1 X87.596 Y62.332 E43.33410
G1 X91.644 Y62.332 E43.56397
G1 X91.644 Y58.283 E43.79384
G1 X103.189 Y58.283 E44.44939
G1 X103.189 Y61.732 E44.64519
G1 X95.093 Y61.732 E45.10493
G1 X95.093 Y66.380 E45.36887
G1 X115.933 Y66.380 E46.55230
G1 X115.933 Y61.732 E46.81624
G1 X107.837 Y61.732 E47.27598
G1 X107.837 Y58.283 E47.47178
G1 X119.381 Y58.283 E48.12733
G1 X119.381 Y62.332 E48.35720
G1 X123.429 Y62.332 E48.58707
G1 X123.429 Y70.428 E49.04681
G1 X128.077 Y70.428 E49.31075
G1 X128.077 Y62.332 E49.77049
G1 X131.526 Y62.332 E49.96629
G1 X131.526 Y73.876 E50.62184
G1 X127.477 Y73.876 E50.85171
G1 X127.477 Y77.924 E51.08158
G1 X123.429 Y77.924 E51.31145
G1 X123.429 Y81.972 E51.54132
G1 X115.333 Y81.972 E52.00106
G1 X115.333 Y86.560 E52.26160
G1 X115.333 Y87.020 F4800.000
G1 F1800.000 E51.26160
G92 E0
G1 X119.437 Y92.677 F4800.000
G1 E1.00000 F1800.000
G1 X119.397 Y92.637 E1.00321 F1080.000
G1 X119.638 Y92.108 E1.03624
G1 X120.207 Y92.677 E1.08193
G1 X120.409 Y92.108 E1.11621
G1 X120.978 Y92.677 E1.16191
G1 X121.179 Y92.108 E1.19619
G1 X121.748 Y92.677 E1.24188
G1 X121.990 Y92.148 E1.27491
G1 X121.950 Y92.108 E1.27812
G1 F1800.000 E0.27812
G92 E0
G1 X117.724 Y88.060 F4800.000
G1 E1.00000 F1800.000
G1 X117.942 Y88.277 E1.01744 F1080.000
G1 X117.531 Y88.629 E1.04816
G1 X116.962 Y88.060 E1.09386
G1 X116.768 Y88.629 E1.12799
G1 X116.199 Y88.060 E1.17369
G1 X116.005 Y88.629 E1.20782
G1 X115.436 Y88.060 E1.25352
G1 X115.243 Y88.629 E1.28765
G1 X114.674 Y88.060 E1.33335
G1 X114.480 Y88.629 E1.36748
G1 X113.325 Y87.473 E1.46027
G1 X113.894 Y87.280 E1.49440
G1 X113.325 Y86.711 E1.54010
G1 X113.894 Y86.517 E1.57423
G1 X113.325 Y85.948 E1.61993
G1 X113.894 Y85.754 E1.65406
G1 X113.325 Y85.185 E1.69976
G1 X113.894 Y84.992 E1.73389
G1 X113.325 Y84.423 E1.77959
G1 X113.894 Y84.229 E1.81372
G1 X113.325 Y83.660 E1.85942
G1 X113.894 Y83.466 E1.89355
G1 X113.325 Y82.897 E1.93925
G1 X113.894 Y82.704 E1.97339
G1 X113.325 Y82.134 E2.01908
G1 X113.894 Y81.941 E2.05322
G1 X113.325 Y81.372 E2.09891
G1 X113.894 Y81.178 E2.13305
G1 X112.679 Y79.964 E2.23058
G1 X112.485 Y80.533 E2.26471
G1 X111.916 Y79.964 E2.31041
G1 X111.723 Y80.533 E2.34454
G1 X111.154 Y79.964 E2.39024
G1 X110.960 Y80.533 E2.42437
G1 X110.391 Y79.964 E2.47007
G1 X110.197 Y80.533 E2.50420
G1 X97.484 Y67.819 E3.52516
G1 X96.721 Y67.819 E3.56847
G1 X109.435 Y80.533 E4.58943
G1 X108.672 Y80.533 E4.63274
G1 X101.180 Y73.041 E5.23436
G1 X100.576 Y72.436 F4800.000
G1 X95.958 Y67.819 E5.60514 F1080.000
G1 X95.196 Y67.819 E5.64845
G1 X99.813 Y72.436 E6.01924
G1 X99.050 Y72.436 E6.06255
G1 X94.433 Y67.819 E6.43333
G1 X93.670 Y67.819 E6.47664
G1 X98.287 Y72.436 E6.84743
G1 X97.525 Y72.436 E6.89074
G1 X89.036 Y63.947 E7.57245
G1 X89.622 Y63.771 E7.60722
G1 X93.653 Y67.802 E7.93091
G1 X93.653 Y67.039 E7.97422
G1 X90.385 Y63.771 E8.23667
G1 X91.148 Y63.771 E8.27998
G1 X93.653 Y66.276 E8.48118
G1 X93.653 Y65.514 E8.52449
G1 X91.910 Y63.771 E8.66443
G1 X92.673 Y63.771 E8.70774
G1 X93.653 Y64.751 E8.78644
G1 X93.653 Y63.988 E8.82975
G1 X93.084 Y63.419 E8.87544
G1 X93.653 Y63.226 E8.90958
G1 X93.084 Y62.657 E8.95527
G1 X93.653 Y62.463 E8.98941
G1 X93.084 Y61.894 E9.03510
G1 X93.653 Y61.700 E9.06924
G1 X93.084 Y61.131 E9.11493
G1 X93.653 Y60.937 E9.14907
G1 X93.084 Y60.368 E9.19476
G1 X93.201 Y59.723 E9.23202
G1 X93.770 Y60.292 E9.27771
G1 X93.964 Y59.723 E9.31185
G1 X94.533 Y60.292 E9.35754
G1 X94.727 Y59.723 E9.39168
G1 X95.296 Y60.292 E9.43737
G1 X95.489 Y59.723 E9.47151
G1 X96.058 Y60.292 E9.51720
G1 X96.252 Y59.723 E9.55134
G1 X96.821 Y60.292 E9.59703
G1 X97.015 Y59.723 E9.63117
G1 X97.584 Y60.292 E9.67686
G1 X97.777 Y59.723 E9.71100
G1 X98.347 Y60.292 E9.75669
G1 X98.540 Y59.723 E9.79083
G1 X99.109 Y60.292 E9.83652
G1 X99.303 Y59.723 E9.87066
G1 X99.872 Y60.292 E9.91635
G1 X100.066 Y59.723 E9.95048
G1 X100.635 Y60.292 E9.99618
G1 X100.828 Y59.723 E10.03031
G1 X101.397 Y60.292 E10.07601
G1 X101.591 Y59.723 E10.11014
G1 X101.749 Y59.881 E10.12284
G1 F1800.000 E9.12284
G92 E0
G1 X109.276 Y59.781 F4800.000
G1 E1.00000 F1800.000
G1 X109.787 Y60.292 E1.04102 F1080.000
G1 X109.981 Y59.723 E1.07516
G1 X110.550 Y60.292 E1.12085
G1 X110.744 Y59.723 E1.15499
G1 X111.313 Y60.292 E1.20068
G1 X111.506 Y59.723 E1.23482
G1 X112.075 Y60.292 E1.28051
G1 X112.269 Y59.723 E1.31465
G1 X112.838 Y60.292 E1.36034
G1 X113.032 Y59.723 E1.39447
G1 X113.601 Y60.292 E1.44017
G1 X113.795 Y59.723 E1.47430
G1 X114.364 Y60.292 E1.52000
G1 X114.557 Y59.723 E1.55413
G1 X115.126 Y60.292 E1.59983
G1 X115.320 Y59.723 E1.63396
G1 X115.889 Y60.292 E1.67966
G1 X116.083 Y59.723 E1.71379
G1 X116.652 Y60.292 E1.75949
G1 X116.845 Y59.723 E1.79362
G1 X117.942 Y60.819 E1.88167
G1 X117.373 Y61.013 E1.91580
G1 X117.942 Y61.582 E1.96150
G1 X117.373 Y61.776 E1.99563
G1 X117.942 Y62.345 E2.04133
G1 X117.373 Y62.538 E2.07546
G1 X117.942 Y63.107 E2.12116
G1 X117.373 Y63.301 E2.15529
G1 X121.990 Y67.918 E2.52607
G1 X121.990 Y68.681 E2.56938
G1 X117.373 Y64.064 E2.94017
G1 X117.373 Y64.827 E2.98348
G1 X121.990 Y69.444 E3.35426
G1 X121.990 Y70.206 E3.39757
G1 X117.373 Y65.589 E3.76835
G1 X117.373 Y66.352 E3.81166
G1 X121.990 Y70.969 E4.18245
G1 X121.990 Y71.732 E4.22576
G1 X117.373 Y67.115 E4.59654
G1 X117.314 Y67.819 E4.63668
G1 X125.980 Y76.485 E5.33255
G1 X126.038 Y75.780 E5.37269
G1 X122.125 Y71.867 E5.68690
G1 X122.888 Y71.867 E5.73021
G1 X126.038 Y75.017 E5.98317
G1 X126.038 Y74.255 E6.02648
G1 X123.651 Y71.867 E6.21818
G1 X124.413 Y71.867 E6.26149
G1 X126.038 Y73.492 E6.39195
G1 X126.038 Y72.729 E6.43526
G1 X125.176 Y71.867 E6.50447
G1 X125.939 Y71.867 E6.54778
G1 X126.508 Y72.436 E6.59347
G1 X126.702 Y71.867 E6.62761
G1 X127.271 Y72.436 E6.67330
G1 X127.464 Y71.867 E6.70744
G1 X128.033 Y72.436 E6.75313
G1 X128.227 Y71.867 E6.78727
G1 X128.796 Y72.436 E6.83296
G1 X128.990 Y71.867 E6.86710
G1 X129.559 Y72.436 E6.91279
G1 X130.086 Y72.201 E6.94559
G1 X129.517 Y71.632 E6.99128
G1 X130.086 Y71.438 E7.02542
G1 X129.517 Y70.869 E7.07111
G1 X130.086 Y70.676 E7.10525
G1 X129.517 Y70.107 E7.15094
G1 X130.086 Y69.913 E7.18508
G1 X129.517 Y69.344 E7.23077
G1 X130.086 Y69.150 E7.26491
G1 X129.517 Y68.581 E7.31060
G1 X130.086 Y68.387 E7.34474
G1 X129.517 Y67.818 E7.39043
G1 X130.086 Y67.625 E7.42457
G1 X129.517 Y67.056 E7.47026
G1 X130.086 Y66.862 E7.50440
G1 X129.517 Y66.293 E7.55009
G1 X130.086 Y66.099 E7.58423
G1 X129.517 Y65.530 E7.62992
G1 X130.086 Y65.337 E7.66406
G1 X129.517 Y64.767 E7.70975
G1 X130.086 Y64.574 E7.74389
G1 X129.517 Y64.005 E7.78958
G1 X130.086 Y63.811 E7.82372
G1 X130.046 Y63.771 E7.82693
G1 F1800.000 E6.82693
G92 E0
G1 X121.990 Y64.105 F4800.000
G1 E1.00000 F1800.000
G1 X121.656 Y63.771 E1.02679 F1080.000
G1 X120.893 Y63.771 E1.07010
G1 X121.990 Y64.867 E1.15814
G1 X121.990 Y65.630 E1.20145
G1 X120.131 Y63.771 E1.35075
G1 X119.368 Y63.771 E1.39406
G1 X121.990 Y66.393 E1.60460
G1 X121.990 Y67.156 E1.64791
G1 X118.605 Y63.771 E1.91970
G1 F1800.000 E0.91970
G92 E0
G1 X117.942 Y60.057 F4800.000
G1 E1.00000 F1800.000
