; generated by Slic3r 1.2.0 on 2014-09-26 at 20:17:58

; external perimeters extrusion width = 0.40mm
; perimeters extrusion width = 0.67mm
; infill extrusion width = 0.67mm
; solid infill extrusion width = 0.67mm
; top infill extrusion width = 0.67mm

G21 ; set units to millimeters
M107
M104 S195 ; set temperature
G28 X0 Y0  
G29
M109 S195 ; wait for temperature to be reached
G90 ; use absolute coordinates
G92 E0
M82 ; use absolute distances for extrusion
G1 F1800.000 E-1.00000
G92 E0
G1 Z0.300 F4800.000
G1 X11.420 Y12.023 F4800.000
G1 E1.00000 F1800.000
G1 X13.203 Y10.330 E1.14455 F1200.000
G1 X15.073 Y9.405 E1.26718
G1 X27.932 Y5.119 E2.06402
G1 X30.338 Y4.729 E2.20729
G1 X122.063 Y4.729 E7.59969
G1 X124.468 Y5.119 E7.74295
G1 X137.327 Y9.405 E8.53979 F1200.000
G1 X139.503 Y10.550 E8.68434
G1 X141.201 Y12.328 E8.82889
G1 X142.242 Y14.556 E8.97343
G1 X142.528 Y16.622 E9.09606
G1 X142.528 Y118.633 E15.09318
G1 X141.984 Y121.458 E15.26232
G1 X133.412 Y142.889 E16.61929
G1 X132.141 Y144.995 E16.76384
G1 X130.266 Y146.585 E16.90838
G1 X127.982 Y147.494 E17.05293
G1 X126.349 Y147.671 E17.14948
G1 X26.051 Y147.671 E23.04585
G1 X23.625 Y147.274 E23.19040
G1 X21.452 Y146.123 E23.33495
G1 X19.759 Y144.340 E23.47949
G1 X18.988 Y142.889 E23.57605
G1 X10.416 Y121.458 E24.93302
G1 X9.872 Y118.633 E25.10216
G1 X9.872 Y16.622 E31.09927
G1 X10.269 Y14.195 E31.24382
G1 X11.392 Y12.076 E31.38484
G1 X11.878 Y12.344 F4800.000
G1 X11.952 Y12.211 E31.39378 F1200.000
G1 X13.719 Y10.633 E31.53311
G1 X15.243 Y9.914 E31.63214
G1 X28.101 Y5.627 E32.42898
G1 X30.338 Y5.264 E32.56216
G1 X122.063 Y5.264 E37.95456
G1 X124.299 Y5.627 E38.08774
G1 X137.157 Y9.914 E38.88458 F1200.000
G1 X139.248 Y11.029 E39.02391
G1 X140.853 Y12.773 E39.16324
G1 X141.792 Y14.949 E39.30257
G1 X141.992 Y16.622 E39.40160
G1 X141.992 Y118.633 E45.39871
G1 X141.487 Y121.259 E45.55594
G1 X132.914 Y142.691 E46.91291
G1 X131.678 Y144.712 E47.05224
G1 X129.843 Y146.212 E47.19157
G1 X127.615 Y147.021 E47.33091
G1 X126.349 Y147.136 E47.40565
G1 X26.051 Y147.136 E53.30201
G1 X23.715 Y146.738 E53.44134
G1 X21.641 Y145.592 E53.58067
G1 X20.062 Y143.824 E53.72000
G1 X19.486 Y142.691 E53.79474
G1 X10.913 Y121.259 E55.15172
G1 X10.408 Y118.633 E55.30894
G1 X10.408 Y16.622 E61.30606
G1 X10.805 Y14.285 E61.44539
G1 X11.849 Y12.397 E61.57225
G1 X12.328 Y12.675 F4800.000
G1 X12.483 Y12.408 E61.59036 F1200.000
G1 X14.232 Y10.950 E61.72427
G1 X15.412 Y10.422 E61.80026
G1 X28.271 Y6.135 E62.59710
G1 X30.338 Y5.800 E62.72019
G1 X122.063 Y5.800 E68.11259
G1 X124.129 Y6.135 E68.23568
G1 X136.988 Y10.422 E69.03252 F1200.000
G1 X138.990 Y11.508 E69.16643
G1 X140.498 Y13.215 E69.30034
G1 X141.329 Y15.336 E69.43425
G1 X141.457 Y16.622 E69.51025
G1 X141.457 Y118.633 E75.50736
G1 X140.989 Y121.060 E75.65268
G1 X132.417 Y142.492 E77.00965
G1 X131.215 Y144.427 E77.14356
G1 X129.423 Y145.832 E77.27747
G1 X126.349 Y146.600 E77.46374
G1 X26.051 Y146.600 E83.36010
G1 X23.808 Y146.203 E83.49401
G1 X21.838 Y145.060 E83.62792
G1 X19.983 Y142.492 E83.81419
G1 X11.411 Y121.060 E85.17116
G1 X10.943 Y118.633 E85.31648
G1 X10.943 Y16.622 E91.31359
G1 X11.340 Y14.379 E91.44750
G1 X12.298 Y12.727 E91.55978
G1 F1800.000 E90.55978
G92 E0
G1 X112.119 Y72.686 F4800.000
G1 E1.00000 F1800.000
G1 X119.147 Y72.686 E1.41321 F1500.000
G1 X119.147 Y79.714 E1.82642
G1 X112.119 Y79.714 E2.23963
G1 X112.119 Y72.746 E2.64931
G1 X112.654 Y73.221 F4800.000
G1 X118.612 Y73.221 E2.99955 F1500.000
G1 X118.612 Y79.179 E3.34978
G1 X112.654 Y79.179 E3.70001
G1 X112.654 Y73.281 E4.04672
G1 X113.190 Y73.757 F4800.000
G1 X118.076 Y73.757 E4.33398 F1350.000
G1 X118.076 Y78.643 E4.62123
G1 X113.190 Y78.643 E4.90849
G1 X113.190 Y73.817 E5.19222
G1 X113.190 Y73.357 F4800.000
G1 F1800.000 E4.19222
G92 E0
G1 X102.002 Y72.686 F4800.000
G1 E1.00000 F1800.000
G1 X102.002 Y79.714 E1.41321 F1500.000
G1 X94.974 Y79.714 E1.82642
G1 X94.974 Y72.686 E2.23963
G1 X101.942 Y72.686 E2.64931
G1 X101.467 Y73.221 F4800.000
G1 X101.467 Y79.179 E2.99955 F1500.000
G1 X95.509 Y79.179 E3.34978
G1 X95.509 Y73.221 E3.70001
G1 X101.407 Y73.221 E4.04672
G1 X100.931 Y73.757 F4800.000
G1 X100.931 Y78.643 E4.33397 F1350.000
G1 X96.045 Y78.643 E4.62123
G1 X96.045 Y73.757 E4.90849
G1 X100.871 Y73.757 E5.19222
G1 X101.331 Y73.757 F4800.000
G1 F1800.000 E4.19222
G92 E0
G1 X104.618 Y82.329 F4800.000
G1 E1.00000 F1800.000
G1 X109.504 Y82.329 E1.28726 F1350.000
G1 X109.504 Y86.108 E1.50939
G1 X104.618 Y86.108 E1.79665
G1 X104.618 Y82.389 E2.01526
G1 X104.618 Y81.929 F4800.000
G1 F1800.000 E1.01526
G92 E0
G1 X92.831 Y92.573 F4800.000
G1 E1.00000 F1800.000
G1 X92.831 Y94.117 E1.09076 F1500.000
G1 X89.144 Y94.117 E1.30751
G1 X89.144 Y92.573 E1.39826
G1 X92.771 Y92.573 E1.61148
G1 F1800.000 E0.61148
G92 E0
G1 X121.291 Y92.573 F4800.000
G1 E1.00000 F1800.000
G1 X124.978 Y92.573 E1.21675 F1500.000
G1 X124.978 Y94.117 E1.30750
G1 X121.291 Y94.117 E1.52425
G1 X121.291 Y92.633 E1.61148
G1 F1800.000 E0.61148
G92 E0
G1 X116.405 Y88.287 F4800.000
G1 E1.00000 F1800.000
G1 X120.691 Y88.287 E1.25198 F1500.000
G1 X120.691 Y89.831 E1.34274
G1 X114.861 Y89.831 E1.68548
G1 X114.861 Y81.258 E2.18945
G1 X99.260 Y81.258 E3.10662
G1 X99.260 Y89.831 E3.61059
G1 X93.430 Y89.831 E3.95333
G1 X93.430 Y88.287 E4.04409
G1 X97.716 Y88.287 E4.29607
G1 X97.716 Y81.258 E4.70928
G1 X89.144 Y81.258 E5.21325
G1 X89.144 Y76.972 E5.46523
G1 X84.857 Y76.972 E5.71721
G1 X84.857 Y72.686 E5.96920
G1 X80.571 Y72.686 E6.22118
G1 X80.571 Y62.569 E6.81590
G1 X82.115 Y62.569 E6.90666
G1 X82.115 Y71.142 E7.41063
G1 X89.144 Y71.142 E7.82384
G1 X89.144 Y62.569 E8.32780
G1 X93.430 Y62.569 E8.57979
G1 X93.430 Y58.283 E8.83177
G1 X103.546 Y58.283 E9.42649
G1 X103.546 Y59.827 E9.51725
G1 X94.974 Y59.827 E10.02122
G1 X94.974 Y66.856 E10.43443
G1 X119.147 Y66.856 E11.85557
G1 X119.147 Y59.827 E12.26878
G1 X110.575 Y59.827 E12.77275
G1 X110.575 Y58.283 E12.86350
G1 X120.691 Y58.283 E13.45823
G1 X120.691 Y62.569 E13.71021
G1 X124.978 Y62.569 E13.96219
G1 X124.978 Y71.142 E14.46616
G1 X132.006 Y71.142 E14.87937
G1 X132.006 Y62.569 E15.38334
G1 X133.550 Y62.569 E15.47409
G1 X133.550 Y72.686 E16.06882
G1 X129.264 Y72.686 E16.32080
G1 X129.264 Y76.972 E16.57278
G1 X124.978 Y76.972 E16.82477
G1 X124.978 Y81.258 E17.07675
G1 X116.405 Y81.258 E17.58072
G1 X116.405 Y88.227 E17.99040
G1 X116.941 Y87.751 F4800.000
G1 X121.227 Y87.751 E18.24238 F1500.000
G1 X121.227 Y92.037 E18.49437
G1 X125.513 Y92.037 E18.74635
G1 X125.513 Y94.653 E18.90008
G1 X120.755 Y94.653 E19.17981
G1 X120.755 Y90.366 E19.43179
G1 X114.326 Y90.366 E19.80976
G1 X114.326 Y81.794 E20.31373
G1 X99.796 Y81.794 E21.16793
G1 X99.796 Y90.366 E21.67190
G1 X93.366 Y90.366 E22.04987
G1 X93.366 Y94.653 E22.30186
G1 X88.608 Y94.653 E22.58158
G1 X88.608 Y92.037 E22.73532
G1 X92.894 Y92.037 E22.98730
G1 X92.894 Y87.751 E23.23928
G1 X97.181 Y87.751 E23.49127
G1 X97.181 Y81.794 E23.84150
G1 X88.608 Y81.794 E24.34547
G1 X88.608 Y77.508 E24.59745
G1 X84.322 Y77.508 E24.84943
G1 X84.322 Y73.221 E25.10142
G1 X80.036 Y73.221 E25.35340
G1 X80.036 Y62.034 E26.01110
G1 X82.651 Y62.034 E26.16483
G1 X82.651 Y70.606 E26.66880
G1 X88.608 Y70.606 E27.01903
G1 X88.608 Y62.034 E27.52300
G1 X92.894 Y62.034 E27.77498
G1 X92.894 Y57.747 E28.02697
G1 X104.082 Y57.747 E28.68467
G1 X104.082 Y60.363 E28.83840
G1 X95.509 Y60.363 E29.34237
G1 X95.509 Y66.320 E29.69260
G1 X118.612 Y66.320 E31.05077
G1 X118.612 Y60.363 E31.40100
G1 X110.039 Y60.363 E31.90497
G1 X110.039 Y57.747 E32.05870
G1 X121.227 Y57.747 E32.71640
G1 X121.227 Y62.034 E32.96838
G1 X125.513 Y62.034 E33.22037
G1 X125.513 Y70.606 E33.72433
G1 X131.471 Y70.606 E34.07457
G1 X131.471 Y62.034 E34.57853
G1 X134.086 Y62.034 E34.73227
G1 X134.086 Y73.221 E35.38997
G1 X129.799 Y73.221 E35.64195
G1 X129.799 Y77.508 E35.89393
G1 X125.513 Y77.508 E36.14592
G1 X125.513 Y81.794 E36.39790
G1 X116.941 Y81.794 E36.90187
G1 X116.941 Y87.691 E37.24857
G1 X117.476 Y87.216 F4800.000
G1 X121.763 Y87.216 E37.50056 F1350.000
G1 X121.763 Y91.502 E37.75254
G1 X126.049 Y91.502 E38.00452
G1 X126.049 Y95.188 E38.22123
G1 X120.219 Y95.188 E38.56393
G1 X120.219 Y90.902 E38.81592
G1 X113.790 Y90.902 E39.19389
G1 X113.790 Y82.329 E39.69786
G1 X109.975 Y82.329 E39.92212
G1 X109.975 Y86.616 E40.17410
G1 X104.146 Y86.616 E40.51680
G1 X104.146 Y82.329 E40.76879
G1 X100.331 Y82.329 E40.99305
G1 X100.331 Y90.902 E41.49702
G1 X93.902 Y90.902 E41.87499
G1 X93.902 Y95.188 E42.12697
G1 X88.073 Y95.188 E42.46968
G1 X88.073 Y91.502 E42.68639
G1 X92.359 Y91.502 E42.93837
G1 X92.359 Y87.216 E43.19035
G1 X96.645 Y87.216 E43.44234
G1 X96.645 Y82.329 E43.72959
G1 X88.073 Y82.329 E44.23356
G1 X88.073 Y78.043 E44.48554
G1 X83.786 Y78.043 E44.73753
G1 X83.786 Y73.757 E44.98951
G1 X79.500 Y73.757 E45.24149
G1 X79.500 Y61.498 E45.96217
G1 X83.186 Y61.498 E46.17888
G1 X83.186 Y70.071 E46.68285
G1 X88.073 Y70.071 E46.97010
G1 X88.073 Y61.498 E47.47407
G1 X92.359 Y61.498 E47.72605
G1 X92.359 Y57.212 E47.97804
G1 X104.618 Y57.212 E48.69871
G1 X104.618 Y60.898 E48.91542
G1 X96.045 Y60.898 E49.41939
G1 X96.045 Y65.784 E49.70665
G1 X118.076 Y65.784 E51.00184
G1 X118.076 Y60.898 E51.28909
G1 X109.504 Y60.898 E51.79306
G1 X109.504 Y57.212 E52.00977
G1 X121.763 Y57.212 E52.73045
G1 X121.763 Y61.498 E52.98243
G1 X126.049 Y61.498 E53.23441
G1 X126.049 Y70.071 E53.73838
G1 X130.935 Y70.071 E54.02564
G1 X130.935 Y61.498 E54.52960
G1 X134.621 Y61.498 E54.74631
G1 X134.621 Y73.757 E55.46699
G1 X130.335 Y73.757 E55.71897
G1 X130.335 Y78.043 E55.97096
G1 X126.049 Y78.043 E56.22294
G1 X126.049 Y82.329 E56.47492
G1 X117.476 Y82.329 E56.97889
G1 X117.476 Y87.156 E57.26262
G1 X117.476 Y87.616 F4800.000
G1 F1800.000 E56.26262
G92 E0
G1 X121.699 Y93.749 F4800.000
G1 E1.00000 F1800.000
G1 X121.659 Y93.709 E1.00333 F1800.000
G1 X121.811 Y92.941 E1.04931
G1 X122.618 Y93.749 E1.11641
G1 X122.730 Y92.941 E1.16432
G1 X123.538 Y93.749 E1.23143
G1 X123.650 Y92.941 E1.27934
G1 X124.457 Y93.749 E1.34644
G1 X124.609 Y92.981 E1.39242
G1 X124.569 Y92.941 E1.39575
G1 F1800.000 E0.39575
G92 E0
G1 X120.323 Y89.157 F4800.000
G1 E1.00000 F1800.000
G1 X119.822 Y88.655 E1.04168 F1800.000
G1 X119.056 Y88.655 E1.08668
G1 X119.863 Y89.462 E1.15379
G1 X119.098 Y89.462 E1.19879
G1 X118.291 Y88.655 E1.26590
G1 X117.525 Y88.655 E1.31089
G1 X118.332 Y89.462 E1.37800
G1 X117.567 Y89.462 E1.42300
G1 X116.760 Y88.655 E1.49011
G1 X115.271 Y89.462 F4800.000
G1 X115.230 Y89.421 E1.49353 F1800.000
G1 X115.230 Y88.656 E1.53853
G1 X116.036 Y89.462 E1.60559
G1 X116.802 Y89.462 E1.65059
G1 X115.230 Y87.890 E1.78129
G1 X115.230 Y87.125 E1.82629
G1 X116.037 Y87.932 E1.89339
G1 X116.037 Y87.167 E1.93839
G1 X115.230 Y86.359 E2.00550
G1 X115.230 Y85.594 E2.05050
G1 X116.037 Y86.401 E2.11761
G1 X116.037 Y85.636 E2.16261
G1 X115.230 Y84.829 E2.22972
G1 X115.230 Y84.063 E2.27472
G1 X116.037 Y84.870 E2.34182
G1 X116.037 Y84.105 E2.38682
G1 X115.230 Y83.298 E2.45393
G1 X115.230 Y82.532 E2.49893
G1 X116.037 Y83.339 E2.56604
G1 X116.037 Y82.574 E2.61104
G1 X115.230 Y81.767 E2.67815
G1 F1800.000 E1.67815
G92 E0
G1 X111.291 Y80.890 F4800.000
G1 E1.00000 F1800.000
G1 X97.625 Y67.224 E2.13618 F1800.000
G1 F1800.000 E1.13618
G92 E0
G1 X95.329 Y67.224 F4800.000
G1 E1.00000 F1800.000
G1 X100.422 Y72.317 E1.42347 F1800.000
G1 X101.187 Y72.317 E1.46847
G1 X96.094 Y67.224 E1.89193
G1 X96.859 Y67.224 E1.93693
G1 X110.525 Y80.890 E3.07311
G1 X109.760 Y80.890 E3.11811
G1 X102.371 Y73.501 E3.73245
G1 X102.371 Y74.266 E3.77745
G1 X108.995 Y80.890 E4.32814
G1 X108.229 Y80.890 E4.37314
G1 X102.371 Y75.032 E4.86020
G1 X102.371 Y75.797 E4.90520
G1 X107.464 Y80.890 E5.32861
G1 X106.698 Y80.890 E5.37361
G1 X102.371 Y76.562 E5.73339
G1 X102.371 Y77.328 E5.77839
G1 X105.933 Y80.890 E6.07453
G1 X105.167 Y80.890 E6.11953
G1 X102.371 Y78.093 E6.35203
G1 X102.371 Y78.859 E6.39703
G1 X104.402 Y80.890 E6.56589
G1 X103.636 Y80.890 E6.61089
G1 X102.371 Y79.624 E6.71612
G1 X102.064 Y80.083 E6.74855
G1 X102.871 Y80.890 E6.81566
G1 X102.106 Y80.890 E6.86066
G1 X101.298 Y80.083 E6.92777
G1 X100.533 Y80.083 E6.97277
G1 X101.340 Y80.890 E7.03987
G1 X100.575 Y80.890 E7.08487
G1 X99.767 Y80.083 E7.15198
G1 X99.002 Y80.083 E7.19698
G1 X99.809 Y80.890 E7.26409
G1 X99.044 Y80.890 E7.30909
G1 X98.237 Y80.083 E7.37619
G1 X97.471 Y80.083 E7.42119
G1 X98.892 Y81.503 E7.53930
G1 X98.892 Y82.269 E7.58430
G1 X98.085 Y81.462 E7.65141
G1 X98.085 Y82.227 E7.69640
G1 X98.892 Y83.034 E7.76351
G1 X98.892 Y83.800 E7.80851
G1 X98.085 Y82.992 E7.87562
G1 X98.085 Y83.758 E7.92062
G1 X98.892 Y84.565 E7.98773
G1 X98.892 Y85.330 E8.03273
G1 X98.085 Y84.523 E8.09983
G1 X98.085 Y85.289 E8.14483
G1 X98.892 Y86.096 E8.21194
G1 X98.892 Y86.861 E8.25694
G1 X98.085 Y86.054 E8.32405
G1 X98.085 Y86.820 E8.36905
G1 X98.892 Y87.627 E8.43615
G1 X98.892 Y88.392 E8.48115
G1 X98.085 Y87.585 E8.54826
G1 X98.085 Y88.350 E8.59326
G1 X98.892 Y89.158 E8.66037
G1 X98.431 Y89.462 E8.69284
G1 X97.624 Y88.655 E8.75995
G1 X96.858 Y88.655 E8.80495
G1 X97.666 Y89.462 E8.87206
G1 X96.900 Y89.462 E8.91706
G1 X96.093 Y88.655 E8.98416
G1 X95.327 Y88.655 E9.02916
G1 X96.135 Y89.462 E9.09627
G1 X95.369 Y89.462 E9.14127
G1 X94.562 Y88.655 E9.20838
G1 X93.798 Y88.657 E9.25328
G1 X94.604 Y89.462 E9.32024
G1 X93.838 Y89.462 E9.36524
G1 X93.798 Y89.422 E9.36857
G1 F1800.000 E8.36857
G92 E0
G1 X93.686 Y80.890 F4800.000
G1 E1.00000 F1800.000
G1 X84.306 Y71.510 E1.77982 F1800.000
G1 X85.071 Y71.510 E1.82482
G1 X94.451 Y80.890 E2.60465
G1 X95.217 Y80.890 E2.64965
G1 X85.837 Y71.510 E3.42947
G1 X86.602 Y71.510 E3.47447
G1 X94.605 Y79.513 E4.13985
G1 X94.605 Y78.748 E4.18485
G1 X87.368 Y71.510 E4.78659
G1 X88.133 Y71.510 E4.83159
G1 X94.605 Y77.982 E5.36969
G1 X94.605 Y77.217 E5.41469
G1 X88.899 Y71.510 E5.88915
G1 X89.512 Y71.358 E5.92630
G1 X94.605 Y76.452 E6.34977
G1 X94.605 Y75.686 E6.39477
G1 X89.512 Y70.593 E6.81823
G1 X89.512 Y69.827 E6.86323
G1 X94.605 Y74.921 E7.28670
G1 X94.605 Y74.155 E7.33170
G1 X89.512 Y69.062 E7.75517
G1 X89.512 Y68.296 E7.80016
G1 X94.605 Y73.390 E8.22363
G1 X94.605 Y72.624 E8.26863
G1 X89.512 Y67.531 E8.69210
G1 X89.512 Y66.765 E8.73710
G1 X95.064 Y72.317 E9.19868
G1 X95.829 Y72.317 E9.24368
G1 X89.512 Y66.000 E9.76890
G1 X89.512 Y65.235 E9.81390
G1 X96.595 Y72.317 E10.40276
G1 X97.360 Y72.317 E10.44776
G1 X89.512 Y64.469 E11.10026
G1 X89.512 Y63.704 E11.14526
G1 X98.126 Y72.317 E11.86140
G1 X98.891 Y72.317 E11.90640
G1 X89.512 Y62.938 E12.68617
G1 X90.277 Y62.938 E12.73114
G1 X99.657 Y72.317 E13.51096
G1 F1800.000 E12.51096
G92 E0
G1 X94.605 Y66.501 F4800.000
G1 E1.00000 F1800.000
G1 X91.042 Y62.938 E1.29624 F1800.000
G1 X91.808 Y62.938 E1.34124
G1 X94.605 Y65.735 E1.57383
G1 X94.605 Y64.970 E1.61883
G1 X92.573 Y62.938 E1.78779
G1 X93.339 Y62.938 E1.83279
G1 X94.605 Y64.204 E1.93811
G1 X94.605 Y63.439 E1.98311
G1 X93.798 Y62.632 E2.05022
G1 X93.798 Y61.866 E2.09522
G1 X94.605 Y62.674 E2.16232
G1 X94.605 Y61.908 E2.20732
G1 X93.798 Y61.101 E2.27443
G1 X93.798 Y60.336 E2.31943
G1 X94.605 Y61.143 E2.38654
G1 X94.605 Y60.377 E2.43154
G1 X93.798 Y59.570 E2.49865
G1 X93.798 Y58.805 E2.54365
G1 X94.605 Y59.612 E2.61075
G1 X95.218 Y59.459 E2.64785
G1 X94.411 Y58.651 E2.71496
G1 X95.176 Y58.651 E2.75996
G1 X95.983 Y59.459 E2.82707
G1 X96.749 Y59.459 E2.87207
G1 X95.941 Y58.651 E2.93918
G1 X96.707 Y58.651 E2.98418
G1 X97.514 Y59.459 E3.05128
G1 X98.279 Y59.459 E3.09628
G1 X97.472 Y58.651 E3.16339
G1 X98.238 Y58.651 E3.20839
G1 X99.045 Y59.459 E3.27550
G1 X99.810 Y59.459 E3.32050
G1 X99.003 Y58.651 E3.38760
G1 X99.769 Y58.651 E3.43260
G1 X100.576 Y59.459 E3.49971
G1 X101.341 Y59.459 E3.54471
G1 X100.534 Y58.651 E3.61182
G1 X101.300 Y58.651 E3.65682
G1 X102.107 Y59.459 E3.72393
G1 X102.872 Y59.459 E3.76893
G1 X102.065 Y58.651 E3.83603
G1 X102.830 Y58.651 E3.88103
G1 X103.178 Y58.999 E3.90993
G1 F1800.000 E2.90993
G92 E0
G1 X110.943 Y59.110 F4800.000
G1 E1.00000 F1800.000
G1 X111.292 Y59.459 E1.02899 F1800.000
G1 X112.057 Y59.459 E1.07399
G1 X111.250 Y58.651 E1.14110
G1 X112.016 Y58.651 E1.18610
G1 X112.823 Y59.459 E1.25320
G1 X113.588 Y59.459 E1.29820
G1 X112.781 Y58.651 E1.36531
G1 X113.547 Y58.651 E1.41031
