; generated by Slic3r 1.2.0 on 2014-10-03 at 18:14:33

; external perimeters extrusion width = 0.40mm
; perimeters extrusion width = 0.67mm
; infill extrusion width = 0.67mm
; solid infill extrusion width = 0.67mm
; top infill extrusion width = 0.67mm

G21 ; set units to millimeters
M107
M104 S195 ; set temperature
G28 X0 Y0  
G29
M109 S195 ; wait for temperature to be reached
G90 ; use absolute coordinates
G92 E0
M82 ; use absolute distances for extrusion
G1 F1800.000 E-1.00000
G92 E0
G1 Z0.300 F4800.000
G1 X51.324 Y51.495 F4800.000
G1 E1.00000 F1800.000
G1 X52.182 Y50.715 E1.06973 F720.000
G1 X52.363 Y50.573 E1.08353
G1 X53.129 Y50.044 E1.13948
G1 X54.149 Y49.492 E1.20921
G1 X55.228 Y49.068 E1.27894
G1 X56.350 Y48.776 E1.34867
G1 X57.500 Y48.622 E1.41840
G1 X58.200 Y48.593 E1.46054
G1 X94.659 Y48.607 E3.65265
G1 X95.812 Y48.732 E3.72238 F720.000
G1 X96.942 Y48.996 E3.79211
G1 X98.031 Y49.393 E3.86184
G1 X99.065 Y49.919 E3.93157
G1 X100.027 Y50.566 E4.00130
G1 X100.905 Y51.324 E4.07103
G1 X101.685 Y52.183 E4.14076
G1 X102.356 Y53.128 E4.21048
G1 X102.908 Y54.149 E4.28022
G1 X103.332 Y55.228 E4.34994
G1 X103.624 Y56.350 E4.41967
G1 X103.778 Y57.500 E4.48941
G1 X103.807 Y58.200 E4.53155
G1 X103.793 Y94.659 E6.72363
G1 X103.668 Y95.812 E6.79339
G1 X103.404 Y96.942 E6.86312
G1 X103.007 Y98.031 E6.93285
G1 X102.481 Y99.065 E7.00258
G1 X101.834 Y100.027 E7.07230
G1 X101.692 Y100.209 E7.08617
G1 X101.076 Y100.905 E7.14206
G1 X100.217 Y101.685 E7.21179
G1 X99.272 Y102.356 E7.28151
G1 X99.075 Y102.475 E7.29534
G1 X98.251 Y102.908 E7.35127
G1 X97.172 Y103.332 E7.42099
G1 X96.050 Y103.624 E7.49072
G1 X94.900 Y103.778 E7.56046
G1 X94.200 Y103.807 E7.60260
G1 X57.729 Y103.792 E9.79543
G1 X56.588 Y103.668 E9.86444
G1 X55.458 Y103.404 E9.93417
G1 X54.369 Y103.007 E10.00390
G1 X53.335 Y102.481 E10.07364
G1 X52.373 Y101.834 E10.14335
G1 X52.192 Y101.692 E10.15716
G1 X51.495 Y101.076 E10.21310
G1 X50.715 Y100.218 E10.28284
G1 X50.044 Y99.271 E10.35257
G1 X49.492 Y98.251 E10.42230
G1 X49.068 Y97.172 E10.49203
G1 X48.776 Y96.050 E10.56175
G1 X48.622 Y94.900 E10.63149
G1 X48.608 Y94.671 E10.64532
G1 X48.593 Y94.200 E10.67363
G1 X48.607 Y57.741 E12.86570
G1 X48.732 Y56.588 E12.93547
G1 X48.996 Y55.458 E13.00520
G1 X49.393 Y54.369 E13.07493
G1 X49.919 Y53.335 E13.14466
G1 X50.566 Y52.373 E13.21439
G1 X51.284 Y51.540 E13.28051
G1 X51.685 Y51.894 F4800.000
G1 X52.513 Y51.137 E13.34798 F720.000
G1 X52.693 Y50.995 E13.36178
G1 X53.406 Y50.503 E13.41384
G1 X54.368 Y49.981 E13.47968
G1 X55.387 Y49.579 E13.54552
G1 X56.447 Y49.303 E13.61137
G1 X57.532 Y49.156 E13.67721
G1 X58.200 Y49.129 E13.71741
G1 X94.627 Y49.142 E15.90757
G1 X95.716 Y49.259 E15.97341 F720.000
G1 X96.782 Y49.507 E16.03925
G1 X97.811 Y49.882 E16.10509
G1 X98.788 Y50.378 E16.17093
G1 X99.697 Y50.988 E16.23677
G1 X100.526 Y51.703 E16.30262
G1 X101.263 Y52.513 E16.36846
G1 X101.897 Y53.406 E16.43429
G1 X102.419 Y54.368 E16.50014
G1 X102.821 Y55.387 E16.56598
G1 X103.097 Y56.447 E16.63182
G1 X103.244 Y57.532 E16.69767
G1 X103.271 Y58.200 E16.73786
G1 X103.258 Y94.626 E18.92799
G1 X103.141 Y95.716 E18.99387
G1 X102.893 Y96.782 E19.05971
G1 X102.518 Y97.811 E19.12555
G1 X102.022 Y98.788 E19.19140
G1 X101.412 Y99.697 E19.25723
G1 X101.270 Y99.879 E19.27109
G1 X100.697 Y100.526 E19.32309
G1 X99.887 Y101.263 E19.38894
G1 X98.994 Y101.897 E19.45477
G1 X98.798 Y102.016 E19.46859
G1 X98.032 Y102.419 E19.52064
G1 X97.013 Y102.821 E19.58648
G1 X95.953 Y103.097 E19.65232
G1 X94.868 Y103.244 E19.71816
G1 X94.200 Y103.271 E19.75836
G1 X57.761 Y103.258 E21.94925
G1 X56.684 Y103.141 E22.01437
G1 X55.618 Y102.893 E22.08021
G1 X54.589 Y102.518 E22.14604
G1 X53.612 Y102.022 E22.21189
G1 X52.703 Y101.412 E22.27772
G1 X52.522 Y101.271 E22.29153
G1 X51.874 Y100.697 E22.34359
G1 X51.137 Y99.887 E22.40943
G1 X50.503 Y98.994 E22.47527
G1 X49.981 Y98.032 E22.54111
G1 X49.579 Y97.013 E22.60695
G1 X49.303 Y95.953 E22.67279
G1 X49.156 Y94.868 E22.73864
G1 X49.142 Y94.638 E22.75247
G1 X49.129 Y94.200 E22.77884
G1 X49.142 Y57.774 E24.96897
G1 X49.259 Y56.684 E25.03485
G1 X49.507 Y55.618 E25.10069
G1 X49.882 Y54.589 E25.16653
G1 X50.378 Y53.612 E25.23237
G1 X50.988 Y52.703 E25.29821
G1 X51.645 Y51.939 E25.35881
G1 X52.046 Y52.293 F4800.000
G1 X52.843 Y51.558 E25.42401 F720.000
G1 X53.024 Y51.417 E25.43781
G1 X53.683 Y50.961 E25.48598
G1 X54.588 Y50.469 E25.54794
G1 X55.546 Y50.090 E25.60989
G1 X56.543 Y49.830 E25.67184
G1 X57.564 Y49.691 E25.73380
G1 X58.200 Y49.664 E25.77205
G1 X94.595 Y49.676 E27.96027
G1 X95.619 Y49.786 E28.02222 F720.000
G1 X96.623 Y50.018 E28.08417
G1 X97.591 Y50.370 E28.14613
G1 X98.511 Y50.836 E28.20808
G1 X99.367 Y51.409 E28.27003
G1 X100.148 Y52.082 E28.33199
G1 X100.842 Y52.843 E28.39394
G1 X101.439 Y53.683 E28.45588
G1 X101.931 Y54.588 E28.51784
G1 X102.310 Y55.546 E28.57979
G1 X102.570 Y56.543 E28.64174
G1 X102.709 Y57.564 E28.70370
G1 X102.736 Y58.200 E28.74195
G1 X102.724 Y94.594 E30.93014
G1 X102.614 Y95.619 E30.99213
G1 X102.382 Y96.623 E31.05408
G1 X102.030 Y97.591 E31.11603
G1 X101.564 Y98.511 E31.17799
G1 X100.991 Y99.367 E31.23993
G1 X100.318 Y100.148 E31.30189
G1 X99.557 Y100.842 E31.36385
G1 X98.717 Y101.439 E31.42579
G1 X97.812 Y101.931 E31.48775
G1 X96.854 Y102.310 E31.54970
G1 X95.857 Y102.570 E31.61165
G1 X94.836 Y102.709 E31.67361
G1 X94.200 Y102.736 E31.71186
G1 X57.793 Y102.723 E33.90080
G1 X56.781 Y102.614 E33.96204
G1 X55.777 Y102.382 E34.02399
G1 X54.809 Y102.030 E34.08594
G1 X53.889 Y101.564 E34.14790
G1 X53.033 Y100.991 E34.20984
G1 X52.853 Y100.849 E34.22365
G1 X52.252 Y100.318 E34.27181
G1 X51.558 Y99.557 E34.33377
G1 X50.961 Y98.717 E34.39572
G1 X50.469 Y97.812 E34.45767
G1 X50.090 Y96.854 E34.51963
G1 X49.830 Y95.857 E34.58158
G1 X49.691 Y94.836 E34.64353
G1 X49.677 Y94.606 E34.65736
G1 X49.664 Y94.200 E34.68179
G1 X49.676 Y57.806 E36.86997
G1 X49.786 Y56.781 E36.93196
G1 X50.018 Y55.777 E36.99391
G1 X50.370 Y54.808 E37.05587
G1 X50.836 Y53.889 E37.11782
G1 X51.409 Y53.033 E37.17977
G1 X52.006 Y52.338 E37.23485
G1 F1800.000 E36.23485
G92 E0
G1 X59.708 Y90.043 F4800.000
G1 E1.00000 F1800.000
G1 X60.035 Y89.993 E1.01988 F900.000
G1 X60.365 Y89.993 E1.03977
G1 X60.620 Y90.032 E1.05527
G1 X61.008 Y90.140 E1.07950 F900.000
G1 X61.307 Y90.284 E1.09939
G1 X61.580 Y90.470 E1.11927
G1 X61.822 Y90.695 E1.13916
G1 X62.028 Y90.953 E1.15904
G1 X62.194 Y91.240 E1.17894
G1 X62.315 Y91.548 E1.19882
G1 X62.388 Y91.870 E1.21870
G1 X62.413 Y92.200 E1.23859
G1 X62.388 Y92.530 E1.25848
G1 X62.315 Y92.852 E1.27836
G1 X62.220 Y93.092 E1.29387
G1 X62.028 Y93.447 E1.31809
G1 X61.822 Y93.705 E1.33799
G1 X61.580 Y93.930 E1.35787
G1 X61.306 Y94.116 E1.37776
G1 X61.009 Y94.260 E1.39764
G1 X60.692 Y94.357 E1.41753
G1 X60.365 Y94.407 E1.43741
G1 X60.035 Y94.407 E1.45730
G1 X59.708 Y94.357 E1.47719
G1 X59.392 Y94.260 E1.49707
G1 X59.093 Y94.116 E1.51696
G1 X58.820 Y93.930 E1.53685
G1 X58.578 Y93.705 E1.55673
G1 X58.372 Y93.447 E1.57662
G1 X58.243 Y93.223 E1.59212
G1 X58.085 Y92.852 E1.61635
G1 X58.012 Y92.530 E1.63624
G1 X57.987 Y92.200 E1.65613
G1 X58.012 Y91.870 E1.67601
G1 X58.069 Y91.619 E1.69152
G1 X58.206 Y91.240 E1.71574
G1 X58.372 Y90.953 E1.73563
G1 X58.578 Y90.695 E1.75552
G1 X58.820 Y90.470 E1.77540
G1 X59.094 Y90.284 E1.79529
G1 X59.391 Y90.140 E1.81517
G1 X59.650 Y90.060 E1.83146
G1 X59.808 Y90.572 F4800.000
G1 X60.075 Y90.529 E1.84770 F810.000
G1 X60.325 Y90.529 E1.86276 F810.000
G1 X60.573 Y90.566 E1.87782
G1 X60.812 Y90.640 E1.89288
G1 X61.008 Y90.734 E1.90597
G1 X61.245 Y90.890 E1.92298
G1 X61.428 Y91.060 E1.93804
G1 X61.585 Y91.256 E1.95310
G1 X61.710 Y91.473 E1.96816
G1 X61.801 Y91.706 E1.98321
G1 X61.857 Y91.950 E1.99827
G1 X61.876 Y92.200 E2.01333
G1 X61.857 Y92.450 E2.02839
G1 X61.801 Y92.694 E2.04345
G1 X61.710 Y92.927 E2.05851
G1 X61.585 Y93.144 E2.07357
G1 X61.428 Y93.340 E2.08863
G1 X61.245 Y93.510 E2.10369
G1 X61.038 Y93.651 E2.11875
G1 X60.812 Y93.760 E2.13381
G1 X60.573 Y93.834 E2.14887
G1 X60.325 Y93.871 E2.16393
G1 X60.075 Y93.871 E2.17899
G1 X59.859 Y93.839 E2.19208
G1 X59.588 Y93.760 E2.20909
G1 X59.362 Y93.651 E2.22415
G1 X59.155 Y93.510 E2.23921
G1 X58.972 Y93.340 E2.25427
G1 X58.815 Y93.144 E2.26933
G1 X58.690 Y92.927 E2.28439
G1 X58.599 Y92.694 E2.29945
G1 X58.543 Y92.450 E2.31451
G1 X58.524 Y92.200 E2.32957
G1 X58.540 Y91.983 E2.34266
G1 X58.599 Y91.706 E2.35967
G1 X58.690 Y91.473 E2.37473
G1 X58.815 Y91.256 E2.38979
G1 X58.951 Y91.086 E2.40288
G1 X59.155 Y90.890 E2.41989
G1 X59.362 Y90.749 E2.43494
G1 X59.588 Y90.640 E2.45000
G1 X59.751 Y90.590 E2.46026
G1 X60.183 Y90.303 F4800.000
G1 F1800.000 E1.46026
G92 E0
G1 X89.987 Y92.200 F4800.000
G1 E1.00000 F1800.000
G1 X90.012 Y91.870 E1.01989 F900.000
G1 X90.085 Y91.548 E1.03978
G1 X90.206 Y91.240 E1.05966
G1 X90.372 Y90.953 E1.07954
G1 X90.532 Y90.752 E1.09505
G1 X90.820 Y90.470 E1.11928
G1 X91.094 Y90.283 E1.13917
G1 X91.391 Y90.140 E1.15904
G1 X91.708 Y90.043 E1.17894
G1 X92.035 Y89.993 E1.19882
G1 X92.365 Y89.993 E1.21871
G1 X92.620 Y90.032 E1.23422
G1 X93.008 Y90.140 E1.25844 F900.000
G1 X93.307 Y90.284 E1.27833
G1 X93.580 Y90.470 E1.29821
G1 X93.822 Y90.695 E1.31810
G1 X94.028 Y90.953 E1.33798
G1 X94.194 Y91.240 E1.35788
G1 X94.315 Y91.548 E1.37776
G1 X94.388 Y91.870 E1.39764
G1 X94.413 Y92.200 E1.41753
G1 X94.388 Y92.530 E1.43742
G1 X94.315 Y92.852 E1.45731
G1 X94.194 Y93.160 E1.47719
G1 X94.028 Y93.447 E1.49707
G1 X93.822 Y93.705 E1.51697
G1 X93.580 Y93.930 E1.53685
G1 X93.306 Y94.116 E1.55674
G1 X93.009 Y94.260 E1.57662
G1 X92.692 Y94.357 E1.59651
G1 X92.365 Y94.407 E1.61639
G1 X92.035 Y94.407 E1.63628
G1 X91.708 Y94.357 E1.65617
G1 X91.392 Y94.260 E1.67605
G1 X91.093 Y94.116 E1.69595
G1 X90.820 Y93.930 E1.71582
G1 X90.578 Y93.705 E1.73571
G1 X90.372 Y93.447 E1.75559
G1 X90.206 Y93.160 E1.77549
G1 X90.085 Y92.852 E1.79538
G1 X90.012 Y92.530 E1.81526
G1 X89.992 Y92.260 E1.83154
G1 X90.526 Y92.220 F4800.000
G1 X90.543 Y91.950 E1.84778 F810.000
G1 X90.599 Y91.706 E1.86284
G1 X90.690 Y91.473 E1.87790
G1 X90.815 Y91.256 E1.89296
G1 X90.972 Y91.060 E1.90802
G1 X91.155 Y90.890 E1.92308
G1 X91.362 Y90.749 E1.93814
G1 X91.588 Y90.640 E1.95319
G1 X91.827 Y90.566 E1.96826
G1 X92.075 Y90.529 E1.98331
G1 X92.325 Y90.529 E1.99837 F810.000
G1 X92.573 Y90.566 E2.01343
G1 X92.812 Y90.640 E2.02849
G1 X93.038 Y90.749 E2.04355
G1 X93.245 Y90.890 E2.05861
G1 X93.428 Y91.060 E2.07367
G1 X93.585 Y91.256 E2.08873
G1 X93.710 Y91.473 E2.10379
G1 X93.801 Y91.706 E2.11885
G1 X93.857 Y91.950 E2.13391
G1 X93.876 Y92.200 E2.14897
G1 X93.857 Y92.450 E2.16403
G1 X93.801 Y92.694 E2.17909
G1 X93.710 Y92.927 E2.19415
G1 X93.585 Y93.144 E2.20921
G1 X93.428 Y93.340 E2.22427
G1 X93.245 Y93.510 E2.23933
G1 X93.038 Y93.651 E2.25439
G1 X92.812 Y93.760 E2.26944
G1 X92.573 Y93.834 E2.28451
G1 X92.325 Y93.871 E2.29956
G1 X92.075 Y93.871 E2.31462
G1 X91.827 Y93.834 E2.32968
G1 X91.588 Y93.760 E2.34474
G1 X91.362 Y93.651 E2.35981
G1 X91.155 Y93.510 E2.37486
G1 X90.972 Y93.340 E2.38992
G1 X90.815 Y93.144 E2.40498
G1 X90.690 Y92.927 E2.42004
G1 X90.599 Y92.694 E2.43510
G1 X90.543 Y92.450 E2.45016
G1 X90.530 Y92.280 E2.46042
G1 F1800.000 E1.46042
G92 E0
G1 X92.130 Y90.285 F4800.000
G1 X92.130 Y62.407 F4800.000
G1 E1.00000 F1800.000
G1 X91.708 Y62.357 E1.02560 F900.000
G1 X91.392 Y62.260 E1.04548
G1 X91.093 Y62.116 E1.06538
G1 X90.820 Y61.930 E1.08526
G1 X90.578 Y61.705 E1.10515
G1 X90.372 Y61.447 E1.12503
G1 X90.243 Y61.223 E1.14054
G1 X90.085 Y60.852 E1.16477
G1 X90.012 Y60.530 E1.18465
G1 X89.987 Y60.200 E1.20454
G1 X90.012 Y59.870 E1.22443
G1 X90.085 Y59.548 E1.24431
G1 X90.206 Y59.240 E1.26419
G1 X90.372 Y58.953 E1.28408
G1 X90.578 Y58.695 E1.30397
G1 X90.820 Y58.470 E1.32385
G1 X91.094 Y58.283 E1.34375
G1 X91.392 Y58.140 E1.36363
G1 X91.708 Y58.043 E1.38351
G1 X92.035 Y57.993 E1.40340
G1 X92.365 Y57.993 E1.42329
G1 X92.620 Y58.032 E1.43879
G1 X93.008 Y58.140 E1.46302 F900.000
G1 X93.306 Y58.284 E1.48291
G1 X93.580 Y58.470 E1.50279
G1 X93.822 Y58.695 E1.52268
G1 X94.028 Y58.953 E1.54256
G1 X94.194 Y59.240 E1.56245
G1 X94.315 Y59.548 E1.58234
G1 X94.388 Y59.870 E1.60222
G1 X94.413 Y60.200 E1.62211
G1 X94.388 Y60.530 E1.64200
G1 X94.315 Y60.852 E1.66188
G1 X94.194 Y61.160 E1.68176
G1 X94.028 Y61.447 E1.70165
G1 X93.822 Y61.705 E1.72154
G1 X93.580 Y61.930 E1.74143
G1 X93.306 Y62.116 E1.76132
G1 X93.009 Y62.260 E1.78120
G1 X92.692 Y62.357 E1.80109
G1 X92.365 Y62.407 E1.82097
G1 X92.190 Y62.407 E1.83149
G1 X92.190 Y61.871 F4800.000
G1 X91.827 Y61.834 E1.85345 F810.000
G1 X91.588 Y61.760 E1.86851
G1 X91.362 Y61.651 E1.88357
G1 X91.155 Y61.510 E1.89863
G1 X90.972 Y61.340 E1.91369
G1 X90.815 Y61.144 E1.92875
G1 X90.690 Y60.927 E1.94381
G1 X90.611 Y60.724 E1.95690
G1 X90.543 Y60.450 E1.97391
G1 X90.524 Y60.200 E1.98897
G1 X90.543 Y59.950 E2.00403
G1 X90.599 Y59.706 E2.01909
G1 X90.690 Y59.473 E2.03415
G1 X90.815 Y59.256 E2.04920
G1 X90.972 Y59.060 E2.06427
G1 X91.155 Y58.890 E2.07933
G1 X91.362 Y58.749 E2.09439
G1 X91.558 Y58.654 E2.10748
G1 X91.827 Y58.566 E2.12449
G1 X92.075 Y58.529 E2.13955
G1 X92.325 Y58.529 E2.15460 F810.000
G1 X92.573 Y58.566 E2.16966
G1 X92.812 Y58.640 E2.18472
G1 X93.038 Y58.749 E2.19978
G1 X93.245 Y58.890 E2.21484
G1 X93.428 Y59.060 E2.22990
G1 X93.585 Y59.256 E2.24496
G1 X93.710 Y59.473 E2.26002
G1 X93.801 Y59.706 E2.27508
G1 X93.857 Y59.950 E2.29014
G1 X93.876 Y60.200 E2.30520
G1 X93.857 Y60.450 E2.32026
G1 X93.801 Y60.694 E2.33532
G1 X93.710 Y60.927 E2.35038
G1 X93.585 Y61.144 E2.36544
G1 X93.428 Y61.340 E2.38050
G1 X93.245 Y61.510 E2.39556
G1 X93.038 Y61.651 E2.41062
G1 X92.812 Y61.760 E2.42567
G1 X92.573 Y61.834 E2.44074
G1 X92.250 Y61.871 E2.46025
G1 F1800.000 E1.46025
G92 E0
G1 X92.062 Y58.279 F4800.000
G1 X62.413 Y60.200 F4800.000
G1 E1.00000 F1800.000
G1 X62.388 Y60.530 E1.01989 F900.000
G1 X62.315 Y60.852 E1.03977
G1 X62.194 Y61.160 E1.05966
G1 X62.028 Y61.447 E1.07955
G1 X61.822 Y61.705 E1.09943
G1 X61.580 Y61.930 E1.11932
G1 X61.306 Y62.116 E1.13921
G1 X61.009 Y62.260 E1.15909
G1 X60.692 Y62.357 E1.17898
G1 X60.365 Y62.407 E1.19886
G1 X60.035 Y62.407 E1.21875
G1 X59.708 Y62.357 E1.23864
G1 X59.392 Y62.260 E1.25852
G1 X59.093 Y62.116 E1.27841
G1 X58.820 Y61.930 E1.29830
G1 X58.578 Y61.705 E1.31818
G1 X58.372 Y61.447 E1.33807
G1 X58.206 Y61.160 E1.35795
G1 X58.085 Y60.852 E1.37784
G1 X58.012 Y60.530 E1.39773
G1 X57.987 Y60.200 E1.41761
G1 X58.012 Y59.870 E1.43750
G1 X58.085 Y59.548 E1.45738
G1 X58.206 Y59.240 E1.47727
G1 X58.372 Y58.953 E1.49716
G1 X58.578 Y58.695 E1.51705
G1 X58.820 Y58.470 E1.53693
G1 X59.094 Y58.284 E1.55682
G1 X59.392 Y58.140 E1.57670
G1 X59.708 Y58.043 E1.59659
G1 X60.035 Y57.993 E1.61648
G1 X60.365 Y57.993 E1.63636
G1 X60.620 Y58.032 E1.65187
G1 X61.008 Y58.140 E1.67610 F900.000
G1 X61.306 Y58.283 E1.69598
G1 X61.580 Y58.470 E1.71587
G1 X61.822 Y58.695 E1.73575
G1 X62.028 Y58.953 E1.75564
G1 X62.194 Y59.240 E1.77553
G1 X62.315 Y59.548 E1.79541
G1 X62.388 Y59.870 E1.81530
G1 X62.408 Y60.140 E1.83158
G1 X61.874 Y60.180 F4800.000
G1 X61.857 Y60.450 E1.84782 F810.000
G1 X61.801 Y60.694 E1.86288
G1 X61.710 Y60.927 E1.87794
G1 X61.585 Y61.144 E1.89300
G1 X61.428 Y61.340 E1.90806
G1 X61.245 Y61.510 E1.92311
G1 X61.038 Y61.651 E1.93817
G1 X60.812 Y61.760 E1.95323
G1 X60.573 Y61.834 E1.96829
G1 X60.325 Y61.871 E1.98335
G1 X60.075 Y61.871 E1.99841
G1 X59.827 Y61.834 E2.01347
G1 X59.588 Y61.760 E2.02853
G1 X59.362 Y61.651 E2.04359
G1 X59.155 Y61.510 E2.05865
G1 X58.972 Y61.340 E2.07371
G1 X58.815 Y61.144 E2.08877
G1 X58.690 Y60.927 E2.10383
G1 X58.599 Y60.694 E2.11889
G1 X58.543 Y60.450 E2.13395
G1 X58.524 Y60.200 E2.14901
G1 X58.543 Y59.950 E2.16407
G1 X58.599 Y59.706 E2.17913
G1 X58.690 Y59.473 E2.19419
G1 X58.815 Y59.256 E2.20925
G1 X58.972 Y59.060 E2.22431
G1 X59.155 Y58.890 E2.23937
G1 X59.362 Y58.749 E2.25443
G1 X59.588 Y58.640 E2.26949
G1 X59.827 Y58.566 E2.28455
G1 X60.075 Y58.529 E2.29961
G1 X60.325 Y58.529 E2.31466 F810.000
G1 X60.573 Y58.566 E2.32972
G1 X60.812 Y58.640 E2.34478
G1 X61.038 Y58.749 E2.35984
G1 X61.245 Y58.890 E2.37490
G1 X61.428 Y59.060 E2.38996
G1 X61.564 Y59.230 E2.40305
G1 X61.710 Y59.473 E2.42006
G1 X61.801 Y59.706 E2.43512
