; generated by Slic3r 1.2.0 on 2014-09-27 at 12:48:44

; external perimeters extrusion width = 0.40mm
; perimeters extrusion width = 0.67mm
; infill extrusion width = 0.67mm
; solid infill extrusion width = 0.67mm
; top infill extrusion width = 0.67mm

G21 ; set units to millimeters
M107
M104 S195 ; set temperature
G28 X0 Y0  
G29
M109 S195 ; wait for temperature to be reached
G90 ; use absolute coordinates
G92 E0
M82 ; use absolute distances for extrusion
G1 F1800.000 E-1.00000
G92 E0
G1 Z0.300 F4800.000
G1 X49.870 Y42.110 F4800.000
G1 E1.00000 F1800.000
G1 X50.504 Y41.406 E1.05383 F960.000
G1 X51.194 Y40.783 E1.10662
G1 X52.039 Y40.173 E1.16579
G1 X52.947 Y39.669 E1.22475
G1 X54.339 Y39.121 E1.30971
G1 X54.616 Y39.041 E1.32607
G1 X55.587 Y38.828 E1.38255
G1 X56.674 Y38.707 E1.44461
G1 X57.516 Y38.688 E1.49248
G1 X91.304 Y39.278 E3.41141 F960.000
G1 X91.759 Y39.307 E3.43725
G1 X92.557 Y39.399 E3.48289
G1 X93.765 Y39.642 E3.55288
G1 X94.202 Y39.762 E3.57859
G1 X94.910 Y39.994 E3.62091
G1 X95.979 Y40.437 E3.68659
G1 X96.965 Y40.953 E3.74979
G1 X97.868 Y41.525 E3.81051
G1 X98.692 Y42.138 E3.86886
G1 X99.065 Y42.448 E3.89639
G1 X99.443 Y42.783 E3.92507
G1 X100.128 Y43.450 E3.97935
G1 X100.753 Y44.134 E4.03196
G1 X101.326 Y44.830 E4.08315
G1 X101.646 Y45.253 E4.11328
G1 X102.336 Y46.249 E4.18208
G1 X103.063 Y47.453 E4.26191
G1 X103.630 Y48.525 E4.33078
G1 X104.303 Y49.978 E4.42174
G1 X104.883 Y51.439 E4.51099
G1 X105.263 Y52.538 E4.57704
G1 X105.798 Y54.355 E4.68460
G1 X106.143 Y55.799 E4.76889
G1 X106.415 Y57.228 E4.85149
G1 X106.616 Y58.644 E4.93269
G1 X106.724 Y59.796 E4.99840
G1 X108.421 Y84.120 E6.38298
G1 X108.412 Y84.472 E6.40299
G1 X108.279 Y85.709 E6.47362
G1 X108.211 Y86.062 E6.49403
G1 X107.864 Y87.295 E6.56677
G1 X107.738 Y87.631 E6.58715
G1 X107.332 Y88.533 E6.64336
G1 X106.906 Y89.273 E6.69184
G1 X106.412 Y89.979 E6.74073
G1 X105.721 Y90.784 E6.80097
G1 X104.989 Y91.470 E6.85794
G1 X103.880 Y92.297 E6.93650
G1 X102.830 Y92.928 E7.00609
G1 X64.736 Y112.819 E9.44634
G1 X63.532 Y113.288 E9.51975
G1 X62.824 Y113.478 E9.56136
G1 X61.808 Y113.643 E9.61979
G1 X60.593 Y113.714 E9.68890
G1 X60.288 Y113.710 E9.70624
G1 X59.190 Y113.621 E9.76879
G1 X56.830 Y112.931 E9.90841
G1 X54.813 Y111.525 E10.04803
G1 X53.935 Y110.506 E10.12441
G1 X47.171 Y101.070 E10.78365
G1 X46.581 Y100.088 E10.84875
G1 X46.176 Y99.251 E10.90153
G1 X45.903 Y98.551 E10.94420
G1 X45.615 Y97.578 E11.00180
G1 X44.051 Y90.609 E11.40738
G1 X43.980 Y89.729 E11.45755
G1 X44.014 Y88.715 E11.51513
G1 X47.900 Y46.560 E13.91904
G1 X48.175 Y45.350 E13.98949
G1 X48.463 Y44.520 E14.03939
G1 X48.840 Y43.689 E14.09119
G1 X49.311 Y42.879 E14.14442
G1 X49.834 Y42.158 E14.19496
G1 X50.264 Y42.477 F4800.000
G1 X50.880 Y41.788 E14.24744 F960.000
G1 X51.529 Y41.201 E14.29711
G1 X52.331 Y40.623 E14.35327
G1 X53.174 Y40.153 E14.40809
G1 X54.487 Y39.635 E14.48822
G1 X54.764 Y39.556 E14.50458
G1 X55.667 Y39.358 E14.55710
G1 X56.698 Y39.242 E14.61597
G1 X57.509 Y39.223 E14.66204
G1 X91.271 Y39.813 E16.57948 F960.000
G1 X91.725 Y39.842 E16.60533
G1 X92.468 Y39.927 E16.64781
G1 X93.623 Y40.158 E16.71472
G1 X94.060 Y40.278 E16.74042
G1 X94.719 Y40.494 E16.77979
G1 X95.742 Y40.917 E16.84269
G1 X96.688 Y41.411 E16.90330
G1 X97.557 Y41.960 E16.96163
G1 X98.350 Y42.550 E17.01779
G1 X98.723 Y42.860 E17.04531
G1 X99.075 Y43.172 E17.07200
G1 X99.737 Y43.816 E17.12447
G1 X100.343 Y44.478 E17.17544
G1 X100.899 Y45.154 E17.22512
G1 X101.219 Y45.577 E17.25524
G1 X101.883 Y46.535 E17.32142
G1 X102.599 Y47.721 E17.40009
G1 X103.146 Y48.754 E17.46644
G1 X103.807 Y50.179 E17.55566
G1 X104.377 Y51.614 E17.64335
G1 X104.865 Y53.051 E17.72953
G1 X105.278 Y54.483 E17.81413
G1 X105.617 Y55.903 E17.89704
G1 X105.886 Y57.307 E17.97821
G1 X106.082 Y58.695 E18.05785
G1 X106.174 Y59.644 E18.11195
G1 X107.886 Y84.106 E19.50443
G1 X107.753 Y85.608 E19.59005
G1 X107.685 Y85.961 E19.61045
G1 X107.363 Y87.107 E19.67807
G1 X107.237 Y87.443 E19.69844
G1 X106.859 Y88.282 E19.75071
G1 X106.456 Y88.982 E19.79653
G1 X105.990 Y89.648 E19.84273
G1 X105.331 Y90.418 E19.90027
G1 X104.649 Y91.055 E19.95325
G1 X103.596 Y91.843 E20.02793
G1 X102.581 Y92.453 E20.09517
G1 X64.519 Y112.329 E22.53347
G1 X63.368 Y112.778 E22.60362
G1 X62.710 Y112.955 E22.64231
G1 X61.758 Y113.110 E22.69710
G1 X60.600 Y113.178 E22.76294
G1 X60.295 Y113.174 E22.78028
G1 X59.255 Y113.089 E22.83953
G1 X56.984 Y112.411 E22.97411
G1 X54.370 Y110.194 E23.16876
G1 X47.620 Y100.778 E23.82661
G1 X47.191 Y100.086 E23.87285
G1 X46.782 Y99.294 E23.92348
G1 X46.411 Y98.381 E23.97943
G1 X46.137 Y97.458 E24.03408
G1 X44.582 Y90.541 E24.43667
G1 X44.515 Y89.711 E24.48395
G1 X44.547 Y88.764 E24.53777
G1 X48.427 Y46.658 E26.93887
G1 X48.688 Y45.507 E27.00586
G1 X48.959 Y44.723 E27.05301
G1 X49.314 Y43.939 E27.10189
G1 X49.757 Y43.175 E27.15204
G1 X50.228 Y42.525 E27.19760
G1 X50.658 Y42.843 F4800.000
G1 X51.255 Y42.170 E27.24872 F960.000
G1 X51.863 Y41.620 E27.29528
G1 X52.622 Y41.072 E27.34843
G1 X53.402 Y40.638 E27.39910
G1 X54.635 Y40.150 E27.47440
G1 X54.912 Y40.070 E27.49076
G1 X55.747 Y39.888 E27.53932
G1 X56.722 Y39.777 E27.59501
G1 X57.501 Y39.759 E27.63928
G1 X91.237 Y40.348 E29.55524 F960.000
G1 X91.691 Y40.376 E29.58108
G1 X92.379 Y40.455 E29.62040
G1 X93.481 Y40.675 E29.68423
G1 X93.918 Y40.795 E29.70993
G1 X94.527 Y40.994 E29.74635
G1 X95.506 Y41.398 E29.80646
G1 X96.412 Y41.870 E29.86448
G1 X97.245 Y42.396 E29.92041
G1 X98.008 Y42.962 E29.97439
G1 X98.381 Y43.272 E30.00191
G1 X98.707 Y43.561 E30.02661
G1 X99.346 Y44.182 E30.07727
G1 X99.933 Y44.823 E30.12658
G1 X100.472 Y45.478 E30.17477
G1 X100.970 Y46.144 E30.22200
G1 X101.429 Y46.821 E30.26844
G1 X101.855 Y47.505 E30.31421
G1 X102.251 Y48.196 E30.35942
G1 X102.661 Y48.983 E30.40980
G1 X103.310 Y50.380 E30.49727
G1 X103.871 Y51.789 E30.58339
G1 X104.351 Y53.202 E30.66813
G1 X104.757 Y54.610 E30.75134
G1 X105.092 Y56.006 E30.83287
G1 X105.356 Y57.385 E30.91262
G1 X105.549 Y58.747 E30.99070
G1 X105.641 Y59.695 E31.04479
G1 X107.351 Y84.092 E32.43358
G1 X107.227 Y85.507 E32.51422
G1 X107.160 Y85.854 E32.53431
G1 X106.861 Y86.919 E32.59710
G1 X106.735 Y87.255 E32.61747
G1 X106.386 Y88.031 E32.66581
G1 X106.007 Y88.690 E32.70895
G1 X105.569 Y89.318 E32.75246
G1 X104.940 Y90.051 E32.80732
G1 X104.310 Y90.641 E32.85629
G1 X103.313 Y91.389 E32.92710
G1 X102.333 Y91.978 E32.99200
G1 X64.302 Y111.839 E35.42833
G1 X63.205 Y112.268 E35.49522
G1 X62.597 Y112.431 E35.53099
G1 X61.708 Y112.577 E35.58215
G1 X60.608 Y112.643 E35.64472
G1 X60.302 Y112.638 E35.66205
G1 X59.320 Y112.557 E35.71801
G1 X57.142 Y111.891 E35.84736
G1 X54.805 Y109.881 E36.02237
G1 X48.069 Y100.486 E36.67883
G1 X47.660 Y99.827 E36.72289
G1 X47.271 Y99.075 E36.77097
G1 X46.919 Y98.211 E36.82392
G1 X46.659 Y97.338 E36.87564
G1 X45.113 Y90.473 E37.27524
G1 X45.051 Y89.694 E37.31962
G1 X45.080 Y88.813 E37.36969
G1 X48.954 Y46.756 E39.76797
G1 X49.200 Y45.665 E39.83150
G1 X49.454 Y44.925 E39.87591
G1 X49.788 Y44.188 E39.92185
G1 X50.204 Y43.471 E39.96893
G1 X50.622 Y42.892 E40.00951
G1 F1800.000 E39.00951
G92 E0
G1 X61.566 Y89.023 F4800.000
G1 E1.00000 F1800.000
G1 X61.969 Y89.016 E1.02288 F1200.000
G1 X62.295 Y89.085 E1.04179
G1 X62.583 Y89.221 E1.05986
G1 X62.859 Y89.441 E1.07991
G1 X63.069 Y89.719 E1.09973
G1 X63.210 Y90.052 E1.12021
G1 X63.248 Y90.235 E1.13087
G1 X63.263 Y90.437 E1.14232
G1 X63.219 Y90.786 E1.16230
G1 X63.134 Y91.028 E1.17690
G1 X63.020 Y91.232 E1.19017
G1 X62.831 Y91.459 E1.20690
G1 X62.651 Y91.607 E1.22017
G1 X62.427 Y91.734 E1.23478
G1 X62.221 Y91.810 E1.24726
G1 X61.960 Y91.857 E1.26228
G1 X61.599 Y91.879 E1.28283
G1 X61.725 Y92.077 E1.29620
G1 X61.810 Y92.272 E1.30823
G1 X61.877 Y92.556 E1.32484
G1 X61.888 Y92.782 E1.33767
G1 X61.857 Y93.035 E1.35214
G1 X61.797 Y93.243 E1.36443
G1 X61.672 Y93.494 E1.38035
G1 X61.538 Y93.676 E1.39321
G1 X61.288 Y93.902 E1.41233
G1 X61.124 Y94.003 E1.42328
G1 X60.929 Y94.088 E1.43531
G1 X60.588 Y94.160 E1.45513
G1 X60.224 Y94.146 E1.47584
G1 X59.379 Y93.908 E1.52565
G1 X58.679 Y93.670 E1.56768
G1 X57.990 Y93.401 E1.60966
G1 X57.314 Y93.104 E1.65161
G1 X56.669 Y92.787 E1.69240
G1 X56.039 Y92.444 E1.73313
G1 X55.424 Y92.077 E1.77381
G1 X54.774 Y91.653 E1.81786
G1 X54.570 Y91.439 E1.83467
G1 X54.437 Y91.224 E1.84902
G1 X54.359 Y91.009 E1.86202
G1 X54.326 Y90.792 E1.87449
G1 X54.335 Y90.531 E1.88929
G1 X54.368 Y90.323 E1.90124
G1 X54.543 Y89.942 E1.92508
G1 X54.660 Y89.558 E1.94784
G1 X54.718 Y89.186 E1.96922
G1 X54.719 Y88.666 E1.99876
G1 X54.783 Y88.352 E2.01698
G1 X54.879 Y88.107 E2.03193
G1 X55.021 Y87.892 E2.04652
G1 X55.255 Y87.682 E2.06441
G1 X55.615 Y87.510 E2.08703
G1 X56.912 Y87.381 E2.16103
G1 X57.728 Y87.273 E2.20781
G1 X58.676 Y87.102 E2.26250
G1 X59.218 Y86.977 E2.29408
G1 X60.215 Y86.681 E2.35316
G1 X60.487 Y86.653 E2.36868
G1 X60.744 Y86.675 E2.38328
G1 X61.106 Y86.790 E2.40488
G1 X61.425 Y86.996 E2.42646
G1 X61.655 Y87.247 E2.44579
G1 X61.756 Y87.409 E2.45659
G1 X61.840 Y87.598 E2.46835
G1 X61.895 Y87.798 E2.48011
G1 X61.920 Y87.986 E2.49092
G1 X61.902 Y88.326 E2.51024
G1 X61.861 Y88.496 E2.52016
G1 X61.787 Y88.688 E2.53188
G1 X61.605 Y88.977 E2.55127
G1 F1800.000 E1.55127
G92 E0
G1 X58.812 Y89.437 F4800.000
G1 E1.00000 F1800.000
G1 X59.929 Y89.554 E1.06379 F1080.000
G1 X60.597 Y89.584 E1.10176
G1 X61.181 Y89.582 E1.13492
G1 X61.836 Y89.545 E1.17218
G1 X62.003 Y89.561 E1.18171
G1 X62.221 Y89.633 E1.19470
G1 X62.407 Y89.752 E1.20726
G1 X62.558 Y89.914 E1.21983
G1 X62.653 Y90.082 E1.23077
G1 X62.705 Y90.243 E1.24041
G1 X62.727 Y90.436 E1.25145
G1 X62.703 Y90.639 E1.26304
G1 X62.639 Y90.821 E1.27398
G1 X62.520 Y91.007 E1.28654
G1 X62.391 Y91.133 E1.29674
G1 X62.237 Y91.232 E1.30717
G1 X62.076 Y91.294 E1.31696
G1 X61.915 Y91.324 E1.32629
G1 X61.234 Y91.363 E1.36497
G1 X60.560 Y91.366 E1.40326
G1 X59.809 Y91.332 E1.44598
G1 X58.818 Y91.234 E1.50248
G1 X59.473 Y91.492 E1.54245
G1 X60.813 Y91.921 E1.62232
G1 X61.006 Y92.034 E1.63500
G1 X61.166 Y92.194 E1.64788
G1 X61.289 Y92.409 E1.66194
G1 X61.345 Y92.625 E1.67462
G1 X61.347 Y92.838 E1.68670
G1 X61.295 Y93.054 E1.69931
G1 X61.189 Y93.254 E1.71215
G1 X61.046 Y93.412 E1.72426
G1 X60.861 Y93.536 E1.73690
G1 X60.627 Y93.615 E1.75095
G1 X60.451 Y93.630 E1.76098
G1 X60.276 Y93.611 E1.77095
G1 X59.541 Y93.398 E1.81442
G1 X58.862 Y93.166 E1.85514
G1 X58.195 Y92.906 E1.89581
G1 X57.540 Y92.618 E1.93646
G1 X56.915 Y92.311 E1.97599
G1 X56.304 Y91.979 E2.01548
G1 X55.708 Y91.623 E2.05493
G1 X55.108 Y91.231 E2.09558
G1 X54.993 Y91.110 E2.10505
G1 X54.908 Y90.965 E2.11461
G1 X54.861 Y90.759 E2.12662
G1 X54.885 Y90.484 E2.14230
G1 X55.042 Y90.136 E2.16400
G1 X55.183 Y89.677 E2.19124
G1 X55.253 Y89.227 E2.21709
G1 X55.256 Y88.707 E2.24663
G1 X55.298 Y88.500 E2.25864
G1 X55.356 Y88.351 E2.26769
G1 X55.457 Y88.208 E2.27763
G1 X55.587 Y88.106 E2.28703
G1 X55.741 Y88.037 E2.29662
G1 X56.975 Y87.913 E2.36702
G1 X58.329 Y87.717 E2.44476
G1 X59.351 Y87.496 E2.50410
G1 X60.354 Y87.200 E2.56349
G1 X60.615 Y87.196 E2.57832
G1 X60.877 Y87.274 E2.59384
G1 X61.064 Y87.393 E2.60640
G1 X61.198 Y87.531 E2.61734
G1 X61.305 Y87.705 E2.62893
G1 X61.370 Y87.902 E2.64073
G1 X61.387 Y88.109 E2.65250
G1 X61.353 Y88.324 E2.66486
G1 X61.278 Y88.508 E2.67614
G1 X61.149 Y88.686 E2.68865
G1 X61.017 Y88.803 E2.69867
G1 X60.872 Y88.888 E2.70820
G1 X60.295 Y89.083 E2.74280
G1 X59.793 Y89.223 E2.77240
G1 X58.871 Y89.426 E2.82600
G1 X59.212 Y89.436 F4800.000
G1 F1800.000 E1.82600
G92 E0
G1 X57.661 Y93.518 F4800.000
G1 E1.00000 F1800.000
G1 X58.045 Y93.696 E1.02402 F1200.000
G1 X58.256 Y93.838 E1.03847
G1 X58.446 Y93.996 E1.05252
G1 X58.764 Y94.351 E1.07955
G1 X58.999 Y94.742 E1.10547
G1 X59.154 Y95.159 E1.13075
G1 X59.199 Y95.377 E1.14340
G1 X59.220 Y95.603 E1.15624
G1 X59.212 Y95.836 E1.16947
G1 X59.129 Y96.195 E1.19041
G1 X59.014 Y96.437 E1.20561
G1 X58.936 Y96.553 E1.21359
G1 X58.740 Y96.760 E1.22976
G1 X58.445 Y96.964 E1.25013
G1 X58.114 Y97.103 E1.27048
G1 X57.769 Y97.164 E1.29041
G1 X57.425 Y97.155 E1.30993
G1 X57.143 Y97.102 E1.32623
G1 X56.856 Y97.014 E1.34325
G1 X56.321 Y96.796 E1.37606
G1 X56.006 Y96.641 E1.39604
G1 X55.695 Y96.452 E1.41668
G1 X55.399 Y96.228 E1.43775
G1 X55.125 Y95.964 E1.45939
G1 X54.897 Y95.666 E1.48067
G1 X54.700 Y95.277 E1.50541
G1 X54.635 Y95.067 E1.51789
G1 X54.596 Y94.845 E1.53074
G1 X54.586 Y94.612 E1.54393
G1 X54.626 Y94.180 E1.56857
G1 X54.891 Y93.855 E1.59238
G1 X55.054 Y93.705 E1.60497
G1 X55.229 Y93.580 E1.61719
G1 X55.413 Y93.481 E1.62908
G1 X55.813 Y93.339 E1.65312
G1 X56.189 Y93.277 E1.67476
G1 X56.651 Y93.279 E1.70103
G1 X56.999 Y93.320 E1.72091 F1200.000
G1 X57.408 Y93.422 E1.74483
G1 X57.605 Y93.497 E1.75681
G1 F1800.000 E0.75681
G92 E0
G1 X55.145 Y94.392 F4800.000
G1 E1.00000 F1800.000
G1 X55.282 Y94.223 E1.01241 F1080.000
G1 X55.392 Y94.122 E1.02086
G1 X55.644 Y93.965 E1.03770
G1 X55.934 Y93.862 E1.05521
G1 X56.236 Y93.812 E1.07260
G1 X56.563 Y93.808 E1.09116
G1 X56.902 Y93.848 E1.11055
G1 X57.248 Y93.934 E1.13076
G1 X57.592 Y94.065 E1.15170
G1 X57.772 Y94.158 E1.16316
G1 X58.083 Y94.390 E1.18525
G1 X58.216 Y94.525 E1.19596
G1 X58.432 Y94.819 E1.21669
G1 X58.516 Y94.974 E1.22673
G1 X58.635 Y95.295 E1.24612
G1 X58.683 Y95.618 E1.26470
G1 X58.678 Y95.779 E1.27381
G1 X58.625 Y96.012 E1.28742
G1 X58.508 Y96.229 E1.30140
G1 X58.290 Y96.429 E1.31820
G1 X58.076 Y96.548 E1.33210
G1 X57.848 Y96.615 E1.34562
G1 X57.615 Y96.631 E1.35886
G1 X57.271 Y96.581 E1.37861
G1 X57.036 Y96.509 E1.39256
G1 X56.541 Y96.307 E1.42291
G1 X56.264 Y96.171 E1.44047
G1 X55.996 Y96.008 E1.45824
G1 X55.748 Y95.820 E1.47594
G1 X55.525 Y95.606 E1.49347
G1 X55.344 Y95.369 E1.51041
G1 X55.203 Y95.090 E1.52818
G1 X55.129 Y94.786 E1.54591
G1 X55.139 Y94.452 E1.56490
G1 X55.025 Y94.209 F4800.000
G1 F1800.000 E0.56490
G92 E0
G1 X59.659 Y48.510 F4800.000
G1 E1.00000 F1800.000
G1 X57.951 Y48.915 E1.09968 F1200.000
G1 X57.609 Y48.938 E1.11918
G1 X57.375 Y48.908 E1.13255
G1 X57.250 Y48.851 E1.14039
G1 X56.918 Y48.567 E1.16517
G1 X56.830 Y48.455 E1.17325
G1 X56.752 Y48.296 E1.18331
G1 X56.747 Y48.096 E1.19467
G1 X56.782 Y47.909 E1.20547
G1 X56.832 Y47.783 E1.21318
G1 X56.927 Y47.718 E1.21971
G1 X57.149 Y47.673 E1.23259
G1 X60.158 Y47.704 E1.40346
G1 X60.428 Y47.924 E1.42325
G1 X60.625 Y48.191 E1.44211
G1 X60.733 Y48.441 E1.45756
G1 X61.167 Y50.018 E1.55043
G1 X61.649 Y51.500 E1.63895
G1 X62.430 Y53.707 E1.77185
G1 X62.640 Y54.238 E1.80430
G1 X63.528 Y56.100 E1.92143
G1 X63.353 Y62.324 E2.27500
G1 X63.367 Y64.196 E2.38131
G1 X63.447 Y65.484 E2.45455
G1 X63.600 Y66.688 E2.52349
G1 X63.841 Y67.889 E2.59302
G1 X64.005 Y68.518 E2.62998
G1 X64.199 Y69.150 E2.66752
G1 X64.427 Y69.782 E2.70563
G1 X64.694 Y70.410 E2.74441
G1 X65.016 Y71.058 E2.78547
G1 X65.387 Y71.694 E2.82728
G1 X65.822 Y72.327 E2.87088
G1 X66.311 Y72.931 E2.91504
G1 X66.867 Y73.509 E2.96057
G1 X67.497 Y74.058 E3.00802
G1 X67.895 Y74.358 E3.03635
G1 X68.523 Y74.770 E3.07901
G1 X68.953 Y75.016 E3.10709
G1 X69.433 Y75.256 E3.13761
G1 X69.816 Y75.428 E3.16145
G1 X70.673 Y75.750 E3.21344
G1 X71.660 Y76.029 E3.27167
G1 X72.643 Y76.225 E3.32859
G1 X73.048 Y76.252 E3.35163
G1 X73.340 Y76.222 E3.36831
G1 X73.625 Y76.151 E3.38501
G1 X73.870 Y76.053 E3.39995
G1 X74.130 Y75.907 E3.41690
G1 X74.380 Y75.711 E3.43494
G1 X74.617 Y75.455 E3.45473
G1 X74.794 Y75.186 E3.47301
G1 X74.902 Y74.959 E3.48728
G1 X74.993 Y74.685 E3.50373
G1 X75.047 Y74.356 E3.52261
G1 X75.045 Y73.968 E3.54464
G1 X74.999 Y73.707 E3.55972
G1 X74.850 Y73.287 E3.58503
G1 X74.673 Y72.986 E3.60484
G1 X74.384 Y72.658 E3.62966
G1 X74.034 Y72.399 E3.65440
G1 X73.788 Y72.275 E3.67003
G1 X73.599 Y72.205 E3.68151
G1 X72.627 Y72.001 E3.73787
G1 X71.967 Y71.814 E3.77683
G1 X71.408 Y71.604 E3.81072
G1 X70.709 Y71.253 E3.85516
G1 X70.478 Y71.110 E3.87060
G1 X70.078 Y70.820 E3.89867
G1 X69.587 Y70.373 E3.93632
G1 X69.141 Y69.848 E3.97549
G1 X68.886 Y69.477 E4.00105
G1 X68.662 Y69.093 E4.02629
G1 X68.458 Y68.683 E4.05226
G1 X68.128 Y67.839 E4.10376
G1 X67.868 Y66.923 E4.15777
G1 X67.687 Y66.022 E4.20997
G1 X67.616 Y65.515 E4.23904
G1 X67.535 Y64.638 E4.28909
G1 X67.494 Y63.568 E4.34989
G1 X67.494 Y62.375 E4.41762
G1 X67.626 Y57.701 E4.68311
